(G-CODE GENERATED BY FLATCAM v8.994 - www.flatcam.org - Version Date: 2020/11/7)

(Name: SimpleGRBLEndSwich-B_Cu.gbr_iso_combined_cnc)
(Type: G-code from Geometry)
(Units: MM)

(X range:      0.29 ...     42.71  mm)
(Y range:      0.29 ...     44.71  mm)

(Spindle Speed: 5000.0 RPM)
G21
G90
G17
G94
T1
G00 Z15.00
M03 S5000.0
G01 F120
G00 X0.29 Y0.66
G01 Z2.00 F200
G01 F30
G01 Z-0.11
G01 F120
G01 X0.29 Y44.34 F120
G01 X0.29 Y44.38 F120
G01 X0.30 Y44.41 F120
G01 X0.31 Y44.45 F120
G01 X0.32 Y44.48 F120
G01 X0.34 Y44.51 F120
G01 X0.35 Y44.54 F120
G01 X0.38 Y44.57 F120
G01 X0.40 Y44.60 F120
G01 X0.43 Y44.62 F120
G01 X0.46 Y44.65 F120
G01 X0.49 Y44.66 F120
G01 X0.52 Y44.68 F120
G01 X0.55 Y44.69 F120
G01 X0.59 Y44.70 F120
G01 X0.62 Y44.71 F120
G01 X0.66 Y44.71 F120
G01 X42.34 Y44.71 F120
G01 X42.38 Y44.71 F120
G01 X42.41 Y44.70 F120
G01 X42.45 Y44.69 F120
G01 X42.48 Y44.68 F120
G01 X42.51 Y44.66 F120
G01 X42.54 Y44.65 F120
G01 X42.57 Y44.62 F120
G01 X42.60 Y44.60 F120
G01 X42.62 Y44.57 F120
G01 X42.65 Y44.54 F120
G01 X42.66 Y44.51 F120
G01 X42.68 Y44.48 F120
G01 X42.69 Y44.45 F120
G01 X42.70 Y44.41 F120
G01 X42.71 Y44.38 F120
G01 X42.71 Y44.34 F120
G01 X42.71 Y20.57 F120
G01 X42.71 Y20.54 F120
G01 X42.70 Y20.52 F120
G01 X42.70 Y20.49 F120
G01 X42.69 Y20.46 F120
G01 X42.68 Y20.42 F120
G01 X42.67 Y20.40 F120
G01 X42.66 Y20.38 F120
G01 X42.65 Y20.36 F120
G01 X42.63 Y20.34 F120
G01 X42.61 Y20.31 F120
G01 X42.60 Y20.30 F120
G01 X42.57 Y20.28 F120
G01 X42.55 Y20.27 F120
G01 X42.54 Y20.26 F120
G01 X42.51 Y20.24 F120
G01 X42.47 Y20.22 F120
G01 X42.45 Y20.22 F120
G01 X42.44 Y20.21 F120
G01 X42.41 Y20.21 F120
G01 X42.39 Y20.20 F120
G01 X42.37 Y20.20 F120
G01 X42.35 Y20.20 F120
G01 X42.30 Y20.20 F120
G01 X42.27 Y20.21 F120
G01 X42.23 Y20.22 F120
G01 X42.21 Y20.22 F120
G01 X42.19 Y20.23 F120
G01 X42.17 Y20.24 F120
G01 X42.14 Y20.26 F120
G01 X42.12 Y20.27 F120
G01 X42.10 Y20.29 F120
G01 X42.08 Y20.31 F120
G01 X41.92 Y20.46 F120
G01 X41.90 Y20.49 F120
G01 X41.89 Y20.51 F120
G01 X41.77 Y20.60 F120
G01 X41.64 Y20.67 F120
G01 X41.49 Y20.72 F120
G01 X41.34 Y20.73 F120
G01 X41.31 Y20.73 F120
G01 X41.28 Y20.73 F120
G01 X40.17 Y20.73 F120
G01 X40.14 Y20.73 F120
G01 X40.11 Y20.73 F120
G01 X40.08 Y20.74 F120
G01 X40.07 Y20.75 F120
G01 X40.04 Y20.76 F120
G01 X40.00 Y20.77 F120
G01 X39.97 Y20.79 F120
G01 X39.95 Y20.81 F120
G01 X39.92 Y20.84 F120
G01 X39.78 Y20.97 F120
G01 X39.76 Y21.00 F120
G01 X39.74 Y21.02 F120
G01 X39.73 Y21.03 F120
G01 X39.72 Y21.06 F120
G01 X39.71 Y21.08 F120
G01 X39.70 Y21.10 F120
G01 X39.69 Y21.13 F120
G01 X39.68 Y21.16 F120
G01 X39.68 Y21.19 F120
G01 X39.68 Y21.23 F120
G01 X39.68 Y21.26 F120
G01 X39.68 Y21.29 F120
G01 X39.69 Y21.33 F120
G01 X39.70 Y21.36 F120
G01 X39.71 Y21.40 F120
G01 X39.73 Y21.42 F120
G01 X39.74 Y21.44 F120
G01 X39.75 Y21.46 F120
G01 X39.78 Y21.48 F120
G01 X39.98 Y21.69 F120
G01 X40.12 Y21.90 F120
G01 X40.22 Y22.13 F120
G01 X40.27 Y22.38 F120
G01 X40.27 Y22.62 F120
G01 X40.22 Y22.87 F120
G01 X40.12 Y23.10 F120
G01 X39.98 Y23.31 F120
G01 X39.78 Y23.51 F120
G01 X39.76 Y23.54 F120
G01 X39.74 Y23.57 F120
G01 X39.72 Y23.59 F120
G01 X39.71 Y23.61 F120
G01 X39.70 Y23.63 F120
G01 X39.69 Y23.66 F120
G01 X39.69 Y23.67 F120
G01 X39.68 Y23.70 F120
G01 X39.68 Y23.73 F120
G01 X39.68 Y23.76 F120
G01 X39.68 Y23.78 F120
G01 X39.68 Y23.81 F120
G01 X39.68 Y23.84 F120
G01 X39.69 Y23.87 F120
G01 X39.70 Y23.90 F120
G01 X39.71 Y23.92 F120
G01 X39.72 Y23.95 F120
G01 X39.74 Y23.97 F120
G01 X39.76 Y24.00 F120
G01 X39.78 Y24.02 F120
G01 X39.98 Y24.23 F120
G01 X40.12 Y24.44 F120
G01 X40.22 Y24.67 F120
G01 X40.27 Y24.92 F120
G01 X40.27 Y25.16 F120
G01 X40.22 Y25.41 F120
G01 X40.12 Y25.64 F120
G01 X39.98 Y25.85 F120
G01 X39.78 Y26.05 F120
G01 X39.76 Y26.08 F120
G01 X39.74 Y26.10 F120
G01 X39.73 Y26.12 F120
G01 X39.72 Y26.14 F120
G01 X39.70 Y26.17 F120
G01 X39.70 Y26.19 F120
G01 X39.69 Y26.21 F120
G01 X39.68 Y26.24 F120
G01 X39.68 Y26.27 F120
G01 X39.68 Y26.28 F120
G01 X39.68 Y26.31 F120
G01 X39.68 Y26.34 F120
G01 X39.68 Y26.38 F120
G01 X39.69 Y26.41 F120
G01 X39.70 Y26.44 F120
G01 X39.71 Y26.46 F120
G01 X39.72 Y26.49 F120
G01 X39.74 Y26.51 F120
G01 X39.76 Y26.54 F120
G01 X39.78 Y26.56 F120
G01 X39.98 Y26.77 F120
G01 X40.12 Y26.98 F120
G01 X40.22 Y27.21 F120
G01 X40.27 Y27.46 F120
G01 X40.27 Y27.70 F120
G01 X40.22 Y27.95 F120
G01 X40.12 Y28.18 F120
G01 X39.98 Y28.39 F120
G01 X39.88 Y28.50 F120
G01 X39.86 Y28.52 F120
G01 X39.85 Y28.53 F120
G01 X39.83 Y28.55 F120
G01 X39.81 Y28.58 F120
G01 X39.80 Y28.62 F120
G01 X39.78 Y28.65 F120
G01 X39.77 Y28.69 F120
G01 X39.77 Y28.73 F120
G01 X39.77 Y28.76 F120
G01 X39.77 Y34.06 F120
G01 X39.77 Y34.09 F120
G01 X39.77 Y34.12 F120
G01 X39.76 Y34.27 F120
G01 X39.71 Y34.42 F120
G01 X39.64 Y34.55 F120
G01 X39.55 Y34.67 F120
G01 X39.53 Y34.68 F120
G01 X39.50 Y34.70 F120
G01 X34.88 Y39.33 F120
G01 X34.86 Y39.35 F120
G01 X34.83 Y39.39 F120
G01 X34.81 Y39.42 F120
G01 X34.80 Y39.45 F120
G01 X34.79 Y39.47 F120
G01 X34.78 Y39.49 F120
G01 X34.78 Y39.51 F120
G01 X34.77 Y39.55 F120
G01 X34.77 Y39.58 F120
G01 X34.77 Y39.74 F120
G01 X34.72 Y39.99 F120
G01 X34.62 Y40.22 F120
G01 X34.48 Y40.43 F120
G01 X34.31 Y40.60 F120
G01 X34.10 Y40.74 F120
G01 X33.87 Y40.84 F120
G01 X33.62 Y40.89 F120
G01 X33.38 Y40.89 F120
G01 X33.13 Y40.84 F120
G01 X32.90 Y40.74 F120
G01 X32.69 Y40.60 F120
G01 X32.52 Y40.43 F120
G01 X32.38 Y40.22 F120
G01 X32.28 Y39.99 F120
G01 X32.23 Y39.74 F120
G01 X32.23 Y39.58 F120
G01 X32.23 Y39.55 F120
G01 X32.23 Y39.52 F120
G01 X32.21 Y39.48 F120
G01 X32.21 Y39.46 F120
G01 X32.20 Y39.44 F120
G01 X32.19 Y39.42 F120
G01 X32.18 Y39.40 F120
G01 X32.17 Y39.38 F120
G01 X32.15 Y39.36 F120
G01 X32.12 Y39.33 F120
G01 X30.82 Y38.03 F120
G01 X30.80 Y38.01 F120
G01 X30.79 Y38.00 F120
G01 X30.77 Y37.98 F120
G01 X30.74 Y37.97 F120
G01 X30.71 Y37.95 F120
G01 X30.67 Y37.94 F120
G01 X30.64 Y37.93 F120
G01 X30.61 Y37.93 F120
G01 X30.58 Y37.92 F120
G01 X30.56 Y37.92 F120
G01 X30.53 Y37.92 F120
G01 X30.50 Y37.93 F120
G01 X30.46 Y37.94 F120
G01 X30.43 Y37.95 F120
G01 X30.41 Y37.96 F120
G01 X30.39 Y37.97 F120
G01 X30.36 Y37.98 F120
G01 X30.34 Y38.00 F120
G01 X30.31 Y38.02 F120
G01 X30.29 Y38.05 F120
G01 X30.27 Y38.07 F120
G01 X30.26 Y38.09 F120
G01 X30.24 Y38.11 F120
G01 X30.23 Y38.14 F120
G01 X30.22 Y38.17 F120
G01 X30.21 Y38.20 F120
G01 X30.20 Y38.22 F120
G01 X30.20 Y38.25 F120
G01 X30.20 Y38.28 F120
G01 X30.20 Y38.31 F120
G01 X30.20 Y38.34 F120
G01 X30.20 Y38.35 F120
G01 X30.21 Y38.38 F120
G01 X30.22 Y38.41 F120
G01 X30.23 Y38.44 F120
G01 X30.28 Y38.55 F120
G01 X30.26 Y38.55 F120
G01 X30.21 Y38.46 F120
G01 X30.16 Y38.36 F120
G01 X30.14 Y38.34 F120
G01 X30.09 Y38.26 F120
G01 X30.07 Y38.25 F120
G01 X30.00 Y38.16 F120
G01 X29.92 Y38.09 F120
G01 X29.90 Y38.07 F120
G01 X29.82 Y38.02 F120
G01 X29.80 Y38.01 F120
G01 X29.70 Y37.95 F120
G01 X29.61 Y37.90 F120
G01 X29.58 Y37.89 F120
G01 X29.48 Y37.85 F120
G01 X29.36 Y37.82 F120
G01 X29.25 Y37.81 F120
G01 X29.23 Y37.81 F120
G01 X29.12 Y37.80 F120
G01 X29.01 Y37.81 F120
G01 X28.99 Y37.81 F120
G01 X28.88 Y37.82 F120
G01 X28.76 Y37.85 F120
G01 X28.66 Y37.89 F120
G01 X28.63 Y37.90 F120
G01 X28.54 Y37.95 F120
G01 X28.44 Y38.01 F120
G01 X28.42 Y38.02 F120
G01 X28.34 Y38.07 F120
G01 X28.32 Y38.09 F120
G01 X28.24 Y38.16 F120
G01 X28.17 Y38.25 F120
G01 X28.15 Y38.26 F120
G01 X28.10 Y38.34 F120
G01 X28.08 Y38.36 F120
G01 X28.03 Y38.46 F120
G01 X27.98 Y38.55 F120
G01 X27.96 Y38.55 F120
G01 X28.04 Y38.38 F120
G01 X28.19 Y38.18 F120
G01 X28.33 Y38.05 F120
G01 X28.35 Y38.04 F120
G01 X28.36 Y38.02 F120
G01 X28.38 Y38.01 F120
G01 X28.40 Y37.97 F120
G01 X28.42 Y37.95 F120
G01 X28.42 Y37.93 F120
G01 X28.44 Y37.90 F120
G01 X28.44 Y37.88 F120
G01 X28.45 Y37.85 F120
G01 X28.46 Y37.82 F120
G01 X28.46 Y37.79 F120
G01 X28.46 Y37.77 F120
G01 X28.45 Y37.74 F120
G01 X28.45 Y37.71 F120
G01 X28.45 Y37.70 F120
G01 X28.44 Y37.67 F120
G01 X28.43 Y37.64 F120
G01 X28.42 Y37.62 F120
G01 X28.41 Y37.60 F120
G01 X28.39 Y37.57 F120
G01 X28.37 Y37.54 F120
G01 X28.35 Y37.52 F120
G01 X28.33 Y37.50 F120
G01 X28.32 Y37.49 F120
G01 X28.14 Y37.31 F120
G01 X28.00 Y37.10 F120
G01 X27.90 Y36.87 F120
G01 X27.85 Y36.62 F120
G01 X27.85 Y36.38 F120
G01 X27.90 Y36.13 F120
G01 X28.00 Y35.90 F120
G01 X28.14 Y35.69 F120
G01 X28.31 Y35.52 F120
G01 X28.52 Y35.38 F120
G01 X28.75 Y35.28 F120
G01 X29.00 Y35.23 F120
G01 X29.24 Y35.23 F120
G01 X29.49 Y35.28 F120
G01 X29.72 Y35.38 F120
G01 X29.93 Y35.52 F120
G01 X30.04 Y35.62 F120
G01 X30.06 Y35.65 F120
G01 X30.09 Y35.67 F120
G01 X30.10 Y35.68 F120
G01 X30.12 Y35.69 F120
G01 X30.15 Y35.70 F120
G01 X30.18 Y35.71 F120
G01 X30.20 Y35.72 F120
G01 X30.23 Y35.73 F120
G01 X30.26 Y35.73 F120
G01 X30.29 Y35.73 F120
G01 X30.33 Y35.73 F120
G01 X30.35 Y35.73 F120
G01 X30.38 Y35.73 F120
G01 X30.53 Y35.74 F120
G01 X30.68 Y35.79 F120
G01 X30.81 Y35.86 F120
G01 X30.93 Y35.95 F120
G01 X30.94 Y35.97 F120
G01 X30.96 Y36.00 F120
G01 X33.21 Y38.24 F120
G01 X33.23 Y38.26 F120
G01 X33.27 Y38.29 F120
G01 X33.29 Y38.31 F120
G01 X33.31 Y38.31 F120
G01 X33.33 Y38.32 F120
G01 X33.36 Y38.33 F120
G01 X33.37 Y38.34 F120
G01 X33.40 Y38.35 F120
G01 X33.43 Y38.35 F120
G01 X33.46 Y38.35 F120
G01 X33.54 Y38.35 F120
G01 X33.56 Y38.35 F120
G01 X33.58 Y38.35 F120
G01 X33.60 Y38.35 F120
G01 X33.63 Y38.34 F120
G01 X33.67 Y38.32 F120
G01 X33.70 Y38.31 F120
G01 X33.71 Y38.30 F120
G01 X33.73 Y38.29 F120
G01 X33.76 Y38.27 F120
G01 X33.79 Y38.24 F120
G01 X38.12 Y33.91 F120
G01 X38.15 Y33.88 F120
G01 X38.17 Y33.85 F120
G01 X38.19 Y33.82 F120
G01 X38.20 Y33.79 F120
G01 X38.22 Y33.76 F120
G01 X38.23 Y33.72 F120
G01 X38.23 Y33.69 F120
G01 X38.23 Y33.66 F120
G01 X38.23 Y28.76 F120
G01 X38.23 Y28.73 F120
G01 X38.23 Y28.69 F120
G01 X38.21 Y28.65 F120
G01 X38.21 Y28.62 F120
G01 X38.20 Y28.61 F120
G01 X38.19 Y28.58 F120
G01 X38.17 Y28.56 F120
G01 X38.15 Y28.53 F120
G01 X38.13 Y28.50 F120
G01 X38.02 Y28.39 F120
G01 X37.88 Y28.18 F120
G01 X37.78 Y27.95 F120
G01 X37.73 Y27.70 F120
G01 X37.73 Y27.46 F120
G01 X37.78 Y27.21 F120
G01 X37.88 Y26.98 F120
G01 X38.02 Y26.77 F120
G01 X38.22 Y26.57 F120
G01 X38.24 Y26.54 F120
G01 X38.26 Y26.52 F120
G01 X38.27 Y26.51 F120
G01 X38.28 Y26.49 F120
G01 X38.30 Y26.45 F120
G01 X38.31 Y26.42 F120
G01 X38.32 Y26.38 F120
G01 X38.32 Y26.35 F120
G01 X38.32 Y26.31 F120
G01 X38.32 Y26.28 F120
G01 X38.32 Y26.25 F120
G01 X38.31 Y26.22 F120
G01 X38.31 Y26.19 F120
G01 X38.30 Y26.17 F120
G01 X38.28 Y26.13 F120
G01 X38.26 Y26.11 F120
G01 X38.25 Y26.09 F120
G01 X38.24 Y26.08 F120
G01 X38.22 Y26.06 F120
G01 X38.08 Y25.92 F120
G01 X38.06 Y25.89 F120
G01 X38.03 Y25.87 F120
G01 X38.02 Y25.86 F120
G01 X37.99 Y25.85 F120
G01 X37.96 Y25.84 F120
G01 X37.93 Y25.83 F120
G01 X37.91 Y25.82 F120
G01 X37.88 Y25.81 F120
G01 X37.85 Y25.81 F120
G01 X37.82 Y25.81 F120
G01 X37.10 Y25.81 F120
G01 X37.07 Y25.81 F120
G01 X37.04 Y25.81 F120
G01 X36.89 Y25.80 F120
G01 X36.74 Y25.75 F120
G01 X36.61 Y25.68 F120
G01 X36.49 Y25.59 F120
G01 X36.48 Y25.57 F120
G01 X36.46 Y25.54 F120
G01 X34.76 Y23.85 F120
G01 X34.74 Y23.83 F120
G01 X34.71 Y23.80 F120
G01 X34.68 Y23.79 F120
G01 X34.65 Y23.77 F120
G01 X34.62 Y23.76 F120
G01 X34.60 Y23.75 F120
G01 X34.57 Y23.75 F120
G01 X34.53 Y23.74 F120
G01 X34.50 Y23.74 F120
G01 X34.47 Y23.74 F120
G01 X34.43 Y23.75 F120
G01 X34.40 Y23.76 F120
G01 X34.25 Y23.77 F120
G01 X34.22 Y23.77 F120
G01 X34.19 Y23.77 F120
G01 X30.30 Y23.77 F120
G01 X30.26 Y23.77 F120
G01 X30.23 Y23.77 F120
G01 X30.19 Y23.78 F120
G01 X30.15 Y23.80 F120
G01 X30.13 Y23.81 F120
G01 X30.11 Y23.82 F120
G01 X30.09 Y23.83 F120
G01 X30.07 Y23.84 F120
G01 X30.06 Y23.86 F120
G01 X30.04 Y23.87 F120
G01 X29.92 Y23.99 F120
G01 X29.91 Y24.00 F120
G01 X29.89 Y24.02 F120
G01 X29.87 Y24.04 F120
G01 X29.85 Y24.07 F120
G01 X29.83 Y24.10 F120
G01 X29.81 Y24.13 F120
G01 X29.80 Y24.17 F120
G01 X29.79 Y24.20 F120
G01 X29.79 Y24.24 F120
G01 X29.78 Y24.27 F120
G01 X29.78 Y24.30 F120
G01 X29.79 Y24.34 F120
G01 X29.79 Y24.37 F120
G01 X29.80 Y24.39 F120
G01 X29.81 Y24.41 F120
G01 X29.82 Y24.44 F120
G01 X29.83 Y24.46 F120
G01 X29.84 Y24.48 F120
G01 X29.85 Y24.50 F120
G01 X29.87 Y24.51 F120
G01 X29.88 Y24.53 F120
G01 X29.90 Y24.55 F120
G01 X30.05 Y24.68 F120
G01 X30.20 Y24.88 F120
G01 X30.28 Y25.05 F120
G01 X30.26 Y25.05 F120
G01 X30.21 Y24.96 F120
G01 X30.16 Y24.86 F120
G01 X30.14 Y24.84 F120
G01 X30.09 Y24.76 F120
G01 X30.07 Y24.75 F120
G01 X30.00 Y24.66 F120
G01 X29.92 Y24.59 F120
G01 X29.90 Y24.57 F120
G01 X29.82 Y24.52 F120
G01 X29.80 Y24.51 F120
G01 X29.70 Y24.45 F120
G01 X29.61 Y24.40 F120
G01 X29.58 Y24.39 F120
G01 X29.48 Y24.35 F120
G01 X29.36 Y24.32 F120
G01 X29.25 Y24.31 F120
G01 X29.23 Y24.31 F120
G01 X29.12 Y24.30 F120
G01 X29.01 Y24.31 F120
G01 X28.99 Y24.31 F120
G01 X28.88 Y24.32 F120
G01 X28.76 Y24.35 F120
G01 X28.66 Y24.39 F120
G01 X28.63 Y24.40 F120
G01 X28.54 Y24.45 F120
G01 X28.44 Y24.51 F120
G01 X28.42 Y24.52 F120
G01 X28.34 Y24.57 F120
G01 X28.32 Y24.59 F120
G01 X28.24 Y24.66 F120
G01 X28.17 Y24.75 F120
G01 X28.15 Y24.76 F120
G01 X28.10 Y24.84 F120
G01 X28.08 Y24.86 F120
G01 X28.03 Y24.96 F120
G01 X27.98 Y25.05 F120
G01 X27.96 Y25.05 F120
G01 X28.04 Y24.88 F120
G01 X28.19 Y24.68 F120
G01 X28.34 Y24.55 F120
G01 X28.36 Y24.53 F120
G01 X28.37 Y24.51 F120
G01 X28.39 Y24.50 F120
G01 X28.40 Y24.48 F120
G01 X28.41 Y24.45 F120
G01 X28.42 Y24.44 F120
G01 X28.43 Y24.41 F120
G01 X28.44 Y24.39 F120
G01 X28.45 Y24.37 F120
G01 X28.45 Y24.34 F120
G01 X28.46 Y24.30 F120
G01 X28.46 Y24.27 F120
G01 X28.46 Y24.24 F120
G01 X28.45 Y24.21 F120
G01 X28.45 Y24.19 F120
G01 X28.44 Y24.16 F120
G01 X28.43 Y24.13 F120
G01 X28.41 Y24.10 F120
G01 X28.40 Y24.08 F120
G01 X28.38 Y24.05 F120
G01 X28.35 Y24.02 F120
G01 X28.33 Y24.00 F120
G01 X28.32 Y23.99 F120
G01 X28.14 Y23.81 F120
G01 X28.00 Y23.60 F120
G01 X27.90 Y23.37 F120
G01 X27.85 Y23.12 F120
G01 X27.85 Y22.88 F120
G01 X27.90 Y22.63 F120
G01 X28.00 Y22.40 F120
G01 X28.14 Y22.19 F120
G01 X28.31 Y22.02 F120
G01 X28.52 Y21.88 F120
G01 X28.75 Y21.78 F120
G01 X29.00 Y21.73 F120
G01 X29.24 Y21.73 F120
G01 X29.49 Y21.78 F120
G01 X29.72 Y21.88 F120
G01 X29.93 Y22.02 F120
G01 X30.04 Y22.13 F120
G01 X30.06 Y22.15 F120
G01 X30.09 Y22.17 F120
G01 X30.13 Y22.19 F120
G01 X30.15 Y22.20 F120
G01 X30.17 Y22.21 F120
G01 X30.19 Y22.22 F120
G01 X30.21 Y22.22 F120
G01 X30.23 Y22.23 F120
G01 X30.26 Y22.23 F120
G01 X30.30 Y22.23 F120
G01 X32.43 Y22.23 F120
G01 X32.46 Y22.23 F120
G01 X32.49 Y22.23 F120
G01 X32.52 Y22.22 F120
G01 X32.54 Y22.21 F120
G01 X32.57 Y22.20 F120
G01 X32.59 Y22.19 F120
G01 X32.61 Y22.18 F120
G01 X32.63 Y22.17 F120
G01 X32.65 Y22.15 F120
G01 X32.67 Y22.14 F120
G01 X32.68 Y22.12 F120
G01 X32.70 Y22.11 F120
G01 X32.71 Y22.09 F120
G01 X32.73 Y22.07 F120
G01 X32.75 Y22.04 F120
G01 X32.76 Y22.01 F120
G01 X32.78 Y21.97 F120
G01 X32.78 Y21.94 F120
G01 X32.79 Y21.93 F120
G01 X32.79 Y21.90 F120
G01 X32.79 Y21.88 F120
G01 X32.79 Y21.86 F120
G01 X32.79 Y21.83 F120
G01 X32.78 Y21.79 F120
G01 X32.78 Y21.76 F120
G01 X32.74 Y21.65 F120
G01 X32.73 Y21.50 F120
G01 X32.73 Y21.47 F120
G01 X32.73 Y21.44 F120
G01 X32.73 Y20.06 F120
G01 X32.73 Y20.03 F120
G01 X32.73 Y19.99 F120
G01 X32.72 Y19.95 F120
G01 X32.70 Y19.92 F120
G01 X32.69 Y19.88 F120
G01 X32.67 Y19.85 F120
G01 X32.65 Y19.83 F120
G01 X32.64 Y19.82 F120
G01 X32.62 Y19.80 F120
G01 X32.52 Y19.69 F120
G01 X32.38 Y19.48 F120
G01 X32.28 Y19.25 F120
G01 X32.23 Y19.00 F120
G01 X32.23 Y18.76 F120
G01 X32.28 Y18.51 F120
G01 X32.38 Y18.28 F120
G01 X32.52 Y18.07 F120
G01 X32.69 Y17.90 F120
G01 X32.90 Y17.76 F120
G01 X33.13 Y17.66 F120
G01 X33.38 Y17.61 F120
G01 X33.62 Y17.61 F120
G01 X33.87 Y17.66 F120
G01 X34.10 Y17.76 F120
G01 X34.17 Y17.80 F120
G01 X34.19 Y17.82 F120
G01 X34.22 Y17.83 F120
G01 X34.26 Y17.84 F120
G01 X34.29 Y17.85 F120
G01 X34.33 Y17.86 F120
G01 X34.37 Y17.86 F120
G01 X34.40 Y17.86 F120
G01 X34.44 Y17.85 F120
G01 X34.47 Y17.84 F120
G01 X34.51 Y17.83 F120
G01 X34.53 Y17.82 F120
G01 X34.56 Y17.80 F120
G01 X34.59 Y17.78 F120
G01 X34.61 Y17.77 F120
G01 X34.62 Y17.76 F120
G01 X34.63 Y17.74 F120
G01 X34.65 Y17.72 F120
G01 X34.67 Y17.69 F120
G01 X34.69 Y17.66 F120
G01 X34.70 Y17.63 F120
G01 X34.72 Y17.60 F120
G01 X34.73 Y17.56 F120
G01 X34.73 Y17.53 F120
G01 X34.73 Y17.50 F120
G01 X34.73 Y16.08 F120
G01 X34.73 Y16.06 F120
G01 X34.73 Y16.04 F120
G01 X34.73 Y16.02 F120
G01 X34.72 Y15.99 F120
G01 X34.71 Y15.98 F120
G01 X34.71 Y15.96 F120
G01 X34.69 Y15.92 F120
G01 X34.67 Y15.89 F120
G01 X34.66 Y15.87 F120
G01 X34.64 Y15.85 F120
G01 X34.62 Y15.83 F120
G01 X33.79 Y15.00 F120
G01 X33.76 Y14.97 F120
G01 X33.73 Y14.95 F120
G01 X33.70 Y14.93 F120
G01 X33.67 Y14.92 F120
G01 X33.64 Y14.90 F120
G01 X33.60 Y14.89 F120
G01 X33.57 Y14.89 F120
G01 X33.54 Y14.89 F120
G01 X33.38 Y14.89 F120
G01 X33.13 Y14.84 F120
G01 X32.90 Y14.74 F120
G01 X32.69 Y14.60 F120
G01 X32.52 Y14.43 F120
G01 X32.38 Y14.22 F120
G01 X32.28 Y13.99 F120
G01 X32.23 Y13.74 F120
G01 X32.23 Y13.50 F120
G01 X32.28 Y13.25 F120
G01 X32.38 Y13.02 F120
G01 X32.52 Y12.81 F120
G01 X32.61 Y12.72 F120
G01 X32.64 Y12.69 F120
G01 X32.65 Y12.67 F120
G01 X32.66 Y12.65 F120
G01 X32.68 Y12.62 F120
G01 X32.69 Y12.60 F120
G01 X32.70 Y12.56 F120
G01 X32.71 Y12.53 F120
G01 X32.72 Y12.49 F120
G01 X32.72 Y12.46 F120
G01 X32.72 Y12.43 F120
G01 X32.71 Y12.40 F120
G01 X32.71 Y12.37 F120
G01 X32.70 Y12.36 F120
G01 X32.70 Y12.34 F120
G01 X32.69 Y12.32 F120
G01 X32.69 Y12.31 F120
G01 X32.68 Y12.28 F120
G01 X32.66 Y12.26 F120
G01 X32.65 Y12.25 F120
G01 X32.64 Y12.23 F120
G01 X32.61 Y12.20 F120
G01 X31.29 Y10.88 F120
G01 X31.27 Y10.86 F120
G01 X31.24 Y10.84 F120
G01 X31.23 Y10.83 F120
G01 X31.20 Y10.81 F120
G01 X31.18 Y10.80 F120
G01 X31.16 Y10.79 F120
G01 X31.13 Y10.78 F120
G01 X31.10 Y10.77 F120
G01 X31.07 Y10.77 F120
G01 X31.03 Y10.77 F120
G01 X30.79 Y10.77 F120
G01 X30.76 Y10.77 F120
G01 X30.74 Y10.77 F120
G01 X30.72 Y10.78 F120
G01 X30.69 Y10.78 F120
G01 X30.65 Y10.80 F120
G01 X30.63 Y10.81 F120
G01 X30.61 Y10.82 F120
G01 X30.59 Y10.83 F120
G01 X30.57 Y10.84 F120
G01 X30.56 Y10.86 F120
G01 X30.54 Y10.87 F120
G01 X30.42 Y10.99 F120
G01 X30.41 Y11.00 F120
G01 X30.39 Y11.02 F120
G01 X30.37 Y11.04 F120
G01 X30.35 Y11.07 F120
G01 X30.33 Y11.09 F120
G01 X30.32 Y11.11 F120
G01 X30.31 Y11.14 F120
G01 X30.30 Y11.17 F120
G01 X30.29 Y11.20 F120
G01 X30.29 Y11.21 F120
G01 X30.29 Y11.24 F120
G01 X30.28 Y11.26 F120
G01 X30.28 Y11.28 F120
G01 X30.28 Y11.30 F120
G01 X30.29 Y11.34 F120
G01 X30.30 Y11.38 F120
G01 X30.31 Y11.41 F120
G01 X30.32 Y11.45 F120
G01 X30.34 Y11.47 F120
G01 X30.35 Y11.50 F120
G01 X30.37 Y11.52 F120
G01 X30.38 Y11.53 F120
G01 X30.41 Y11.55 F120
G01 X30.55 Y11.68 F120
G01 X30.70 Y11.88 F120
G01 X30.78 Y12.05 F120
G01 X30.76 Y12.05 F120
G01 X30.71 Y11.96 F120
G01 X30.66 Y11.86 F120
G01 X30.64 Y11.84 F120
G01 X30.59 Y11.76 F120
G01 X30.57 Y11.75 F120
G01 X30.50 Y11.66 F120
G01 X30.42 Y11.59 F120
G01 X30.40 Y11.57 F120
G01 X30.32 Y11.52 F120
G01 X30.30 Y11.51 F120
G01 X30.20 Y11.45 F120
G01 X30.11 Y11.40 F120
G01 X30.08 Y11.39 F120
G01 X29.98 Y11.35 F120
G01 X29.86 Y11.32 F120
G01 X29.75 Y11.31 F120
G01 X29.73 Y11.31 F120
G01 X29.62 Y11.30 F120
G01 X29.51 Y11.31 F120
G01 X29.49 Y11.31 F120
G01 X29.38 Y11.32 F120
G01 X29.26 Y11.35 F120
G01 X29.16 Y11.39 F120
G01 X29.13 Y11.40 F120
G01 X29.04 Y11.45 F120
G01 X28.94 Y11.51 F120
G01 X28.92 Y11.52 F120
G01 X28.84 Y11.57 F120
G01 X28.82 Y11.59 F120
G01 X28.74 Y11.66 F120
G01 X28.67 Y11.75 F120
G01 X28.65 Y11.76 F120
G01 X28.60 Y11.84 F120
G01 X28.58 Y11.86 F120
G01 X28.53 Y11.96 F120
G01 X28.48 Y12.05 F120
G01 X28.46 Y12.05 F120
G01 X28.54 Y11.88 F120
G01 X28.69 Y11.68 F120
G01 X28.84 Y11.55 F120
G01 X28.86 Y11.53 F120
G01 X28.87 Y11.51 F120
G01 X28.89 Y11.50 F120
G01 X28.90 Y11.48 F120
G01 X28.91 Y11.45 F120
G01 X28.92 Y11.44 F120
G01 X28.93 Y11.41 F120
G01 X28.94 Y11.38 F120
G01 X28.95 Y11.36 F120
G01 X28.95 Y11.34 F120
G01 X28.96 Y11.31 F120
G01 X28.96 Y11.28 F120
G01 X28.96 Y11.26 F120
G01 X28.95 Y11.23 F120
G01 X28.95 Y11.20 F120
G01 X28.94 Y11.17 F120
G01 X28.93 Y11.14 F120
G01 X28.93 Y11.13 F120
G01 X28.91 Y11.10 F120
G01 X28.90 Y11.08 F120
G01 X28.89 Y11.07 F120
G01 X28.88 Y11.05 F120
G01 X28.85 Y11.02 F120
G01 X28.83 Y11.00 F120
G01 X28.82 Y10.99 F120
G01 X28.64 Y10.81 F120
G01 X28.50 Y10.60 F120
G01 X28.40 Y10.37 F120
G01 X28.35 Y10.12 F120
G01 X28.35 Y9.88 F120
G01 X28.40 Y9.63 F120
G01 X28.50 Y9.40 F120
G01 X28.64 Y9.19 F120
G01 X28.81 Y9.02 F120
G01 X29.02 Y8.88 F120
G01 X29.25 Y8.78 F120
G01 X29.50 Y8.73 F120
G01 X29.74 Y8.73 F120
G01 X29.99 Y8.78 F120
G01 X30.22 Y8.88 F120
G01 X30.43 Y9.02 F120
G01 X30.54 Y9.13 F120
G01 X30.56 Y9.15 F120
G01 X30.59 Y9.17 F120
G01 X30.62 Y9.19 F120
G01 X30.65 Y9.20 F120
G01 X30.69 Y9.21 F120
G01 X30.71 Y9.22 F120
G01 X30.73 Y9.23 F120
G01 X30.76 Y9.23 F120
G01 X30.80 Y9.23 F120
G01 X31.44 Y9.23 F120
G01 X31.47 Y9.23 F120
G01 X31.50 Y9.23 F120
G01 X31.65 Y9.24 F120
G01 X31.80 Y9.29 F120
G01 X31.93 Y9.36 F120
G01 X32.05 Y9.45 F120
G01 X32.06 Y9.47 F120
G01 X32.08 Y9.50 F120
G01 X34.00 Y11.42 F120
G01 X34.03 Y11.44 F120
G01 X34.05 Y11.45 F120
G01 X34.14 Y11.57 F120
G01 X34.21 Y11.70 F120
G01 X34.26 Y11.85 F120
G01 X34.27 Y12.00 F120
G01 X34.27 Y12.03 F120
G01 X34.27 Y12.06 F120
G01 X34.27 Y12.45 F120
G01 X34.27 Y12.48 F120
G01 X34.27 Y12.51 F120
G01 X34.28 Y12.55 F120
G01 X34.30 Y12.58 F120
G01 X34.31 Y12.61 F120
G01 X34.32 Y12.64 F120
G01 X34.34 Y12.66 F120
G01 X34.35 Y12.68 F120
G01 X34.37 Y12.70 F120
G01 X34.48 Y12.81 F120
G01 X34.62 Y13.02 F120
G01 X34.72 Y13.25 F120
G01 X34.77 Y13.50 F120
G01 X34.77 Y13.66 F120
G01 X34.77 Y13.69 F120
G01 X34.77 Y13.72 F120
G01 X34.78 Y13.75 F120
G01 X34.79 Y13.78 F120
G01 X34.80 Y13.80 F120
G01 X34.81 Y13.83 F120
G01 X34.83 Y13.85 F120
G01 X34.84 Y13.87 F120
G01 X34.86 Y13.89 F120
G01 X34.88 Y13.91 F120
G01 X36.00 Y15.04 F120
G01 X36.03 Y15.06 F120
G01 X36.05 Y15.07 F120
G01 X36.14 Y15.19 F120
G01 X36.21 Y15.32 F120
G01 X36.26 Y15.47 F120
G01 X36.27 Y15.62 F120
G01 X36.27 Y15.65 F120
G01 X36.27 Y15.68 F120
G01 X36.27 Y19.53 F120
G01 X36.27 Y19.57 F120
G01 X36.27 Y19.60 F120
G01 X36.28 Y19.63 F120
G01 X36.29 Y19.66 F120
G01 X36.30 Y19.68 F120
G01 X36.31 Y19.70 F120
G01 X36.33 Y19.73 F120
G01 X36.34 Y19.74 F120
G01 X36.35 Y19.76 F120
G01 X36.37 Y19.79 F120
G01 X37.14 Y20.56 F120
G01 X37.17 Y20.58 F120
G01 X37.20 Y20.60 F120
G01 X37.23 Y20.62 F120
G01 X37.25 Y20.63 F120
G01 X37.29 Y20.64 F120
G01 X37.32 Y20.65 F120
G01 X37.36 Y20.66 F120
G01 X37.39 Y20.66 F120
G01 X37.41 Y20.66 F120
G01 X37.43 Y20.66 F120
G01 X37.46 Y20.66 F120
G01 X37.48 Y20.65 F120
G01 X37.50 Y20.65 F120
G01 X37.52 Y20.64 F120
G01 X37.55 Y20.63 F120
G01 X37.58 Y20.62 F120
G01 X37.61 Y20.60 F120
G01 X37.64 Y20.57 F120
G01 X37.66 Y20.55 F120
G01 X37.69 Y20.52 F120
G01 X37.71 Y20.49 F120
G01 X37.73 Y20.46 F120
G01 X37.74 Y20.44 F120
G01 X37.74 Y20.42 F120
G01 X37.75 Y20.40 F120
G01 X37.76 Y20.38 F120
G01 X37.76 Y20.36 F120
G01 X37.76 Y20.34 F120
G01 X37.77 Y20.29 F120
G01 X37.76 Y20.26 F120
G01 X37.76 Y20.23 F120
G01 X37.73 Y20.08 F120
G01 X37.73 Y19.84 F120
G01 X37.78 Y19.59 F120
G01 X37.88 Y19.36 F120
G01 X38.00 Y19.18 F120
G01 X38.01 Y19.15 F120
G01 X38.03 Y19.13 F120
G01 X38.03 Y19.10 F120
G01 X38.04 Y19.08 F120
G01 X38.05 Y19.04 F120
G01 X38.06 Y19.01 F120
G01 X38.06 Y18.98 F120
G01 X38.06 Y18.94 F120
G01 X38.05 Y18.91 F120
G01 X38.05 Y18.88 F120
G01 X38.04 Y18.86 F120
G01 X38.03 Y18.83 F120
G01 X38.01 Y18.80 F120
G01 X38.00 Y18.77 F120
G01 X37.98 Y18.75 F120
G01 X37.96 Y18.72 F120
G01 X37.94 Y18.71 F120
G01 X37.92 Y18.69 F120
G01 X37.90 Y18.67 F120
G01 X37.87 Y18.66 F120
G01 X37.85 Y18.64 F120
G01 X37.81 Y18.61 F120
G01 X37.78 Y18.57 F120
G01 X37.75 Y18.52 F120
G01 X37.74 Y18.47 F120
G01 X37.73 Y18.40 F120
G01 X37.73 Y17.91 F120
G01 X37.76 Y17.91 F120
G01 X37.76 Y18.43 F120
G01 X37.76 Y18.46 F120
G01 X37.77 Y18.48 F120
G01 X37.78 Y18.51 F120
G01 X37.79 Y18.54 F120
G01 X37.81 Y18.56 F120
G01 X37.83 Y18.59 F120
G01 X37.85 Y18.61 F120
G01 X37.87 Y18.62 F120
G01 X37.90 Y18.64 F120
G01 X37.92 Y18.65 F120
G01 X37.94 Y18.65 F120
G01 X37.96 Y18.66 F120
G01 X37.98 Y18.66 F120
G01 X38.00 Y18.66 F120
G01 X40.00 Y18.66 F120
G01 X40.02 Y18.66 F120
G01 X40.04 Y18.66 F120
G01 X40.05 Y18.65 F120
G01 X40.07 Y18.65 F120
G01 X40.09 Y18.64 F120
G01 X40.10 Y18.64 F120
G01 X40.12 Y18.63 F120
G01 X40.14 Y18.62 F120
G01 X40.16 Y18.60 F120
G01 X40.17 Y18.59 F120
G01 X40.18 Y18.58 F120
G01 X40.19 Y18.56 F120
G01 X40.20 Y18.55 F120
G01 X40.21 Y18.53 F120
G01 X40.22 Y18.52 F120
G01 X40.23 Y18.50 F120
G01 X40.23 Y18.48 F120
G01 X40.24 Y18.46 F120
G01 X40.24 Y18.44 F120
G01 X40.24 Y18.43 F120
G01 X40.24 Y17.91 F120
G01 X40.27 Y17.91 F120
G01 X40.27 Y18.40 F120
G01 X40.26 Y18.47 F120
G01 X40.25 Y18.52 F120
G01 X40.22 Y18.57 F120
G01 X40.20 Y18.60 F120
G01 X40.18 Y18.62 F120
G01 X40.17 Y18.65 F120
G01 X40.15 Y18.68 F120
G01 X40.14 Y18.71 F120
G01 X40.13 Y18.73 F120
G01 X40.13 Y18.76 F120
G01 X40.12 Y18.79 F120
G01 X40.12 Y18.83 F120
G01 X40.12 Y18.86 F120
G01 X40.13 Y18.89 F120
G01 X40.13 Y18.92 F120
G01 X40.14 Y18.94 F120
G01 X40.15 Y18.97 F120
G01 X40.17 Y19.00 F120
G01 X40.18 Y19.02 F120
G01 X40.21 Y19.06 F120
G01 X40.23 Y19.08 F120
G01 X40.24 Y19.09 F120
G01 X40.26 Y19.11 F120
G01 X40.28 Y19.13 F120
G01 X40.32 Y19.15 F120
G01 X40.35 Y19.17 F120
G01 X40.38 Y19.18 F120
G01 X40.41 Y19.18 F120
G01 X40.42 Y19.19 F120
G01 X40.45 Y19.19 F120
G01 X40.49 Y19.19 F120
G01 X40.66 Y19.19 F120
G01 X40.69 Y19.19 F120
G01 X40.71 Y19.19 F120
G01 X40.74 Y19.19 F120
G01 X40.78 Y19.17 F120
G01 X40.81 Y19.16 F120
G01 X40.84 Y19.15 F120
G01 X40.86 Y19.13 F120
G01 X40.89 Y19.12 F120
G01 X40.91 Y19.10 F120
G01 X40.93 Y19.08 F120
G01 X40.95 Y19.06 F120
G01 X40.97 Y19.03 F120
G01 X40.99 Y19.00 F120
G01 X41.00 Y18.98 F120
G01 X41.01 Y18.96 F120
G01 X41.02 Y18.93 F120
G01 X41.02 Y18.90 F120
G01 X41.03 Y18.87 F120
G01 X41.03 Y18.86 F120
G01 X41.03 Y18.83 F120
G01 X41.03 Y15.27 F120
G01 X41.03 Y15.23 F120
G01 X41.03 Y15.20 F120
G01 X41.02 Y15.19 F120
G01 X41.02 Y15.16 F120
G01 X41.01 Y15.14 F120
G01 X41.00 Y15.12 F120
G01 X40.99 Y15.10 F120
G01 X40.98 Y15.08 F120
G01 X40.96 Y15.06 F120
G01 X40.94 Y15.03 F120
G01 X40.92 Y15.01 F120
G01 X39.54 Y13.63 F120
G01 X39.52 Y13.61 F120
G01 X39.49 Y13.59 F120
G01 X39.47 Y13.57 F120
G01 X39.45 Y13.56 F120
G01 X39.41 Y13.54 F120
G01 X39.39 Y13.54 F120
G01 X39.38 Y13.53 F120
G01 X39.35 Y13.52 F120
G01 X39.33 Y13.52 F120
G01 X39.31 Y13.52 F120
G01 X39.29 Y13.52 F120
G01 X38.06 Y13.52 F120
G01 X38.03 Y13.52 F120
G01 X38.00 Y13.52 F120
G01 X37.85 Y13.51 F120
G01 X37.70 Y13.46 F120
G01 X37.57 Y13.39 F120
G01 X37.45 Y13.30 F120
G01 X37.44 Y13.28 F120
G01 X37.42 Y13.25 F120
G01 X33.00 Y8.83 F120
G01 X32.97 Y8.81 F120
G01 X32.95 Y8.80 F120
G01 X32.86 Y8.68 F120
G01 X32.79 Y8.55 F120
G01 X32.74 Y8.40 F120
G01 X32.73 Y8.25 F120
G01 X32.73 Y8.22 F120
G01 X32.73 Y8.19 F120
G01 X32.73 Y7.18 F120
G01 X32.73 Y7.14 F120
G01 X32.72 Y7.10 F120
G01 X32.72 Y7.07 F120
G01 X32.71 Y7.05 F120
G01 X32.70 Y7.03 F120
G01 X32.69 Y7.01 F120
G01 X32.67 Y6.97 F120
G01 X32.64 Y6.94 F120
G01 X32.63 Y6.92 F120
G01 X32.58 Y6.88 F120
G01 X32.55 Y6.85 F120
G01 X32.53 Y6.83 F120
G01 X32.50 Y6.81 F120
G01 X32.47 Y6.80 F120
G01 X32.46 Y6.79 F120
G01 X32.43 Y6.78 F120
G01 X32.39 Y6.77 F120
G01 X32.36 Y6.77 F120
G01 X32.32 Y6.77 F120
G01 X31.00 Y6.77 F120
G01 X30.97 Y6.77 F120
G01 X30.94 Y6.77 F120
G01 X30.91 Y6.78 F120
G01 X30.89 Y6.79 F120
G01 X30.87 Y6.80 F120
G01 X30.84 Y6.81 F120
G01 X30.83 Y6.81 F120
G01 X30.80 Y6.83 F120
G01 X30.78 Y6.85 F120
G01 X30.76 Y6.86 F120
G01 X30.74 Y6.88 F120
G01 X30.72 Y6.90 F120
G01 X30.70 Y6.93 F120
G01 X30.68 Y6.97 F120
G01 X30.67 Y6.99 F120
G01 X30.62 Y7.10 F120
G01 X30.48 Y7.31 F120
G01 X30.31 Y7.48 F120
G01 X30.10 Y7.62 F120
G01 X29.87 Y7.72 F120
G01 X29.62 Y7.77 F120
G01 X29.38 Y7.77 F120
G01 X29.13 Y7.72 F120
G01 X28.90 Y7.62 F120
G01 X28.69 Y7.48 F120
G01 X28.66 Y7.45 F120
G01 X28.64 Y7.43 F120
G01 X28.62 Y7.42 F120
G01 X28.61 Y7.41 F120
G01 X28.57 Y7.38 F120
G01 X28.54 Y7.37 F120
G01 X28.50 Y7.36 F120
G01 X28.47 Y7.35 F120
G01 X28.43 Y7.34 F120
G01 X28.40 Y7.34 F120
G01 X28.36 Y7.34 F120
G01 X28.32 Y7.35 F120
G01 X28.29 Y7.36 F120
G01 X28.26 Y7.37 F120
G01 X28.22 Y7.38 F120
G01 X28.19 Y7.40 F120
G01 X28.16 Y7.42 F120
G01 X28.14 Y7.45 F120
G01 X26.38 Y9.21 F120
G01 X26.35 Y9.24 F120
G01 X26.33 Y9.27 F120
G01 X26.31 Y9.30 F120
G01 X26.30 Y9.32 F120
G01 X26.29 Y9.34 F120
G01 X26.28 Y9.36 F120
G01 X26.28 Y9.39 F120
G01 X26.27 Y9.42 F120
G01 X26.27 Y9.44 F120
G01 X26.27 Y9.47 F120
G01 X26.27 Y18.36 F120
G01 X26.27 Y18.40 F120
G01 X26.27 Y18.44 F120
G01 X26.28 Y18.47 F120
G01 X26.29 Y18.50 F120
G01 X26.31 Y18.54 F120
G01 X26.33 Y18.56 F120
G01 X26.34 Y18.58 F120
G01 X26.35 Y18.60 F120
G01 X26.37 Y18.62 F120
G01 X26.38 Y18.63 F120
G01 X26.41 Y18.65 F120
G01 X26.43 Y18.67 F120
G01 X26.45 Y18.68 F120
G01 X26.47 Y18.69 F120
G01 X26.49 Y18.70 F120
G01 X26.53 Y18.72 F120
G01 X26.56 Y18.73 F120
G01 X26.59 Y18.73 F120
G01 X26.60 Y18.73 F120
G01 X26.64 Y18.73 F120
G01 X27.82 Y18.73 F120
G01 X27.85 Y18.73 F120
G01 X27.89 Y18.73 F120
G01 X27.93 Y18.72 F120
G01 X27.96 Y18.70 F120
G01 X28.00 Y18.69 F120
G01 X28.03 Y18.67 F120
G01 X28.05 Y18.65 F120
G01 X28.06 Y18.64 F120
G01 X28.08 Y18.62 F120
G01 X28.19 Y18.52 F120
G01 X28.40 Y18.38 F120
G01 X28.63 Y18.28 F120
G01 X28.88 Y18.23 F120
G01 X29.12 Y18.23 F120
G01 X29.37 Y18.28 F120
G01 X29.60 Y18.38 F120
G01 X29.81 Y18.52 F120
G01 X29.98 Y18.69 F120
G01 X30.12 Y18.90 F120
G01 X30.22 Y19.13 F120
G01 X30.27 Y19.38 F120
G01 X30.27 Y19.62 F120
G01 X30.22 Y19.87 F120
G01 X30.12 Y20.10 F120
G01 X29.98 Y20.31 F120
G01 X29.81 Y20.48 F120
G01 X29.60 Y20.62 F120
G01 X29.37 Y20.72 F120
G01 X29.12 Y20.77 F120
G01 X28.88 Y20.77 F120
G01 X28.63 Y20.72 F120
G01 X28.40 Y20.62 F120
G01 X28.19 Y20.48 F120
G01 X28.08 Y20.38 F120
G01 X28.06 Y20.36 F120
G01 X28.05 Y20.35 F120
G01 X28.03 Y20.33 F120
G01 X28.00 Y20.31 F120
G01 X27.96 Y20.30 F120
G01 X27.93 Y20.28 F120
G01 X27.89 Y20.27 F120
G01 X27.85 Y20.27 F120
G01 X27.82 Y20.27 F120
G01 X26.64 Y20.27 F120
G01 X26.60 Y20.27 F120
G01 X26.59 Y20.27 F120
G01 X26.56 Y20.27 F120
G01 X26.53 Y20.28 F120
G01 X26.49 Y20.30 F120
G01 X26.47 Y20.31 F120
G01 X26.45 Y20.32 F120
G01 X26.43 Y20.33 F120
G01 X26.41 Y20.35 F120
G01 X26.38 Y20.38 F120
G01 X26.36 Y20.40 F120
G01 X26.34 Y20.41 F120
G01 X26.33 Y20.43 F120
G01 X26.31 Y20.46 F120
G01 X26.30 Y20.49 F120
G01 X26.28 Y20.53 F120
G01 X26.27 Y20.56 F120
G01 X26.27 Y20.60 F120
G01 X26.27 Y20.64 F120
G01 X26.27 Y29.03 F120
G01 X26.27 Y29.07 F120
G01 X26.27 Y29.10 F120
G01 X26.28 Y29.11 F120
G01 X26.28 Y29.14 F120
G01 X26.29 Y29.16 F120
G01 X26.30 Y29.18 F120
G01 X26.31 Y29.20 F120
G01 X26.32 Y29.22 F120
G01 X26.34 Y29.24 F120
G01 X26.36 Y29.27 F120
G01 X26.38 Y29.29 F120
G01 X28.71 Y31.62 F120
G01 X28.73 Y31.64 F120
G01 X28.75 Y31.66 F120
G01 X28.77 Y31.67 F120
G01 X28.80 Y31.69 F120
G01 X28.83 Y31.70 F120
G01 X28.86 Y31.71 F120
G01 X28.89 Y31.72 F120
G01 X28.91 Y31.73 F120
G01 X28.93 Y31.73 F120
G01 X28.96 Y31.73 F120
G01 X29.12 Y31.73 F120
G01 X29.37 Y31.78 F120
G01 X29.60 Y31.88 F120
G01 X29.81 Y32.02 F120
G01 X29.92 Y32.13 F120
G01 X29.94 Y32.15 F120
G01 X29.97 Y32.17 F120
G01 X30.00 Y32.19 F120
G01 X30.04 Y32.20 F120
G01 X30.07 Y32.22 F120
G01 X30.11 Y32.23 F120
G01 X30.14 Y32.23 F120
G01 X30.18 Y32.23 F120
G01 X31.86 Y32.23 F120
G01 X31.90 Y32.23 F120
G01 X31.93 Y32.23 F120
G01 X31.95 Y32.22 F120
G01 X31.98 Y32.21 F120
G01 X32.01 Y32.20 F120
G01 X32.04 Y32.19 F120
G01 X32.07 Y32.17 F120
G01 X32.10 Y32.15 F120
G01 X32.12 Y32.12 F120
G01 X32.15 Y32.10 F120
G01 X32.17 Y32.07 F120
G01 X32.19 Y32.04 F120
G01 X32.20 Y32.02 F120
G01 X32.21 Y32.00 F120
G01 X32.22 Y31.97 F120
G01 X32.22 Y31.94 F120
G01 X32.23 Y31.91 F120
G01 X32.23 Y31.88 F120
G01 X32.28 Y31.63 F120
G01 X32.38 Y31.40 F120
G01 X32.52 Y31.19 F120
G01 X32.63 Y31.08 F120
G01 X32.65 Y31.05 F120
G01 X32.67 Y31.02 F120
G01 X32.69 Y31.00 F120
G01 X32.70 Y30.97 F120
G01 X32.71 Y30.96 F120
G01 X32.71 Y30.93 F120
G01 X32.73 Y30.89 F120
G01 X32.73 Y30.85 F120
G01 X32.73 Y30.82 F120
G01 X32.73 Y27.68 F120
G01 X32.73 Y27.65 F120
G01 X32.73 Y27.61 F120
G01 X32.72 Y27.57 F120
G01 X32.70 Y27.54 F120
G01 X32.69 Y27.50 F120
G01 X32.67 Y27.47 F120
G01 X32.65 Y27.45 F120
G01 X32.64 Y27.44 F120
G01 X32.62 Y27.42 F120
G01 X32.52 Y27.31 F120
G01 X32.38 Y27.10 F120
G01 X32.28 Y26.87 F120
G01 X32.23 Y26.62 F120
G01 X32.23 Y26.38 F120
G01 X32.28 Y26.13 F120
G01 X32.38 Y25.90 F120
G01 X32.52 Y25.69 F120
G01 X32.69 Y25.52 F120
G01 X32.90 Y25.38 F120
G01 X33.13 Y25.28 F120
G01 X33.38 Y25.23 F120
G01 X33.62 Y25.23 F120
G01 X33.87 Y25.28 F120
G01 X34.10 Y25.38 F120
G01 X34.31 Y25.52 F120
G01 X34.48 Y25.69 F120
G01 X34.62 Y25.90 F120
G01 X34.72 Y26.13 F120
G01 X34.77 Y26.38 F120
G01 X34.77 Y26.62 F120
G01 X34.72 Y26.87 F120
G01 X34.62 Y27.10 F120
G01 X34.48 Y27.31 F120
G01 X34.38 Y27.42 F120
G01 X34.36 Y27.44 F120
G01 X34.35 Y27.45 F120
G01 X34.33 Y27.47 F120
G01 X34.31 Y27.50 F120
G01 X34.30 Y27.54 F120
G01 X34.28 Y27.58 F120
G01 X34.28 Y27.60 F120
G01 X34.27 Y27.62 F120
G01 X34.27 Y27.64 F120
G01 X34.27 Y27.67 F120
G01 X34.27 Y30.82 F120
G01 X34.27 Y30.86 F120
G01 X34.27 Y30.89 F120
G01 X34.28 Y30.91 F120
G01 X34.28 Y30.93 F120
G01 X34.29 Y30.95 F120
G01 X34.30 Y30.97 F120
G01 X34.31 Y30.99 F120
G01 X34.33 Y31.03 F120
G01 X34.35 Y31.06 F120
G01 X34.37 Y31.08 F120
G01 X34.48 Y31.19 F120
G01 X34.62 Y31.40 F120
G01 X34.72 Y31.63 F120
G01 X34.77 Y31.88 F120
G01 X34.77 Y32.12 F120
G01 X34.72 Y32.37 F120
G01 X34.62 Y32.60 F120
G01 X34.48 Y32.81 F120
G01 X34.31 Y32.98 F120
G01 X34.10 Y33.12 F120
G01 X33.87 Y33.22 F120
G01 X33.62 Y33.27 F120
G01 X33.47 Y33.27 F120
G01 X33.43 Y33.27 F120
G01 X33.40 Y33.27 F120
G01 X33.37 Y33.28 F120
G01 X33.35 Y33.29 F120
G01 X33.32 Y33.30 F120
G01 X33.30 Y33.31 F120
G01 X33.27 Y33.33 F120
G01 X33.26 Y33.34 F120
G01 X33.23 Y33.36 F120
G01 X33.21 Y33.38 F120
G01 X33.08 Y33.50 F120
G01 X33.06 Y33.53 F120
G01 X33.05 Y33.55 F120
G01 X32.93 Y33.64 F120
G01 X32.80 Y33.71 F120
G01 X32.65 Y33.76 F120
G01 X32.50 Y33.77 F120
G01 X32.47 Y33.77 F120
G01 X32.44 Y33.77 F120
G01 X30.18 Y33.77 F120
G01 X30.14 Y33.77 F120
G01 X30.11 Y33.77 F120
G01 X30.09 Y33.78 F120
G01 X30.07 Y33.78 F120
G01 X30.05 Y33.79 F120
G01 X30.03 Y33.80 F120
G01 X30.01 Y33.81 F120
G01 X29.97 Y33.83 F120
G01 X29.94 Y33.85 F120
G01 X29.92 Y33.87 F120
G01 X29.81 Y33.98 F120
G01 X29.60 Y34.12 F120
G01 X29.37 Y34.22 F120
G01 X29.12 Y34.27 F120
G01 X28.88 Y34.27 F120
G01 X28.63 Y34.22 F120
G01 X28.40 Y34.12 F120
G01 X28.19 Y33.98 F120
G01 X28.02 Y33.81 F120
G01 X27.88 Y33.60 F120
G01 X27.78 Y33.37 F120
G01 X27.73 Y33.12 F120
G01 X27.73 Y32.97 F120
G01 X27.73 Y32.95 F120
G01 X27.73 Y32.93 F120
G01 X27.73 Y32.90 F120
G01 X27.72 Y32.87 F120
G01 X27.70 Y32.83 F120
G01 X27.69 Y32.80 F120
G01 X27.67 Y32.77 F120
G01 X27.64 Y32.73 F120
G01 X27.62 Y32.71 F120
G01 X25.00 Y30.08 F120
G01 X24.97 Y30.06 F120
G01 X24.95 Y30.05 F120
G01 X24.86 Y29.93 F120
G01 X24.79 Y29.80 F120
G01 X24.74 Y29.65 F120
G01 X24.73 Y29.50 F120
G01 X24.73 Y29.47 F120
G01 X24.73 Y29.44 F120
G01 X24.73 Y19.81 F120
G01 X24.73 Y19.78 F120
G01 X24.73 Y19.75 F120
G01 X24.73 Y19.72 F120
G01 X24.73 Y19.69 F120
G01 X24.73 Y9.06 F120
G01 X24.73 Y9.03 F120
G01 X24.73 Y9.00 F120
G01 X24.74 Y8.85 F120
G01 X24.79 Y8.70 F120
G01 X24.86 Y8.57 F120
G01 X24.95 Y8.45 F120
G01 X24.97 Y8.44 F120
G01 X25.00 Y8.42 F120
G01 X27.42 Y6.00 F120
G01 X27.44 Y5.97 F120
G01 X27.45 Y5.95 F120
G01 X27.57 Y5.86 F120
G01 X27.70 Y5.79 F120
G01 X27.85 Y5.74 F120
G01 X28.00 Y5.73 F120
G01 X28.03 Y5.73 F120
G01 X28.06 Y5.73 F120
G01 X28.33 Y5.73 F120
G01 X28.36 Y5.73 F120
G01 X28.39 Y5.73 F120
G01 X28.41 Y5.72 F120
G01 X28.43 Y5.71 F120
G01 X28.46 Y5.70 F120
G01 X28.49 Y5.69 F120
G01 X28.52 Y5.68 F120
G01 X28.54 Y5.66 F120
G01 X28.56 Y5.65 F120
G01 X28.58 Y5.63 F120
G01 X28.69 Y5.52 F120
G01 X28.90 Y5.38 F120
G01 X29.13 Y5.28 F120
G01 X29.38 Y5.23 F120
G01 X29.62 Y5.23 F120
G01 X29.69 Y5.25 F120
G01 X29.72 Y5.25 F120
G01 X29.73 Y5.25 F120
G01 X29.76 Y5.25 F120
G01 X29.80 Y5.25 F120
G01 X29.83 Y5.25 F120
G01 X29.84 Y5.24 F120
G01 X30.00 Y5.23 F120
G01 X30.03 Y5.23 F120
G01 X30.06 Y5.23 F120
G01 X32.32 Y5.23 F120
G01 X32.36 Y5.23 F120
G01 X32.40 Y5.22 F120
G01 X32.43 Y5.22 F120
G01 X32.45 Y5.21 F120
G01 X32.47 Y5.20 F120
G01 X32.49 Y5.19 F120
G01 X32.53 Y5.17 F120
G01 X32.56 Y5.15 F120
G01 X32.58 Y5.13 F120
G01 X32.69 Y5.02 F120
G01 X32.90 Y4.88 F120
G01 X33.13 Y4.78 F120
G01 X33.38 Y4.73 F120
G01 X33.62 Y4.73 F120
G01 X33.87 Y4.78 F120
G01 X34.10 Y4.88 F120
G01 X34.31 Y5.02 F120
G01 X34.48 Y5.19 F120
G01 X34.62 Y5.40 F120
G01 X34.72 Y5.63 F120
G01 X34.77 Y5.88 F120
G01 X34.77 Y6.12 F120
G01 X34.72 Y6.37 F120
G01 X34.62 Y6.60 F120
G01 X34.48 Y6.81 F120
G01 X34.37 Y6.92 F120
G01 X34.35 Y6.94 F120
G01 X34.33 Y6.97 F120
G01 X34.31 Y7.00 F120
G01 X34.30 Y7.04 F120
G01 X34.28 Y7.07 F120
G01 X34.27 Y7.11 F120
G01 X34.27 Y7.14 F120
G01 X34.27 Y7.18 F120
G01 X34.27 Y7.78 F120
G01 X34.27 Y7.82 F120
G01 X34.27 Y7.85 F120
G01 X34.28 Y7.88 F120
G01 X34.29 Y7.91 F120
G01 X34.30 Y7.93 F120
G01 X34.31 Y7.96 F120
G01 X34.33 Y7.98 F120
G01 X34.35 Y8.01 F120
G01 X34.37 Y8.04 F120
G01 X38.21 Y11.87 F120
G01 X38.23 Y11.89 F120
G01 X38.26 Y11.91 F120
G01 X38.27 Y11.92 F120
G01 X38.30 Y11.94 F120
G01 X38.32 Y11.95 F120
G01 X38.34 Y11.96 F120
G01 X38.36 Y11.97 F120
G01 X38.39 Y11.97 F120
G01 X38.41 Y11.98 F120
G01 X38.44 Y11.98 F120
G01 X38.47 Y11.98 F120
G01 X39.69 Y11.98 F120
G01 X39.72 Y11.98 F120
G01 X39.75 Y11.98 F120
G01 X39.90 Y11.99 F120
G01 X40.05 Y12.04 F120
G01 X40.18 Y12.11 F120
G01 X40.30 Y12.20 F120
G01 X40.31 Y12.22 F120
G01 X40.33 Y12.25 F120
G01 X42.08 Y13.99 F120
G01 X42.11 Y14.02 F120
G01 X42.13 Y14.04 F120
G01 X42.15 Y14.05 F120
G01 X42.17 Y14.06 F120
G01 X42.20 Y14.07 F120
G01 X42.23 Y14.08 F120
G01 X42.24 Y14.09 F120
G01 X42.27 Y14.09 F120
G01 X42.30 Y14.10 F120
G01 X42.32 Y14.10 F120
G01 X42.35 Y14.10 F120
G01 X42.38 Y14.10 F120
G01 X42.41 Y14.10 F120
G01 X42.42 Y14.09 F120
G01 X42.45 Y14.08 F120
G01 X42.48 Y14.07 F120
G01 X42.50 Y14.06 F120
G01 X42.52 Y14.06 F120
G01 X42.54 Y14.04 F120
G01 X42.57 Y14.02 F120
G01 X42.58 Y14.01 F120
G01 X42.60 Y13.99 F120
G01 X42.62 Y13.97 F120
G01 X42.63 Y13.96 F120
G01 X42.65 Y13.93 F120
G01 X42.66 Y13.91 F120
G01 X42.67 Y13.89 F120
G01 X42.68 Y13.87 F120
G01 X42.69 Y13.84 F120
G01 X42.70 Y13.81 F120
G01 X42.70 Y13.79 F120
G01 X42.71 Y13.77 F120
G01 X42.71 Y13.73 F120
G01 X42.71 Y0.66 F120
G01 X42.71 Y0.62 F120
G01 X42.70 Y0.59 F120
G01 X42.69 Y0.55 F120
G01 X42.68 Y0.52 F120
G01 X42.66 Y0.49 F120
G01 X42.65 Y0.46 F120
G01 X42.62 Y0.43 F120
G01 X42.60 Y0.40 F120
G01 X42.57 Y0.38 F120
G01 X42.54 Y0.35 F120
G01 X42.51 Y0.34 F120
G01 X42.48 Y0.32 F120
G01 X42.45 Y0.31 F120
G01 X42.41 Y0.30 F120
G01 X42.38 Y0.29 F120
G01 X42.34 Y0.29 F120
G01 X0.66 Y0.29 F120
G01 X0.62 Y0.29 F120
G01 X0.59 Y0.30 F120
G01 X0.55 Y0.31 F120
G01 X0.52 Y0.32 F120
G01 X0.49 Y0.34 F120
G01 X0.46 Y0.35 F120
G01 X0.43 Y0.38 F120
G01 X0.40 Y0.40 F120
G01 X0.38 Y0.43 F120
G01 X0.35 Y0.46 F120
G01 X0.34 Y0.49 F120
G01 X0.32 Y0.52 F120
G01 X0.31 Y0.55 F120
G01 X0.30 Y0.59 F120
G01 X0.29 Y0.62 F120
G01 X0.29 Y0.66 F120
G00 Z2.00
G00 X2.13 Y3.82
G01 F30
G01 Z-0.11
G01 F120
G01 X2.20 Y3.46 F120
G01 X2.34 Y3.12 F120
G01 X2.55 Y2.81 F120
G01 X2.81 Y2.55 F120
G01 X3.12 Y2.34 F120
G01 X3.46 Y2.20 F120
G01 X3.82 Y2.13 F120
G01 X4.18 Y2.13 F120
G01 X4.54 Y2.20 F120
G01 X4.88 Y2.34 F120
G01 X5.19 Y2.55 F120
G01 X5.45 Y2.81 F120
G01 X5.66 Y3.12 F120
G01 X5.80 Y3.46 F120
G01 X5.87 Y3.82 F120
G01 X5.87 Y4.18 F120
G01 X5.80 Y4.54 F120
G01 X5.66 Y4.88 F120
G01 X5.45 Y5.19 F120
G01 X5.19 Y5.45 F120
G01 X4.88 Y5.66 F120
G01 X4.54 Y5.80 F120
G01 X4.18 Y5.87 F120
G01 X3.82 Y5.87 F120
G01 X3.46 Y5.80 F120
G01 X3.12 Y5.66 F120
G01 X2.81 Y5.45 F120
G01 X2.55 Y5.19 F120
G01 X2.34 Y4.88 F120
G01 X2.20 Y4.54 F120
G01 X2.13 Y4.18 F120
G01 X2.13 Y3.82 F120
G00 Z2.00
G00 X12.82 Y6.83
G01 F30
G01 Z-0.11
G01 F120
G01 X12.85 Y6.86 F120
G01 X12.81 Y6.95 F120
G01 X12.78 Y7.07 F120
G01 X12.77 Y7.19 F120
G01 X12.76 Y7.31 F120
G01 X12.77 Y7.43 F120
G01 X12.78 Y7.55 F120
G01 X12.81 Y7.67 F120
G01 X12.85 Y7.76 F120
G01 X12.82 Y7.79 F120
G01 X12.76 Y7.61 F120
G01 X12.73 Y7.36 F120
G01 X12.74 Y7.11 F120
G01 X12.81 Y6.87 F120
G01 X12.82 Y6.83 F120
G00 Z2.00
G00 X13.55 Y6.16
G01 F30
G01 Z-0.11
G01 F120
G01 X13.52 Y6.13 F120
G01 X13.70 Y6.07 F120
G01 X13.95 Y6.04 F120
G01 X14.20 Y6.05 F120
G01 X14.44 Y6.12 F120
G01 X14.48 Y6.13 F120
G01 X14.45 Y6.16 F120
G01 X14.36 Y6.12 F120
G01 X14.24 Y6.09 F120
G01 X14.12 Y6.08 F120
G01 X14.01 Y6.07 F120
G01 X13.99 Y6.07 F120
G01 X13.88 Y6.08 F120
G01 X13.76 Y6.09 F120
G01 X13.64 Y6.12 F120
G01 X13.55 Y6.16 F120
G00 Z2.00
G00 X15.15 Y6.86
G01 F30
G01 Z-0.11
G01 F120
G01 X15.18 Y6.83 F120
G01 X15.24 Y7.01 F120
G01 X15.27 Y7.26 F120
G01 X15.26 Y7.51 F120
G01 X15.19 Y7.75 F120
G01 X15.18 Y7.79 F120
G01 X15.15 Y7.76 F120
G01 X15.19 Y7.67 F120
G01 X15.22 Y7.55 F120
G01 X15.23 Y7.43 F120
G01 X15.24 Y7.32 F120
G01 X15.24 Y7.30 F120
G01 X15.23 Y7.19 F120
G01 X15.22 Y7.07 F120
G01 X15.19 Y6.95 F120
G01 X15.15 Y6.86 F120
G00 Z2.00
G00 X15.25 Y4.60
G01 F30
G01 Z-0.11
G01 F120
G01 X15.25 Y4.60 F120
G01 X15.22 Y4.65 F120
G01 X15.19 Y4.69 F120
G01 X15.15 Y4.72 F120
G01 X15.10 Y4.75 F120
G01 X15.05 Y4.76 F120
G01 X14.98 Y4.77 F120
G01 X13.02 Y4.77 F120
G01 X12.95 Y4.76 F120
G01 X12.90 Y4.75 F120
G01 X12.85 Y4.72 F120
G01 X12.81 Y4.69 F120
G01 X12.78 Y4.65 F120
G01 X12.75 Y4.60 F120
G01 X12.74 Y4.55 F120
G01 X12.73 Y4.48 F120
G01 X12.73 Y2.52 F120
G01 X12.74 Y2.45 F120
G01 X12.75 Y2.40 F120
G01 X12.78 Y2.35 F120
G01 X12.81 Y2.31 F120
G01 X12.85 Y2.28 F120
G01 X12.90 Y2.25 F120
G01 X12.95 Y2.24 F120
G01 X13.02 Y2.23 F120
G01 X14.98 Y2.23 F120
G01 X15.05 Y2.24 F120
G01 X15.10 Y2.25 F120
G01 X15.15 Y2.28 F120
G01 X15.19 Y2.31 F120
G01 X15.22 Y2.35 F120
G01 X15.25 Y2.40 F120
G01 X15.27 Y2.48 F120
G01 X15.28 Y2.51 F120
G01 X15.30 Y2.54 F120
G01 X15.31 Y2.56 F120
G01 X15.32 Y2.58 F120
G01 X15.34 Y2.60 F120
G01 X15.36 Y2.62 F120
G01 X15.39 Y2.65 F120
G01 X15.41 Y2.67 F120
G01 X15.43 Y2.68 F120
G01 X15.45 Y2.69 F120
G01 X15.48 Y2.70 F120
G01 X15.51 Y2.71 F120
G01 X15.54 Y2.72 F120
G01 X15.56 Y2.73 F120
G01 X15.58 Y2.73 F120
G01 X15.60 Y2.73 F120
G01 X15.62 Y2.73 F120
G01 X15.94 Y2.73 F120
G01 X15.97 Y2.73 F120
G01 X16.00 Y2.73 F120
G01 X16.15 Y2.74 F120
G01 X16.30 Y2.79 F120
G01 X16.43 Y2.86 F120
G01 X16.55 Y2.95 F120
G01 X16.56 Y2.97 F120
G01 X16.58 Y3.00 F120
G01 X18.50 Y4.92 F120
G01 X18.53 Y4.94 F120
G01 X18.55 Y4.95 F120
G01 X18.64 Y5.07 F120
G01 X18.71 Y5.20 F120
G01 X18.76 Y5.35 F120
G01 X18.77 Y5.50 F120
G01 X18.77 Y5.53 F120
G01 X18.77 Y5.56 F120
G01 X18.77 Y10.03 F120
G01 X18.77 Y10.06 F120
G01 X18.77 Y10.08 F120
G01 X18.77 Y10.10 F120
G01 X18.78 Y10.13 F120
G01 X18.80 Y10.17 F120
G01 X18.81 Y10.21 F120
G01 X18.83 Y10.23 F120
G01 X18.84 Y10.24 F120
G01 X18.85 Y10.26 F120
G01 X18.87 Y10.29 F120
G01 X20.25 Y11.67 F120
G01 X20.28 Y11.69 F120
G01 X20.30 Y11.71 F120
G01 X20.33 Y11.72 F120
G01 X20.35 Y11.73 F120
G01 X20.38 Y11.75 F120
G01 X20.40 Y11.76 F120
G01 X20.43 Y11.76 F120
G01 X20.46 Y11.77 F120
G01 X20.48 Y11.77 F120
G01 X20.50 Y11.77 F120
G01 X20.52 Y11.77 F120
G01 X20.55 Y11.77 F120
G01 X20.58 Y11.77 F120
G01 X20.59 Y11.76 F120
G01 X20.62 Y11.75 F120
G01 X20.66 Y11.74 F120
G01 X20.69 Y11.73 F120
G01 X20.72 Y11.71 F120
G01 X20.74 Y11.69 F120
G01 X20.77 Y11.66 F120
G01 X20.79 Y11.64 F120
G01 X20.82 Y11.61 F120
G01 X20.83 Y11.58 F120
G01 X20.85 Y11.55 F120
G01 X20.86 Y11.51 F120
G01 X20.87 Y11.48 F120
G01 X20.88 Y11.44 F120
G01 X20.88 Y11.41 F120
G01 X20.88 Y11.39 F120
G01 X20.88 Y11.37 F120
G01 X20.87 Y11.34 F120
G01 X20.87 Y11.33 F120
G01 X20.86 Y11.30 F120
G01 X20.85 Y11.26 F120
G01 X20.83 Y11.23 F120
G01 X20.81 Y11.20 F120
G01 X20.80 Y11.18 F120
G01 X20.78 Y11.15 F120
G01 X20.75 Y11.10 F120
G01 X20.74 Y11.05 F120
G01 X20.73 Y10.98 F120
G01 X20.73 Y9.02 F120
G01 X20.74 Y8.95 F120
G01 X20.75 Y8.90 F120
G01 X20.78 Y8.85 F120
G01 X20.81 Y8.81 F120
G01 X20.85 Y8.78 F120
G01 X20.92 Y8.74 F120
G01 X20.94 Y8.73 F120
G01 X20.96 Y8.71 F120
G01 X20.98 Y8.70 F120
G01 X21.00 Y8.68 F120
G01 X21.02 Y8.65 F120
G01 X21.04 Y8.64 F120
G01 X21.05 Y8.62 F120
G01 X21.07 Y8.59 F120
G01 X21.08 Y8.57 F120
G01 X21.09 Y8.55 F120
G01 X21.10 Y8.52 F120
G01 X21.10 Y8.49 F120
G01 X21.11 Y8.48 F120
G01 X21.11 Y8.45 F120
G01 X21.11 Y8.42 F120
G01 X21.11 Y7.68 F120
G01 X21.11 Y7.64 F120
G01 X21.11 Y7.61 F120
G01 X21.10 Y7.57 F120
G01 X21.08 Y7.54 F120
G01 X21.07 Y7.50 F120
G01 X21.05 Y7.47 F120
G01 X21.03 Y7.44 F120
G01 X21.01 Y7.42 F120
G01 X20.90 Y7.31 F120
G01 X20.76 Y7.10 F120
G01 X20.66 Y6.87 F120
G01 X20.61 Y6.62 F120
G01 X20.61 Y6.38 F120
G01 X20.66 Y6.13 F120
G01 X20.76 Y5.90 F120
G01 X20.90 Y5.69 F120
G01 X21.07 Y5.52 F120
G01 X21.28 Y5.38 F120
G01 X21.51 Y5.28 F120
G01 X21.76 Y5.23 F120
G01 X22.00 Y5.23 F120
G01 X22.25 Y5.28 F120
G01 X22.48 Y5.38 F120
G01 X22.69 Y5.52 F120
G01 X22.86 Y5.69 F120
G01 X23.00 Y5.90 F120
G01 X23.10 Y6.13 F120
G01 X23.15 Y6.38 F120
G01 X23.15 Y6.62 F120
G01 X23.10 Y6.87 F120
G01 X23.00 Y7.10 F120
G01 X22.86 Y7.31 F120
G01 X22.75 Y7.42 F120
G01 X22.73 Y7.44 F120
G01 X22.71 Y7.47 F120
G01 X22.69 Y7.50 F120
G01 X22.68 Y7.53 F120
G01 X22.67 Y7.55 F120
G01 X22.66 Y7.58 F120
G01 X22.66 Y7.60 F120
G01 X22.65 Y7.62 F120
G01 X22.65 Y7.64 F120
G01 X22.65 Y7.67 F120
G01 X22.65 Y8.36 F120
G01 X22.65 Y8.39 F120
G01 X22.65 Y8.41 F120
G01 X22.65 Y8.43 F120
G01 X22.66 Y8.46 F120
G01 X22.67 Y8.48 F120
G01 X22.67 Y8.50 F120
G01 X22.68 Y8.51 F120
G01 X22.69 Y8.54 F120
G01 X22.71 Y8.57 F120
G01 X22.74 Y8.60 F120
G01 X22.75 Y8.62 F120
G01 X22.76 Y8.63 F120
G01 X22.79 Y8.65 F120
G01 X22.82 Y8.67 F120
G01 X22.85 Y8.69 F120
G01 X22.88 Y8.70 F120
G01 X22.91 Y8.72 F120
G01 X22.95 Y8.72 F120
G01 X22.98 Y8.73 F120
G01 X23.05 Y8.74 F120
G01 X23.10 Y8.75 F120
G01 X23.15 Y8.78 F120
G01 X23.19 Y8.81 F120
G01 X23.22 Y8.85 F120
G01 X23.25 Y8.90 F120
G01 X23.26 Y8.95 F120
G01 X23.27 Y9.02 F120
G01 X23.27 Y10.98 F120
G01 X23.26 Y11.05 F120
G01 X23.25 Y11.10 F120
G01 X23.22 Y11.15 F120
G01 X23.19 Y11.19 F120
G01 X23.15 Y11.22 F120
G01 X23.13 Y11.23 F120
G01 X23.10 Y11.25 F120
G01 X23.07 Y11.28 F120
G01 X23.05 Y11.30 F120
G01 X23.03 Y11.32 F120
G01 X23.01 Y11.34 F120
G01 X23.00 Y11.36 F120
G01 X22.98 Y11.38 F120
G01 X22.97 Y11.40 F120
G01 X22.97 Y11.42 F120
G01 X22.96 Y11.45 F120
G01 X22.95 Y11.48 F120
G01 X22.95 Y11.50 F120
G01 X22.94 Y11.53 F120
G01 X22.94 Y11.56 F120
G01 X22.94 Y11.59 F120
G01 X22.95 Y11.63 F120
G01 X22.96 Y11.66 F120
G01 X22.97 Y11.70 F120
G01 X22.98 Y11.73 F120
G01 X23.00 Y11.75 F120
G01 X23.12 Y11.94 F120
G01 X23.22 Y12.17 F120
G01 X23.27 Y12.42 F120
G01 X23.27 Y12.66 F120
G01 X23.22 Y12.91 F120
G01 X23.12 Y13.14 F120
G01 X22.98 Y13.35 F120
G01 X22.81 Y13.52 F120
G01 X22.60 Y13.66 F120
G01 X22.37 Y13.76 F120
G01 X22.12 Y13.81 F120
G01 X21.88 Y13.81 F120
G01 X21.63 Y13.76 F120
G01 X21.40 Y13.66 F120
G01 X21.19 Y13.52 F120
G01 X21.08 Y13.41 F120
G01 X21.06 Y13.39 F120
G01 X21.03 Y13.37 F120
G01 X21.00 Y13.35 F120
G01 X20.97 Y13.34 F120
G01 X20.95 Y13.33 F120
G01 X20.93 Y13.33 F120
G01 X20.92 Y13.32 F120
G01 X20.89 Y13.31 F120
G01 X20.86 Y13.31 F120
G01 X20.82 Y13.31 F120
G01 X20.10 Y13.31 F120
G01 X20.07 Y13.31 F120
G01 X20.04 Y13.31 F120
G01 X19.89 Y13.30 F120
G01 X19.74 Y13.25 F120
G01 X19.61 Y13.18 F120
G01 X19.49 Y13.09 F120
G01 X19.48 Y13.07 F120
G01 X19.46 Y13.04 F120
G01 X18.26 Y11.85 F120
G01 X18.24 Y11.83 F120
G01 X18.21 Y11.81 F120
G01 X18.19 Y11.79 F120
G01 X18.17 Y11.78 F120
G01 X18.14 Y11.76 F120
G01 X18.11 Y11.75 F120
G01 X18.07 Y11.75 F120
G01 X18.04 Y11.74 F120
G01 X18.01 Y11.74 F120
G01 X17.97 Y11.74 F120
G01 X17.94 Y11.74 F120
G01 X17.92 Y11.75 F120
G01 X17.90 Y11.75 F120
G01 X17.88 Y11.76 F120
G01 X17.85 Y11.77 F120
G01 X17.82 Y11.78 F120
G01 X17.80 Y11.80 F120
G01 X17.77 Y11.82 F120
G01 X17.74 Y11.85 F120
G01 X17.08 Y12.50 F120
G01 X17.06 Y12.53 F120
G01 X17.05 Y12.55 F120
G01 X16.93 Y12.64 F120
G01 X16.80 Y12.71 F120
G01 X16.65 Y12.76 F120
G01 X16.50 Y12.77 F120
G01 X16.47 Y12.77 F120
G01 X16.44 Y12.77 F120
G01 X15.62 Y12.77 F120
G01 X15.59 Y12.77 F120
G01 X15.56 Y12.77 F120
G01 X15.55 Y12.78 F120
G01 X15.52 Y12.78 F120
G01 X15.49 Y12.79 F120
G01 X15.46 Y12.81 F120
G01 X15.44 Y12.81 F120
G01 X15.42 Y12.83 F120
G01 X15.39 Y12.85 F120
G01 X15.37 Y12.87 F120
G01 X15.36 Y12.88 F120
G01 X15.34 Y12.90 F120
G01 X15.32 Y12.93 F120
G01 X15.31 Y12.94 F120
G01 X15.30 Y12.96 F120
G01 X15.29 Y12.99 F120
G01 X15.27 Y13.02 F120
G01 X15.25 Y13.10 F120
G01 X15.22 Y13.15 F120
G01 X15.19 Y13.19 F120
G01 X15.15 Y13.22 F120
G01 X15.10 Y13.25 F120
G01 X15.05 Y13.26 F120
G01 X14.98 Y13.27 F120
G01 X13.02 Y13.27 F120
G01 X12.95 Y13.26 F120
G01 X12.90 Y13.25 F120
G01 X12.85 Y13.22 F120
G01 X12.81 Y13.19 F120
G01 X12.78 Y13.15 F120
G01 X12.75 Y13.10 F120
G01 X12.74 Y13.05 F120
G01 X12.73 Y12.98 F120
G01 X12.73 Y11.02 F120
G01 X12.74 Y10.95 F120
G01 X12.75 Y10.90 F120
G01 X12.78 Y10.85 F120
G01 X12.81 Y10.81 F120
G01 X12.85 Y10.78 F120
G01 X12.90 Y10.75 F120
G01 X12.95 Y10.74 F120
G01 X13.02 Y10.73 F120
G01 X14.98 Y10.73 F120
G01 X15.05 Y10.74 F120
G01 X15.10 Y10.75 F120
G01 X15.15 Y10.78 F120
G01 X15.19 Y10.81 F120
G01 X15.22 Y10.85 F120
G01 X15.25 Y10.90 F120
G01 X15.27 Y10.98 F120
G01 X15.28 Y11.01 F120
G01 X15.30 Y11.04 F120
G01 X15.32 Y11.07 F120
G01 X15.34 Y11.09 F120
G01 X15.35 Y11.11 F120
G01 X15.36 Y11.12 F120
G01 X15.39 Y11.14 F120
G01 X15.42 Y11.17 F120
G01 X15.44 Y11.19 F120
G01 X15.46 Y11.19 F120
G01 X15.49 Y11.21 F120
G01 X15.52 Y11.22 F120
G01 X15.56 Y11.23 F120
G01 X15.58 Y11.23 F120
G01 X15.60 Y11.23 F120
G01 X15.62 Y11.23 F120
G01 X16.03 Y11.23 F120
G01 X16.06 Y11.23 F120
G01 X16.08 Y11.23 F120
G01 X16.11 Y11.22 F120
G01 X16.14 Y11.22 F120
G01 X16.16 Y11.21 F120
G01 X16.19 Y11.19 F120
G01 X16.21 Y11.18 F120
G01 X16.24 Y11.17 F120
G01 X16.26 Y11.15 F120
G01 X16.29 Y11.13 F120
G01 X17.13 Y10.29 F120
G01 X17.14 Y10.27 F120
G01 X17.16 Y10.25 F120
G01 X17.17 Y10.23 F120
G01 X17.19 Y10.21 F120
G01 X17.20 Y10.17 F120
G01 X17.22 Y10.13 F120
G01 X17.23 Y10.10 F120
G01 X17.23 Y10.08 F120
G01 X17.23 Y10.06 F120
G01 X17.23 Y10.03 F120
G01 X17.23 Y5.97 F120
G01 X17.23 Y5.93 F120
G01 X17.23 Y5.90 F120
G01 X17.22 Y5.87 F120
G01 X17.21 Y5.85 F120
G01 X17.20 Y5.83 F120
G01 X17.19 Y5.81 F120
G01 X17.19 Y5.79 F120
G01 X17.18 Y5.78 F120
G01 X17.17 Y5.76 F120
G01 X17.15 Y5.74 F120
G01 X17.13 Y5.71 F120
G01 X15.86 Y4.45 F120
G01 X15.83 Y4.42 F120
G01 X15.80 Y4.40 F120
G01 X15.78 Y4.39 F120
G01 X15.76 Y4.38 F120
G01 X15.74 Y4.37 F120
G01 X15.72 Y4.36 F120
G01 X15.70 Y4.35 F120
G01 X15.68 Y4.35 F120
G01 X15.64 Y4.34 F120
G01 X15.60 Y4.34 F120
G01 X15.56 Y4.34 F120
G01 X15.54 Y4.35 F120
G01 X15.52 Y4.35 F120
G01 X15.49 Y4.35 F120
G01 X15.47 Y4.36 F120
G01 X15.46 Y4.37 F120
G01 X15.43 Y4.38 F120
G01 X15.40 Y4.40 F120
G01 X15.37 Y4.42 F120
G01 X15.34 Y4.45 F120
G01 X15.32 Y4.47 F120
G01 X15.31 Y4.48 F120
G01 X15.30 Y4.50 F120
G01 X15.28 Y4.52 F120
G01 X15.27 Y4.54 F120
G01 X15.26 Y4.56 F120
G01 X15.25 Y4.60 F120
G00 Z2.00
G00 X13.55 Y8.46
G01 F30
G01 Z-0.11
G01 F120
G01 X13.64 Y8.50 F120
G01 X13.76 Y8.53 F120
G01 X13.88 Y8.54 F120
G01 X13.99 Y8.55 F120
G01 X14.01 Y8.55 F120
G01 X14.12 Y8.54 F120
G01 X14.24 Y8.53 F120
G01 X14.36 Y8.50 F120
G01 X14.45 Y8.46 F120
G01 X14.48 Y8.49 F120
G01 X14.30 Y8.55 F120
G01 X14.05 Y8.58 F120
G01 X13.80 Y8.57 F120
G01 X13.56 Y8.50 F120
G01 X13.52 Y8.49 F120
G01 X13.55 Y8.46 F120
G00 Z2.00
G00 X13.00 Y13.24
G01 F30
G01 Z-0.11
G01 F120
G01 X15.00 Y13.24 F120
G01 X15.02 Y13.24 F120
G01 X15.04 Y13.24 F120
G01 X15.06 Y13.23 F120
G01 X15.09 Y13.22 F120
G01 X15.12 Y13.21 F120
G01 X15.13 Y13.20 F120
G01 X15.15 Y13.19 F120
G01 X15.17 Y13.17 F120
G01 X15.19 Y13.15 F120
G01 X15.21 Y13.12 F120
G01 X15.21 Y13.11 F120
G01 X15.22 Y13.09 F120
G01 X15.23 Y13.08 F120
G01 X15.23 Y13.05 F120
G01 X15.24 Y13.03 F120
G01 X15.24 Y13.01 F120
G01 X15.24 Y12.74 F120
G01 X16.51 Y12.74 F120
G01 X16.57 Y12.74 F120
G01 X16.63 Y12.73 F120
G01 X16.66 Y12.72 F120
G01 X16.72 Y12.71 F120
G01 X16.77 Y12.69 F120
G01 X16.79 Y12.68 F120
G01 X16.84 Y12.66 F120
G01 X16.86 Y12.65 F120
G01 X16.91 Y12.62 F120
G01 X16.96 Y12.58 F120
G01 X16.97 Y12.57 F120
G01 X17.01 Y12.53 F120
G01 X18.00 Y11.55 F120
G01 X19.52 Y13.06 F120
G01 X19.56 Y13.10 F120
G01 X19.58 Y13.12 F120
G01 X19.63 Y13.16 F120
G01 X19.68 Y13.19 F120
G01 X19.70 Y13.20 F120
G01 X19.76 Y13.22 F120
G01 X19.83 Y13.25 F120
G01 X19.90 Y13.27 F120
G01 X19.96 Y13.28 F120
G01 X19.97 Y13.28 F120
G01 X20.04 Y13.28 F120
G01 X21.01 Y13.28 F120
G01 X21.05 Y13.33 F120
G01 X21.12 Y13.41 F120
G01 X21.13 Y13.42 F120
G01 X21.21 Y13.50 F120
G01 X21.30 Y13.56 F120
G01 X21.32 Y13.57 F120
G01 X21.42 Y13.63 F120
G01 X21.53 Y13.69 F120
G01 X21.64 Y13.73 F120
G01 X21.75 Y13.75 F120
G01 X21.77 Y13.76 F120
G01 X21.88 Y13.77 F120
G01 X22.00 Y13.78 F120
G01 X22.12 Y13.77 F120
G01 X22.24 Y13.76 F120
G01 X22.36 Y13.73 F120
G01 X22.47 Y13.69 F120
G01 X22.58 Y13.63 F120
G01 X22.69 Y13.57 F120
G01 X22.79 Y13.50 F120
G01 X22.88 Y13.42 F120
G01 X22.96 Y13.33 F120
G01 X23.03 Y13.23 F120
G01 X23.09 Y13.12 F120
G01 X23.15 Y13.01 F120
G01 X23.19 Y12.90 F120
G01 X23.22 Y12.78 F120
G01 X23.23 Y12.67 F120
G01 X23.23 Y12.65 F120
G01 X23.24 Y12.54 F120
G01 X23.23 Y12.42 F120
G01 X23.22 Y12.30 F120
G01 X23.19 Y12.19 F120
G01 X23.18 Y12.17 F120
G01 X23.15 Y12.08 F120
G01 X23.14 Y12.05 F120
G01 X23.09 Y11.96 F120
G01 X23.03 Y11.85 F120
G01 X22.96 Y11.75 F120
G01 X22.88 Y11.67 F120
G01 X22.87 Y11.66 F120
G01 X22.80 Y11.59 F120
G01 X22.78 Y11.57 F120
G01 X22.69 Y11.51 F120
G01 X22.59 Y11.45 F120
G01 X22.57 Y11.44 F120
G01 X22.47 Y11.39 F120
G01 X22.37 Y11.36 F120
G01 X22.35 Y11.35 F120
G01 X22.25 Y11.33 F120
G01 X22.23 Y11.32 F120
G01 X22.12 Y11.31 F120
G01 X22.00 Y11.30 F120
G01 X21.88 Y11.31 F120
G01 X21.77 Y11.32 F120
G01 X21.75 Y11.33 F120
G01 X21.64 Y11.35 F120
G01 X21.53 Y11.39 F120
G01 X21.42 Y11.45 F120
G01 X21.32 Y11.51 F120
G01 X21.30 Y11.52 F120
G01 X21.21 Y11.58 F120
G01 X21.13 Y11.66 F120
G01 X21.12 Y11.67 F120
G01 X21.05 Y11.75 F120
G01 X21.01 Y11.80 F120
G01 X20.35 Y11.80 F120
G01 X18.74 Y10.19 F120
G01 X18.74 Y5.50 F120
G01 X18.74 Y5.43 F120
G01 X18.73 Y5.36 F120
G01 X18.71 Y5.29 F120
G01 X18.69 Y5.23 F120
G01 X18.68 Y5.21 F120
G01 X18.65 Y5.15 F120
G01 X18.62 Y5.09 F120
G01 X18.57 Y5.03 F120
G01 X18.53 Y4.98 F120
G01 X16.52 Y2.98 F120
G01 X16.47 Y2.93 F120
G01 X16.41 Y2.88 F120
G01 X16.36 Y2.85 F120
G01 X16.34 Y2.84 F120
G01 X16.28 Y2.82 F120
G01 X16.23 Y2.80 F120
G01 X16.20 Y2.79 F120
G01 X16.14 Y2.77 F120
G01 X16.08 Y2.76 F120
G01 X16.06 Y2.76 F120
G01 X16.00 Y2.76 F120
G01 X15.24 Y2.76 F120
G01 X15.24 Y2.49 F120
G01 X15.24 Y2.46 F120
G01 X15.23 Y2.45 F120
G01 X15.23 Y2.43 F120
G01 X15.22 Y2.41 F120
G01 X15.21 Y2.39 F120
G01 X15.20 Y2.36 F120
G01 X15.18 Y2.34 F120
G01 X15.17 Y2.33 F120
G01 X15.15 Y2.31 F120
G01 X15.13 Y2.30 F120
G01 X15.10 Y2.28 F120
G01 X15.08 Y2.27 F120
G01 X15.05 Y2.26 F120
G01 X15.02 Y2.26 F120
G01 X15.00 Y2.26 F120
G01 X12.99 Y2.26 F120
G01 X12.97 Y2.26 F120
G01 X12.95 Y2.27 F120
G01 X12.92 Y2.27 F120
G01 X12.90 Y2.28 F120
G01 X12.88 Y2.29 F120
G01 X12.86 Y2.30 F120
G01 X12.84 Y2.32 F120
G01 X12.83 Y2.33 F120
G01 X12.81 Y2.35 F120
G01 X12.80 Y2.37 F120
G01 X12.79 Y2.39 F120
G01 X12.78 Y2.41 F120
G01 X12.77 Y2.42 F120
G01 X12.77 Y2.45 F120
G01 X12.76 Y2.47 F120
G01 X12.76 Y2.49 F120
G01 X12.76 Y4.50 F120
G01 X12.76 Y4.52 F120
G01 X12.76 Y4.54 F120
G01 X12.77 Y4.56 F120
G01 X12.77 Y4.58 F120
G01 X12.78 Y4.60 F120
G01 X12.79 Y4.62 F120
G01 X12.80 Y4.63 F120
G01 X12.81 Y4.65 F120
G01 X12.82 Y4.66 F120
G01 X12.83 Y4.67 F120
G01 X12.85 Y4.69 F120
G01 X12.86 Y4.70 F120
G01 X12.88 Y4.71 F120
G01 X12.89 Y4.71 F120
G01 X12.91 Y4.72 F120
G01 X12.92 Y4.73 F120
G01 X12.94 Y4.73 F120
G01 X12.96 Y4.74 F120
G01 X12.98 Y4.74 F120
G01 X13.00 Y4.74 F120
G01 X15.00 Y4.74 F120
G01 X15.02 Y4.74 F120
G01 X15.04 Y4.74 F120
G01 X15.06 Y4.73 F120
G01 X15.09 Y4.72 F120
G01 X15.11 Y4.71 F120
G01 X15.13 Y4.70 F120
G01 X15.14 Y4.69 F120
G01 X15.17 Y4.67 F120
G01 X15.18 Y4.66 F120
G01 X15.19 Y4.65 F120
G01 X15.21 Y4.62 F120
G01 X15.22 Y4.60 F120
G01 X15.23 Y4.58 F120
G01 X15.23 Y4.56 F120
G01 X15.24 Y4.54 F120
G01 X15.24 Y4.51 F120
G01 X15.24 Y4.24 F120
G01 X15.69 Y4.24 F120
G01 X17.26 Y5.81 F120
G01 X17.26 Y10.19 F120
G01 X16.19 Y11.26 F120
G01 X15.24 Y11.26 F120
G01 X15.24 Y10.99 F120
G01 X15.24 Y10.96 F120
G01 X15.23 Y10.95 F120
G01 X15.23 Y10.93 F120
G01 X15.22 Y10.91 F120
G01 X15.21 Y10.88 F120
G01 X15.19 Y10.86 F120
G01 X15.18 Y10.84 F120
G01 X15.17 Y10.83 F120
G01 X15.15 Y10.81 F120
G01 X15.12 Y10.79 F120
G01 X15.10 Y10.78 F120
G01 X15.08 Y10.77 F120
G01 X15.06 Y10.77 F120
G01 X15.04 Y10.76 F120
G01 X15.02 Y10.76 F120
G01 X15.00 Y10.76 F120
G01 X12.99 Y10.76 F120
G01 X12.98 Y10.76 F120
G01 X12.96 Y10.76 F120
G01 X12.94 Y10.77 F120
G01 X12.92 Y10.77 F120
G01 X12.91 Y10.78 F120
G01 X12.89 Y10.79 F120
G01 X12.88 Y10.79 F120
G01 X12.86 Y10.80 F120
G01 X12.84 Y10.82 F120
G01 X12.82 Y10.84 F120
G01 X12.81 Y10.86 F120
G01 X12.79 Y10.88 F120
G01 X12.78 Y10.90 F120
G01 X12.77 Y10.93 F120
G01 X12.76 Y10.96 F120
G01 X12.76 Y10.99 F120
G01 X12.76 Y13.01 F120
G01 X12.76 Y13.04 F120
G01 X12.77 Y13.06 F120
G01 X12.77 Y13.08 F120
G01 X12.78 Y13.10 F120
G01 X12.79 Y13.12 F120
G01 X12.81 Y13.14 F120
G01 X12.82 Y13.16 F120
G01 X12.83 Y13.17 F120
G01 X12.85 Y13.19 F120
G01 X12.87 Y13.20 F120
G01 X12.89 Y13.21 F120
G01 X12.91 Y13.22 F120
G01 X12.93 Y13.23 F120
G01 X12.95 Y13.24 F120
G01 X12.98 Y13.24 F120
G01 X13.00 Y13.24 F120
G00 Z2.00
G00 X13.55 Y14.66
G01 F30
G01 Z-0.11
G01 F120
G01 X13.52 Y14.63 F120
G01 X13.70 Y14.57 F120
G01 X13.95 Y14.54 F120
G01 X14.20 Y14.55 F120
G01 X14.44 Y14.62 F120
G01 X14.48 Y14.63 F120
G01 X14.45 Y14.66 F120
G01 X14.36 Y14.62 F120
G01 X14.24 Y14.59 F120
G01 X14.12 Y14.58 F120
G01 X14.01 Y14.57 F120
G01 X13.99 Y14.57 F120
G01 X13.88 Y14.58 F120
G01 X13.76 Y14.59 F120
G01 X13.64 Y14.62 F120
G01 X13.55 Y14.66 F120
G00 Z2.00
G00 X12.82 Y15.33
G01 F30
G01 Z-0.11
G01 F120
G01 X12.85 Y15.36 F120
G01 X12.81 Y15.45 F120
G01 X12.78 Y15.57 F120
G01 X12.77 Y15.69 F120
G01 X12.76 Y15.81 F120
G01 X12.77 Y15.93 F120
G01 X12.78 Y16.05 F120
G01 X12.81 Y16.17 F120
G01 X12.85 Y16.26 F120
G01 X12.82 Y16.29 F120
G01 X12.76 Y16.11 F120
G01 X12.73 Y15.86 F120
G01 X12.74 Y15.61 F120
G01 X12.81 Y15.37 F120
G01 X12.82 Y15.33 F120
G00 Z2.00
G00 X13.55 Y16.96
G01 F30
G01 Z-0.11
G01 F120
G01 X13.64 Y17.00 F120
G01 X13.76 Y17.03 F120
G01 X13.88 Y17.04 F120
G01 X13.99 Y17.05 F120
G01 X14.01 Y17.05 F120
G01 X14.12 Y17.04 F120
G01 X14.24 Y17.03 F120
G01 X14.36 Y17.00 F120
G01 X14.45 Y16.96 F120
G01 X14.48 Y16.99 F120
G01 X14.30 Y17.05 F120
G01 X14.05 Y17.08 F120
G01 X13.80 Y17.07 F120
G01 X13.56 Y17.00 F120
G01 X13.52 Y16.99 F120
G01 X13.55 Y16.96 F120
G00 Z2.00
G00 X15.15 Y15.36
G01 F30
G01 Z-0.11
G01 F120
G01 X15.18 Y15.33 F120
G01 X15.24 Y15.51 F120
G01 X15.27 Y15.76 F120
G01 X15.26 Y16.01 F120
G01 X15.19 Y16.25 F120
G01 X15.18 Y16.29 F120
G01 X15.15 Y16.26 F120
G01 X15.19 Y16.17 F120
G01 X15.22 Y16.05 F120
G01 X15.23 Y15.93 F120
G01 X15.24 Y15.82 F120
G01 X15.24 Y15.80 F120
G01 X15.23 Y15.69 F120
G01 X15.22 Y15.57 F120
G01 X15.19 Y15.45 F120
G01 X15.15 Y15.36 F120
G00 Z2.00
G00 X12.73 Y19.52
G01 F30
G01 Z-0.11
G01 F120
G01 X12.74 Y19.45 F120
G01 X12.75 Y19.40 F120
G01 X12.78 Y19.35 F120
G01 X12.81 Y19.31 F120
G01 X12.85 Y19.28 F120
G01 X12.90 Y19.25 F120
G01 X12.95 Y19.24 F120
G01 X13.02 Y19.23 F120
G01 X14.98 Y19.23 F120
G01 X15.05 Y19.24 F120
G01 X15.10 Y19.25 F120
G01 X15.15 Y19.28 F120
G01 X15.19 Y19.31 F120
G01 X15.22 Y19.35 F120
G01 X15.25 Y19.40 F120
G01 X15.26 Y19.45 F120
G01 X15.27 Y19.49 F120
G01 X15.27 Y19.52 F120
G01 X15.28 Y19.55 F120
G01 X15.29 Y19.58 F120
G01 X15.31 Y19.61 F120
G01 X15.32 Y19.64 F120
G01 X15.35 Y19.67 F120
G01 X15.37 Y19.70 F120
G01 X15.40 Y19.73 F120
G01 X15.42 Y19.75 F120
G01 X15.44 Y19.76 F120
G01 X15.46 Y19.77 F120
G01 X15.48 Y19.78 F120
G01 X15.63 Y19.86 F120
G01 X15.75 Y19.95 F120
G01 X15.76 Y19.97 F120
G01 X15.78 Y20.00 F120
G01 X18.60 Y22.82 F120
G01 X18.63 Y22.84 F120
G01 X18.65 Y22.85 F120
G01 X18.74 Y22.97 F120
G01 X18.81 Y23.10 F120
G01 X18.86 Y23.25 F120
G01 X18.87 Y23.40 F120
G01 X18.87 Y23.43 F120
G01 X18.87 Y23.46 F120
G01 X18.87 Y24.36 F120
G01 X18.87 Y24.40 F120
G01 X18.87 Y24.43 F120
G01 X18.88 Y24.45 F120
G01 X18.89 Y24.48 F120
G01 X18.90 Y24.51 F120
G01 X18.91 Y24.54 F120
G01 X18.93 Y24.56 F120
G01 X18.94 Y24.59 F120
G01 X18.96 Y24.61 F120
G01 X18.98 Y24.63 F120
G01 X19.01 Y24.65 F120
G01 X19.03 Y24.67 F120
G01 X19.06 Y24.69 F120
G01 X19.09 Y24.70 F120
G01 X19.13 Y24.72 F120
G01 X19.16 Y24.73 F120
G01 X19.19 Y24.73 F120
G01 X19.24 Y24.73 F120
G01 X19.98 Y24.73 F120
G01 X20.01 Y24.73 F120
G01 X20.05 Y24.73 F120
G01 X20.08 Y24.72 F120
G01 X20.11 Y24.71 F120
G01 X20.14 Y24.69 F120
G01 X20.16 Y24.68 F120
G01 X20.19 Y24.67 F120
G01 X20.21 Y24.65 F120
G01 X20.24 Y24.62 F120
G01 X20.26 Y24.60 F120
G01 X20.28 Y24.57 F120
G01 X20.30 Y24.54 F120
G01 X20.31 Y24.52 F120
G01 X20.32 Y24.49 F120
G01 X20.33 Y24.48 F120
G01 X20.33 Y24.46 F120
G01 X20.34 Y24.43 F120
G01 X20.34 Y24.40 F120
G01 X20.35 Y24.37 F120
G01 X20.34 Y24.33 F120
G01 X20.34 Y24.29 F120
G01 X20.33 Y24.26 F120
G01 X20.32 Y24.23 F120
G01 X20.30 Y24.20 F120
G01 X20.29 Y24.17 F120
G01 X20.28 Y24.15 F120
G01 X20.25 Y24.10 F120
G01 X20.24 Y24.05 F120
G01 X20.23 Y23.98 F120
G01 X20.23 Y22.02 F120
G01 X20.24 Y21.95 F120
G01 X20.25 Y21.90 F120
G01 X20.28 Y21.85 F120
G01 X20.31 Y21.81 F120
G01 X20.35 Y21.78 F120
G01 X20.43 Y21.73 F120
G01 X20.45 Y21.72 F120
G01 X20.47 Y21.70 F120
G01 X20.49 Y21.69 F120
G01 X20.51 Y21.67 F120
G01 X20.53 Y21.65 F120
G01 X20.55 Y21.63 F120
G01 X20.56 Y21.60 F120
G01 X20.57 Y21.58 F120
G01 X20.58 Y21.56 F120
G01 X20.59 Y21.53 F120
G01 X20.60 Y21.50 F120
G01 X20.61 Y21.48 F120
G01 X20.61 Y21.45 F120
G01 X20.61 Y21.42 F120
G01 X20.61 Y20.68 F120
G01 X20.61 Y20.64 F120
G01 X20.61 Y20.61 F120
G01 X20.60 Y20.57 F120
G01 X20.58 Y20.54 F120
G01 X20.57 Y20.50 F120
G01 X20.55 Y20.47 F120
G01 X20.53 Y20.44 F120
G01 X20.51 Y20.42 F120
G01 X20.40 Y20.31 F120
G01 X20.26 Y20.10 F120
G01 X20.16 Y19.87 F120
G01 X20.11 Y19.62 F120
G01 X20.11 Y19.38 F120
G01 X20.16 Y19.13 F120
G01 X20.26 Y18.90 F120
G01 X20.40 Y18.69 F120
G01 X20.57 Y18.52 F120
G01 X20.78 Y18.38 F120
G01 X21.01 Y18.28 F120
G01 X21.26 Y18.23 F120
G01 X21.50 Y18.23 F120
G01 X21.75 Y18.28 F120
G01 X21.98 Y18.38 F120
G01 X22.19 Y18.52 F120
G01 X22.36 Y18.69 F120
G01 X22.50 Y18.90 F120
G01 X22.60 Y19.13 F120
G01 X22.65 Y19.38 F120
G01 X22.65 Y19.62 F120
G01 X22.60 Y19.87 F120
G01 X22.50 Y20.10 F120
G01 X22.36 Y20.31 F120
G01 X22.25 Y20.42 F120
G01 X22.23 Y20.44 F120
G01 X22.21 Y20.47 F120
G01 X22.19 Y20.50 F120
G01 X22.18 Y20.53 F120
G01 X22.17 Y20.55 F120
G01 X22.16 Y20.58 F120
G01 X22.15 Y20.61 F120
G01 X22.15 Y20.63 F120
G01 X22.15 Y20.65 F120
G01 X22.15 Y20.68 F120
G01 X22.15 Y21.36 F120
G01 X22.15 Y21.40 F120
G01 X22.15 Y21.43 F120
G01 X22.16 Y21.46 F120
G01 X22.17 Y21.50 F120
G01 X22.19 Y21.53 F120
G01 X22.21 Y21.56 F120
G01 X22.23 Y21.59 F120
G01 X22.25 Y21.62 F120
G01 X22.28 Y21.64 F120
G01 X22.31 Y21.67 F120
G01 X22.34 Y21.68 F120
G01 X22.36 Y21.70 F120
G01 X22.39 Y21.71 F120
G01 X22.41 Y21.72 F120
G01 X22.44 Y21.72 F120
G01 X22.47 Y21.73 F120
G01 X22.55 Y21.74 F120
G01 X22.60 Y21.75 F120
G01 X22.65 Y21.78 F120
G01 X22.69 Y21.81 F120
G01 X22.72 Y21.85 F120
G01 X22.75 Y21.90 F120
G01 X22.76 Y21.95 F120
G01 X22.77 Y22.02 F120
G01 X22.77 Y23.98 F120
G01 X22.76 Y24.05 F120
G01 X22.75 Y24.10 F120
G01 X22.72 Y24.15 F120
G01 X22.69 Y24.19 F120
G01 X22.65 Y24.22 F120
G01 X22.63 Y24.23 F120
G01 X22.60 Y24.25 F120
G01 X22.57 Y24.28 F120
G01 X22.55 Y24.30 F120
G01 X22.53 Y24.32 F120
G01 X22.51 Y24.34 F120
G01 X22.50 Y24.36 F120
G01 X22.48 Y24.38 F120
G01 X22.47 Y24.40 F120
G01 X22.47 Y24.42 F120
G01 X22.46 Y24.45 F120
G01 X22.45 Y24.48 F120
G01 X22.45 Y24.50 F120
G01 X22.44 Y24.53 F120
G01 X22.44 Y24.56 F120
G01 X22.44 Y24.59 F120
G01 X22.45 Y24.63 F120
G01 X22.46 Y24.66 F120
G01 X22.47 Y24.70 F120
G01 X22.48 Y24.73 F120
G01 X22.50 Y24.75 F120
G01 X22.62 Y24.94 F120
G01 X22.72 Y25.17 F120
G01 X22.77 Y25.42 F120
G01 X22.77 Y25.66 F120
G01 X22.72 Y25.91 F120
G01 X22.62 Y26.14 F120
G01 X22.48 Y26.35 F120
G01 X22.31 Y26.52 F120
G01 X22.10 Y26.66 F120
G01 X21.87 Y26.76 F120
G01 X21.62 Y26.81 F120
G01 X21.38 Y26.81 F120
G01 X21.13 Y26.76 F120
G01 X20.90 Y26.66 F120
G01 X20.69 Y26.52 F120
G01 X20.54 Y26.37 F120
G01 X20.52 Y26.35 F120
G01 X20.49 Y26.33 F120
G01 X20.46 Y26.31 F120
G01 X20.43 Y26.30 F120
G01 X20.39 Y26.29 F120
G01 X20.36 Y26.28 F120
G01 X20.32 Y26.27 F120
G01 X20.28 Y26.27 F120
G01 X19.23 Y26.27 F120
G01 X19.20 Y26.27 F120
G01 X19.16 Y26.27 F120
G01 X19.13 Y26.28 F120
G01 X19.09 Y26.30 F120
G01 X19.06 Y26.31 F120
G01 X19.04 Y26.33 F120
G01 X19.02 Y26.34 F120
G01 X19.00 Y26.35 F120
G01 X18.98 Y26.37 F120
G01 X18.95 Y26.40 F120
G01 X18.93 Y26.44 F120
G01 X18.91 Y26.46 F120
G01 X18.91 Y26.47 F120
G01 X18.90 Y26.49 F120
G01 X18.89 Y26.52 F120
G01 X18.88 Y26.53 F120
G01 X18.88 Y26.56 F120
G01 X18.87 Y26.60 F120
G01 X18.87 Y26.64 F120
G01 X18.87 Y27.34 F120
G01 X18.87 Y27.37 F120
G01 X18.87 Y27.40 F120
G01 X18.86 Y27.55 F120
G01 X18.81 Y27.70 F120
G01 X18.74 Y27.83 F120
G01 X18.65 Y27.95 F120
G01 X18.63 Y27.96 F120
G01 X18.60 Y27.98 F120
G01 X17.08 Y29.50 F120
G01 X17.06 Y29.53 F120
G01 X17.05 Y29.55 F120
G01 X16.93 Y29.64 F120
G01 X16.80 Y29.71 F120
G01 X16.65 Y29.76 F120
G01 X16.50 Y29.77 F120
G01 X16.47 Y29.77 F120
G01 X16.44 Y29.77 F120
G01 X15.62 Y29.77 F120
G01 X15.59 Y29.77 F120
G01 X15.56 Y29.77 F120
G01 X15.54 Y29.78 F120
G01 X15.51 Y29.79 F120
G01 X15.48 Y29.80 F120
G01 X15.45 Y29.81 F120
G01 X15.44 Y29.82 F120
G01 X15.41 Y29.83 F120
G01 X15.39 Y29.85 F120
G01 X15.37 Y29.87 F120
G01 X15.35 Y29.89 F120
G01 X15.34 Y29.91 F120
G01 X15.32 Y29.93 F120
G01 X15.30 Y29.95 F120
G01 X15.30 Y29.97 F120
G01 X15.29 Y29.99 F120
G01 X15.27 Y30.02 F120
G01 X15.25 Y30.10 F120
G01 X15.22 Y30.15 F120
G01 X15.19 Y30.19 F120
G01 X15.15 Y30.22 F120
G01 X15.10 Y30.25 F120
G01 X15.05 Y30.26 F120
G01 X14.98 Y30.27 F120
G01 X13.02 Y30.27 F120
G01 X12.95 Y30.26 F120
G01 X12.90 Y30.25 F120
G01 X12.85 Y30.22 F120
G01 X12.81 Y30.19 F120
G01 X12.78 Y30.15 F120
G01 X12.75 Y30.10 F120
G01 X12.74 Y30.05 F120
G01 X12.73 Y29.98 F120
G01 X12.73 Y28.02 F120
G01 X12.74 Y27.95 F120
G01 X12.75 Y27.90 F120
G01 X12.78 Y27.85 F120
G01 X12.81 Y27.81 F120
G01 X12.85 Y27.78 F120
G01 X12.90 Y27.75 F120
G01 X12.95 Y27.74 F120
G01 X13.02 Y27.73 F120
G01 X14.98 Y27.73 F120
G01 X15.05 Y27.74 F120
G01 X15.10 Y27.75 F120
G01 X15.15 Y27.78 F120
G01 X15.19 Y27.81 F120
G01 X15.22 Y27.85 F120
G01 X15.25 Y27.90 F120
G01 X15.27 Y27.98 F120
G01 X15.28 Y28.01 F120
G01 X15.30 Y28.04 F120
G01 X15.32 Y28.07 F120
G01 X15.34 Y28.09 F120
G01 X15.35 Y28.11 F120
G01 X15.36 Y28.12 F120
G01 X15.39 Y28.14 F120
G01 X15.42 Y28.17 F120
G01 X15.44 Y28.19 F120
G01 X15.46 Y28.19 F120
G01 X15.49 Y28.21 F120
G01 X15.52 Y28.22 F120
G01 X15.56 Y28.23 F120
G01 X15.58 Y28.23 F120
G01 X15.60 Y28.23 F120
G01 X15.62 Y28.23 F120
G01 X16.03 Y28.23 F120
G01 X16.06 Y28.23 F120
G01 X16.08 Y28.23 F120
G01 X16.11 Y28.22 F120
G01 X16.14 Y28.22 F120
G01 X16.16 Y28.21 F120
G01 X16.19 Y28.19 F120
G01 X16.21 Y28.18 F120
G01 X16.24 Y28.17 F120
G01 X16.26 Y28.15 F120
G01 X16.28 Y28.13 F120
G01 X17.22 Y27.19 F120
G01 X17.25 Y27.16 F120
G01 X17.27 Y27.14 F120
G01 X17.28 Y27.12 F120
G01 X17.29 Y27.10 F120
G01 X17.30 Y27.07 F120
G01 X17.31 Y27.04 F120
G01 X17.32 Y27.01 F120
G01 X17.33 Y27.00 F120
G01 X17.33 Y26.97 F120
G01 X17.33 Y26.94 F120
G01 X17.33 Y25.56 F120
G01 X17.33 Y25.53 F120
G01 X17.33 Y25.50 F120
G01 X17.33 Y25.47 F120
G01 X17.33 Y25.44 F120
G01 X17.33 Y23.87 F120
G01 X17.33 Y23.83 F120
G01 X17.33 Y23.80 F120
G01 X17.32 Y23.76 F120
G01 X17.30 Y23.73 F120
G01 X17.29 Y23.70 F120
G01 X17.27 Y23.67 F120
G01 X17.25 Y23.64 F120
G01 X17.23 Y23.61 F120
G01 X15.46 Y21.84 F120
G01 X15.43 Y21.82 F120
G01 X15.41 Y21.80 F120
G01 X15.38 Y21.79 F120
G01 X15.36 Y21.77 F120
G01 X15.34 Y21.76 F120
G01 X15.32 Y21.76 F120
G01 X15.30 Y21.75 F120
G01 X15.28 Y21.74 F120
G01 X15.23 Y21.74 F120
G01 X15.20 Y21.74 F120
G01 X15.17 Y21.74 F120
G01 X15.14 Y21.74 F120
G01 X15.12 Y21.74 F120
G01 X15.10 Y21.75 F120
G01 X15.05 Y21.76 F120
G01 X14.98 Y21.77 F120
G01 X13.02 Y21.77 F120
G01 X12.95 Y21.76 F120
G01 X12.90 Y21.75 F120
G01 X12.85 Y21.72 F120
G01 X12.81 Y21.69 F120
G01 X12.78 Y21.65 F120
G01 X12.75 Y21.60 F120
G01 X12.74 Y21.55 F120
G01 X12.73 Y21.48 F120
G01 X12.73 Y19.52 F120
G00 Z2.00
G00 X13.55 Y23.16
G01 F30
G01 Z-0.11
G01 F120
G01 X13.52 Y23.13 F120
G01 X13.70 Y23.07 F120
G01 X13.95 Y23.04 F120
G01 X14.20 Y23.05 F120
G01 X14.44 Y23.12 F120
G01 X14.48 Y23.13 F120
G01 X14.45 Y23.16 F120
G01 X14.36 Y23.12 F120
G01 X14.24 Y23.09 F120
G01 X14.12 Y23.08 F120
G01 X14.01 Y23.07 F120
G01 X13.99 Y23.07 F120
G01 X13.88 Y23.08 F120
G01 X13.76 Y23.09 F120
G01 X13.64 Y23.12 F120
G01 X13.55 Y23.16 F120
G00 Z2.00
G00 X12.82 Y23.83
G01 F30
G01 Z-0.11
G01 F120
G01 X12.85 Y23.86 F120
G01 X12.81 Y23.95 F120
G01 X12.78 Y24.07 F120
G01 X12.77 Y24.19 F120
G01 X12.76 Y24.31 F120
G01 X12.77 Y24.43 F120
G01 X12.78 Y24.55 F120
G01 X12.81 Y24.67 F120
G01 X12.85 Y24.76 F120
G01 X12.82 Y24.79 F120
G01 X12.76 Y24.61 F120
G01 X12.73 Y24.36 F120
G01 X12.74 Y24.11 F120
G01 X12.81 Y23.87 F120
G01 X12.82 Y23.83 F120
G00 Z2.00
G00 X13.55 Y25.46
G01 F30
G01 Z-0.11
G01 F120
G01 X13.64 Y25.50 F120
G01 X13.76 Y25.53 F120
G01 X13.88 Y25.54 F120
G01 X13.99 Y25.55 F120
G01 X14.01 Y25.55 F120
G01 X14.12 Y25.54 F120
G01 X14.24 Y25.53 F120
G01 X14.36 Y25.50 F120
G01 X14.45 Y25.46 F120
G01 X14.48 Y25.49 F120
G01 X14.30 Y25.55 F120
G01 X14.05 Y25.58 F120
G01 X13.80 Y25.57 F120
G01 X13.56 Y25.50 F120
G01 X13.52 Y25.49 F120
G01 X13.55 Y25.46 F120
G00 Z2.00
G00 X15.15 Y23.86
G01 F30
G01 Z-0.11
G01 F120
G01 X15.18 Y23.83 F120
G01 X15.24 Y24.01 F120
G01 X15.27 Y24.26 F120
G01 X15.26 Y24.51 F120
G01 X15.19 Y24.75 F120
G01 X15.18 Y24.79 F120
G01 X15.15 Y24.76 F120
G01 X15.19 Y24.67 F120
G01 X15.22 Y24.55 F120
G01 X15.23 Y24.43 F120
G01 X15.24 Y24.32 F120
G01 X15.24 Y24.30 F120
G01 X15.23 Y24.19 F120
G01 X15.22 Y24.07 F120
G01 X15.19 Y23.95 F120
G01 X15.15 Y23.86 F120
G00 Z2.00
G00 X20.50 Y24.24
G01 F30
G01 Z-0.11
G01 F120
G01 X22.50 Y24.24 F120
G01 X22.52 Y24.24 F120
G01 X22.54 Y24.24 F120
G01 X22.56 Y24.23 F120
G01 X22.58 Y24.23 F120
G01 X22.60 Y24.22 F120
G01 X22.62 Y24.21 F120
G01 X22.63 Y24.20 F120
G01 X22.65 Y24.19 F120
G01 X22.66 Y24.18 F120
G01 X22.67 Y24.17 F120
G01 X22.69 Y24.15 F120
G01 X22.70 Y24.13 F120
G01 X22.71 Y24.12 F120
G01 X22.72 Y24.10 F120
G01 X22.72 Y24.09 F120
G01 X22.73 Y24.06 F120
G01 X22.74 Y24.05 F120
G01 X22.74 Y24.02 F120
G01 X22.74 Y24.00 F120
G01 X22.74 Y22.00 F120
G01 X22.74 Y21.97 F120
G01 X22.74 Y21.95 F120
G01 X22.73 Y21.94 F120
G01 X22.73 Y21.92 F120
G01 X22.72 Y21.90 F120
G01 X22.71 Y21.88 F120
G01 X22.69 Y21.85 F120
G01 X22.67 Y21.83 F120
G01 X22.66 Y21.82 F120
G01 X22.64 Y21.81 F120
G01 X22.62 Y21.79 F120
G01 X22.59 Y21.78 F120
G01 X22.56 Y21.77 F120
G01 X22.54 Y21.76 F120
G01 X22.51 Y21.76 F120
G01 X22.12 Y21.76 F120
G01 X22.12 Y20.49 F120
G01 X22.17 Y20.45 F120
G01 X22.25 Y20.38 F120
G01 X22.26 Y20.37 F120
G01 X22.33 Y20.30 F120
G01 X22.34 Y20.28 F120
G01 X22.41 Y20.19 F120
G01 X22.47 Y20.09 F120
G01 X22.48 Y20.07 F120
G01 X22.52 Y19.99 F120
G01 X22.53 Y19.97 F120
G01 X22.57 Y19.86 F120
G01 X22.59 Y19.75 F120
G01 X22.60 Y19.73 F120
G01 X22.61 Y19.62 F120
G01 X22.62 Y19.50 F120
G01 X22.61 Y19.39 F120
G01 X22.61 Y19.37 F120
G01 X22.60 Y19.26 F120
G01 X22.57 Y19.14 F120
G01 X22.53 Y19.04 F120
G01 X22.52 Y19.01 F120
G01 X22.47 Y18.92 F120
G01 X22.41 Y18.81 F120
G01 X22.35 Y18.72 F120
G01 X22.33 Y18.70 F120
G01 X22.26 Y18.62 F120
G01 X22.18 Y18.55 F120
G01 X22.16 Y18.53 F120
G01 X22.07 Y18.47 F120
G01 X21.96 Y18.41 F120
G01 X21.87 Y18.36 F120
G01 X21.84 Y18.35 F120
G01 X21.74 Y18.31 F120
G01 X21.62 Y18.28 F120
G01 X21.50 Y18.27 F120
G01 X21.38 Y18.26 F120
G01 X21.26 Y18.27 F120
G01 X21.14 Y18.28 F120
G01 X21.02 Y18.31 F120
G01 X20.91 Y18.35 F120
G01 X20.80 Y18.41 F120
G01 X20.69 Y18.47 F120
G01 X20.59 Y18.54 F120
G01 X20.50 Y18.62 F120
G01 X20.42 Y18.71 F120
G01 X20.35 Y18.81 F120
G01 X20.29 Y18.92 F120
G01 X20.23 Y19.03 F120
G01 X20.19 Y19.14 F120
G01 X20.16 Y19.26 F120
G01 X20.15 Y19.37 F120
G01 X20.15 Y19.39 F120
G01 X20.14 Y19.50 F120
G01 X20.15 Y19.62 F120
G01 X20.16 Y19.73 F120
G01 X20.17 Y19.75 F120
G01 X20.19 Y19.86 F120
G01 X20.23 Y19.97 F120
G01 X20.24 Y19.99 F120
G01 X20.28 Y20.07 F120
G01 X20.29 Y20.09 F120
G01 X20.35 Y20.19 F120
G01 X20.42 Y20.28 F120
G01 X20.43 Y20.30 F120
G01 X20.50 Y20.37 F120
G01 X20.51 Y20.38 F120
G01 X20.59 Y20.45 F120
G01 X20.64 Y20.49 F120
G01 X20.64 Y21.76 F120
G01 X20.50 Y21.76 F120
G01 X20.47 Y21.76 F120
G01 X20.45 Y21.77 F120
G01 X20.42 Y21.77 F120
G01 X20.40 Y21.78 F120
G01 X20.38 Y21.79 F120
G01 X20.35 Y21.81 F120
G01 X20.33 Y21.83 F120
G01 X20.31 Y21.85 F120
G01 X20.29 Y21.88 F120
G01 X20.28 Y21.90 F120
G01 X20.27 Y21.93 F120
G01 X20.26 Y21.96 F120
G01 X20.26 Y21.99 F120
G01 X20.26 Y24.00 F120
G01 X20.26 Y24.02 F120
G01 X20.26 Y24.05 F120
G01 X20.27 Y24.07 F120
G01 X20.28 Y24.09 F120
G01 X20.29 Y24.11 F120
G01 X20.30 Y24.13 F120
G01 X20.31 Y24.14 F120
G01 X20.32 Y24.16 F120
G01 X20.34 Y24.18 F120
G01 X20.36 Y24.19 F120
G01 X20.37 Y24.20 F120
G01 X20.39 Y24.21 F120
G01 X20.41 Y24.22 F120
G01 X20.44 Y24.23 F120
G01 X20.46 Y24.24 F120
G01 X20.48 Y24.24 F120
G01 X20.50 Y24.24 F120
G00 Z2.00
G00 X24.76 Y29.51
G01 F30
G01 Z-0.11
G01 F120
G01 X24.76 Y29.57 F120
G01 X24.77 Y29.64 F120
G01 X24.79 Y29.71 F120
G01 X24.82 Y29.78 F120
G01 X24.85 Y29.85 F120
G01 X24.88 Y29.91 F120
G01 X24.93 Y29.97 F120
G01 X24.97 Y30.01 F120
G01 X27.77 Y32.82 F120
G01 X27.77 Y32.88 F120
G01 X27.76 Y32.99 F120
G01 X27.76 Y33.01 F120
G01 X27.77 Y33.12 F120
G01 X27.77 Y33.13 F120
G01 X27.78 Y33.24 F120
G01 X27.81 Y33.35 F120
G01 X27.82 Y33.37 F120
G01 X27.85 Y33.47 F120
G01 X27.91 Y33.58 F120
G01 X27.97 Y33.69 F120
G01 X28.04 Y33.79 F120
G01 X28.12 Y33.88 F120
G01 X28.20 Y33.95 F120
G01 X28.22 Y33.97 F120
G01 X28.31 Y34.03 F120
G01 X28.42 Y34.09 F120
G01 X28.51 Y34.14 F120
G01 X28.54 Y34.15 F120
G01 X28.63 Y34.18 F120
G01 X28.65 Y34.19 F120
G01 X28.76 Y34.22 F120
G01 X28.87 Y34.23 F120
G01 X28.89 Y34.23 F120
G01 X29.00 Y34.24 F120
G01 X29.12 Y34.23 F120
G01 X29.23 Y34.22 F120
G01 X29.25 Y34.21 F120
G01 X29.35 Y34.19 F120
G01 X29.37 Y34.18 F120
G01 X29.47 Y34.15 F120
G01 X29.57 Y34.10 F120
G01 X29.59 Y34.09 F120
G01 X29.68 Y34.04 F120
G01 X29.69 Y34.03 F120
G01 X29.79 Y33.96 F120
G01 X29.87 Y33.88 F120
G01 X29.88 Y33.87 F120
G01 X29.95 Y33.79 F120
G01 X29.99 Y33.74 F120
G01 X32.50 Y33.74 F120
G01 X32.56 Y33.74 F120
G01 X32.58 Y33.74 F120
G01 X32.64 Y33.73 F120
G01 X32.71 Y33.71 F120
G01 X32.78 Y33.68 F120
G01 X32.85 Y33.65 F120
G01 X32.91 Y33.62 F120
G01 X32.97 Y33.58 F120
G01 X32.98 Y33.56 F120
G01 X33.02 Y33.52 F120
G01 X33.32 Y33.23 F120
G01 X33.38 Y33.23 F120
G01 X33.49 Y33.24 F120
G01 X33.51 Y33.24 F120
G01 X33.62 Y33.23 F120
G01 X33.73 Y33.22 F120
G01 X33.75 Y33.21 F120
G01 X33.86 Y33.19 F120
G01 X33.97 Y33.15 F120
G01 X34.08 Y33.09 F120
G01 X34.18 Y33.04 F120
G01 X34.19 Y33.03 F120
G01 X34.29 Y32.96 F120
G01 X34.38 Y32.88 F120
G01 X34.46 Y32.79 F120
G01 X34.52 Y32.70 F120
G01 X34.54 Y32.68 F120
G01 X34.59 Y32.59 F120
G01 X34.60 Y32.57 F120
G01 X34.65 Y32.47 F120
G01 X34.68 Y32.37 F120
G01 X34.69 Y32.35 F120
G01 X34.72 Y32.24 F120
G01 X34.73 Y32.13 F120
G01 X34.73 Y32.11 F120
G01 X34.74 Y32.00 F120
G01 X34.73 Y31.88 F120
G01 X34.72 Y31.77 F120
G01 X34.71 Y31.75 F120
G01 X34.69 Y31.65 F120
G01 X34.68 Y31.63 F120
G01 X34.65 Y31.53 F120
G01 X34.60 Y31.43 F120
G01 X34.59 Y31.41 F120
G01 X34.54 Y31.32 F120
G01 X34.53 Y31.31 F120
G01 X34.46 Y31.21 F120
G01 X34.38 Y31.13 F120
G01 X34.37 Y31.12 F120
G01 X34.29 Y31.05 F120
G01 X34.24 Y31.01 F120
G01 X34.24 Y27.49 F120
G01 X34.29 Y27.45 F120
G01 X34.37 Y27.38 F120
G01 X34.38 Y27.37 F120
G01 X34.45 Y27.30 F120
G01 X34.46 Y27.28 F120
G01 X34.52 Y27.20 F120
G01 X34.54 Y27.18 F120
G01 X34.59 Y27.08 F120
G01 X34.64 Y26.98 F120
G01 X34.65 Y26.96 F120
G01 X34.69 Y26.86 F120
G01 X34.71 Y26.75 F120
G01 X34.72 Y26.73 F120
G01 X34.73 Y26.62 F120
G01 X34.74 Y26.51 F120
G01 X34.74 Y26.49 F120
G01 X34.73 Y26.38 F120
G01 X34.72 Y26.26 F120
G01 X34.69 Y26.15 F120
G01 X34.68 Y26.13 F120
G01 X34.65 Y26.03 F120
G01 X34.60 Y25.93 F120
G01 X34.59 Y25.91 F120
G01 X34.53 Y25.81 F120
G01 X34.47 Y25.72 F120
G01 X34.45 Y25.70 F120
G01 X34.38 Y25.62 F120
G01 X34.30 Y25.55 F120
G01 X34.28 Y25.53 F120
G01 X34.19 Y25.47 F120
G01 X34.09 Y25.41 F120
G01 X34.07 Y25.40 F120
G01 X33.99 Y25.36 F120
G01 X33.97 Y25.35 F120
G01 X33.86 Y25.31 F120
G01 X33.74 Y25.28 F120
G01 X33.62 Y25.27 F120
G01 X33.51 Y25.26 F120
G01 X33.49 Y25.26 F120
G01 X33.39 Y25.27 F120
G01 X33.37 Y25.27 F120
G01 X33.26 Y25.28 F120
G01 X33.15 Y25.31 F120
G01 X33.13 Y25.32 F120
G01 X33.03 Y25.35 F120
G01 X32.93 Y25.40 F120
G01 X32.91 Y25.41 F120
G01 X32.81 Y25.47 F120
G01 X32.71 Y25.54 F120
G01 X32.62 Y25.62 F120
G01 X32.54 Y25.71 F120
G01 X32.47 Y25.81 F120
G01 X32.41 Y25.92 F120
G01 X32.35 Y26.03 F120
G01 X32.32 Y26.13 F120
G01 X32.31 Y26.15 F120
G01 X32.28 Y26.26 F120
G01 X32.27 Y26.37 F120
G01 X32.27 Y26.39 F120
G01 X32.26 Y26.50 F120
G01 X32.27 Y26.62 F120
G01 X32.28 Y26.73 F120
G01 X32.29 Y26.75 F120
G01 X32.31 Y26.85 F120
G01 X32.32 Y26.87 F120
G01 X32.35 Y26.97 F120
G01 X32.40 Y27.07 F120
G01 X32.41 Y27.09 F120
G01 X32.46 Y27.18 F120
G01 X32.47 Y27.19 F120
G01 X32.54 Y27.29 F120
G01 X32.62 Y27.37 F120
G01 X32.63 Y27.38 F120
G01 X32.71 Y27.45 F120
G01 X32.76 Y27.49 F120
G01 X32.76 Y31.01 F120
G01 X32.71 Y31.05 F120
G01 X32.63 Y31.12 F120
G01 X32.62 Y31.13 F120
G01 X32.55 Y31.20 F120
G01 X32.54 Y31.22 F120
G01 X32.48 Y31.30 F120
G01 X32.46 Y31.32 F120
G01 X32.41 Y31.42 F120
G01 X32.36 Y31.52 F120
G01 X32.35 Y31.54 F120
G01 X32.32 Y31.63 F120
G01 X32.31 Y31.65 F120
G01 X32.28 Y31.76 F120
G01 X32.27 Y31.87 F120
G01 X32.27 Y31.89 F120
G01 X32.26 Y31.99 F120
G01 X32.26 Y32.01 F120
G01 X32.27 Y32.12 F120
G01 X32.27 Y32.18 F120
G01 X32.19 Y32.26 F120
G01 X29.99 Y32.26 F120
G01 X29.95 Y32.21 F120
G01 X29.88 Y32.13 F120
G01 X29.87 Y32.12 F120
G01 X29.80 Y32.05 F120
G01 X29.78 Y32.04 F120
G01 X29.69 Y31.97 F120
G01 X29.59 Y31.91 F120
G01 X29.57 Y31.90 F120
G01 X29.47 Y31.85 F120
G01 X29.37 Y31.82 F120
G01 X29.35 Y31.81 F120
G01 X29.24 Y31.78 F120
G01 X29.13 Y31.77 F120
G01 X29.11 Y31.77 F120
G01 X29.01 Y31.76 F120
G01 X28.99 Y31.76 F120
G01 X28.88 Y31.77 F120
G01 X28.82 Y31.77 F120
G01 X26.24 Y29.19 F120
G01 X26.24 Y20.24 F120
G01 X28.01 Y20.24 F120
G01 X28.05 Y20.29 F120
G01 X28.12 Y20.37 F120
G01 X28.13 Y20.38 F120
G01 X28.20 Y20.45 F120
G01 X28.22 Y20.46 F120
G01 X28.31 Y20.53 F120
G01 X28.41 Y20.59 F120
G01 X28.43 Y20.60 F120
G01 X28.51 Y20.64 F120
G01 X28.53 Y20.65 F120
G01 X28.64 Y20.69 F120
G01 X28.75 Y20.71 F120
G01 X28.77 Y20.72 F120
G01 X28.88 Y20.73 F120
G01 X28.99 Y20.74 F120
G01 X29.01 Y20.74 F120
G01 X29.12 Y20.73 F120
G01 X29.23 Y20.72 F120
G01 X29.25 Y20.71 F120
G01 X29.35 Y20.69 F120
G01 X29.37 Y20.68 F120
G01 X29.47 Y20.65 F120
G01 X29.58 Y20.59 F120
G01 X29.69 Y20.53 F120
G01 X29.78 Y20.47 F120
G01 X29.80 Y20.45 F120
G01 X29.87 Y20.38 F120
G01 X29.88 Y20.37 F120
G01 X29.96 Y20.29 F120
G01 X30.03 Y20.19 F120
G01 X30.09 Y20.08 F120
G01 X30.14 Y19.99 F120
G01 X30.15 Y19.96 F120
G01 X30.18 Y19.87 F120
G01 X30.19 Y19.85 F120
G01 X30.22 Y19.74 F120
G01 X30.23 Y19.62 F120
G01 X30.24 Y19.50 F120
G01 X30.23 Y19.38 F120
G01 X30.22 Y19.26 F120
G01 X30.19 Y19.15 F120
G01 X30.18 Y19.13 F120
G01 X30.15 Y19.04 F120
G01 X30.14 Y19.01 F120
G01 X30.09 Y18.92 F120
G01 X30.04 Y18.82 F120
G01 X30.02 Y18.80 F120
G01 X29.96 Y18.71 F120
G01 X29.88 Y18.62 F120
G01 X29.79 Y18.54 F120
G01 X29.69 Y18.47 F120
G01 X29.58 Y18.41 F120
G01 X29.47 Y18.35 F120
G01 X29.36 Y18.31 F120
G01 X29.25 Y18.29 F120
G01 X29.23 Y18.28 F120
G01 X29.13 Y18.27 F120
G01 X29.11 Y18.27 F120
G01 X29.00 Y18.26 F120
G01 X28.88 Y18.27 F120
G01 X28.77 Y18.28 F120
G01 X28.75 Y18.29 F120
G01 X28.64 Y18.31 F120
G01 X28.53 Y18.35 F120
G01 X28.51 Y18.36 F120
G01 X28.43 Y18.40 F120
G01 X28.41 Y18.41 F120
G01 X28.31 Y18.47 F120
G01 X28.22 Y18.54 F120
G01 X28.20 Y18.55 F120
G01 X28.13 Y18.62 F120
G01 X28.12 Y18.63 F120
G01 X28.05 Y18.71 F120
G01 X28.01 Y18.76 F120
G01 X26.24 Y18.76 F120
G01 X26.24 Y9.31 F120
G01 X28.31 Y7.24 F120
G01 X28.51 Y7.24 F120
G01 X28.55 Y7.29 F120
G01 X28.62 Y7.37 F120
G01 X28.63 Y7.38 F120
G01 X28.70 Y7.45 F120
G01 X28.72 Y7.46 F120
G01 X28.81 Y7.53 F120
G01 X28.91 Y7.59 F120
G01 X28.93 Y7.60 F120
G01 X29.01 Y7.64 F120
G01 X29.03 Y7.65 F120
G01 X29.13 Y7.68 F120
G01 X29.15 Y7.69 F120
G01 X29.26 Y7.72 F120
G01 X29.37 Y7.73 F120
G01 X29.39 Y7.73 F120
G01 X29.50 Y7.74 F120
G01 X29.61 Y7.73 F120
G01 X29.63 Y7.73 F120
G01 X29.74 Y7.72 F120
G01 X29.85 Y7.69 F120
G01 X29.87 Y7.68 F120
G01 X29.96 Y7.65 F120
G01 X29.99 Y7.64 F120
G01 X30.08 Y7.59 F120
G01 X30.19 Y7.53 F120
G01 X30.29 Y7.46 F120
G01 X30.37 Y7.38 F120
G01 X30.38 Y7.37 F120
G01 X30.45 Y7.30 F120
G01 X30.47 Y7.28 F120
G01 X30.53 Y7.19 F120
G01 X30.59 Y7.08 F120
G01 X30.65 Y6.97 F120
G01 X30.68 Y6.87 F120
G01 X30.69 Y6.85 F120
G01 X30.72 Y6.74 F120
G01 X32.51 Y6.74 F120
G01 X32.55 Y6.79 F120
G01 X32.62 Y6.88 F120
G01 X32.71 Y6.95 F120
G01 X32.76 Y6.99 F120
G01 X32.76 Y8.25 F120
G01 X32.76 Y8.32 F120
G01 X32.77 Y8.38 F120
G01 X32.78 Y8.41 F120
G01 X32.79 Y8.46 F120
G01 X32.82 Y8.53 F120
G01 X32.84 Y8.59 F120
G01 X32.85 Y8.61 F120
G01 X32.88 Y8.66 F120
G01 X32.92 Y8.71 F120
G01 X32.94 Y8.73 F120
G01 X32.98 Y8.77 F120
G01 X37.48 Y13.27 F120
G01 X37.53 Y13.32 F120
G01 X37.58 Y13.36 F120
G01 X37.59 Y13.37 F120
G01 X37.64 Y13.40 F120
G01 X37.66 Y13.41 F120
G01 X37.72 Y13.43 F120
G01 X37.79 Y13.46 F120
G01 X37.86 Y13.48 F120
G01 X37.93 Y13.49 F120
G01 X38.00 Y13.49 F120
G01 X39.44 Y13.49 F120
G01 X41.06 Y15.11 F120
G01 X41.06 Y19.19 F120
G01 X41.03 Y19.22 F120
G01 X39.99 Y19.22 F120
G01 X39.95 Y19.17 F120
G01 X39.88 Y19.09 F120
G01 X39.87 Y19.08 F120
G01 X39.79 Y19.01 F120
G01 X39.78 Y18.99 F120
G01 X39.69 Y18.93 F120
G01 X39.59 Y18.87 F120
G01 X39.57 Y18.86 F120
G01 X39.47 Y18.81 F120
G01 X39.36 Y18.77 F120
G01 X39.24 Y18.74 F120
G01 X39.12 Y18.73 F120
G01 X39.00 Y18.72 F120
G01 X38.89 Y18.73 F120
G01 X38.87 Y18.73 F120
G01 X38.77 Y18.74 F120
G01 X38.75 Y18.75 F120
G01 X38.64 Y18.77 F120
G01 X38.53 Y18.81 F120
G01 X38.42 Y18.87 F120
G01 X38.32 Y18.92 F120
G01 X38.30 Y18.94 F120
G01 X38.21 Y19.00 F120
G01 X38.12 Y19.08 F120
G01 X38.04 Y19.17 F120
G01 X37.98 Y19.26 F120
G01 X37.96 Y19.28 F120
G01 X37.91 Y19.38 F120
G01 X37.86 Y19.47 F120
G01 X37.85 Y19.50 F120
G01 X37.82 Y19.59 F120
G01 X37.81 Y19.61 F120
G01 X37.78 Y19.72 F120
G01 X37.77 Y19.83 F120
G01 X37.77 Y19.85 F120
G01 X37.76 Y19.96 F120
G01 X37.77 Y20.07 F120
G01 X37.77 Y20.09 F120
G01 X37.78 Y20.19 F120
G01 X37.79 Y20.21 F120
G01 X37.81 Y20.32 F120
G01 X37.85 Y20.43 F120
G01 X37.91 Y20.54 F120
G01 X37.96 Y20.64 F120
G01 X37.98 Y20.66 F120
G01 X38.04 Y20.75 F120
G01 X38.12 Y20.83 F120
G01 X38.13 Y20.84 F120
G01 X38.21 Y20.91 F120
G01 X38.22 Y20.93 F120
G01 X38.31 Y20.99 F120
G01 X38.42 Y21.05 F120
G01 X38.53 Y21.11 F120
G01 X38.64 Y21.15 F120
G01 X38.76 Y21.18 F120
G01 X38.88 Y21.19 F120
G01 X39.00 Y21.20 F120
G01 X39.12 Y21.19 F120
G01 X39.13 Y21.19 F120
G01 X39.24 Y21.18 F120
G01 X39.36 Y21.15 F120
G01 X39.47 Y21.11 F120
G01 X39.57 Y21.06 F120
G01 X39.59 Y21.05 F120
G01 X39.69 Y20.99 F120
G01 X39.78 Y20.93 F120
G01 X39.79 Y20.91 F120
G01 X39.87 Y20.84 F120
G01 X39.88 Y20.83 F120
G01 X39.95 Y20.75 F120
G01 X39.99 Y20.70 F120
G01 X41.35 Y20.70 F120
G01 X41.41 Y20.70 F120
G01 X41.42 Y20.70 F120
G01 X41.48 Y20.69 F120
G01 X41.55 Y20.67 F120
G01 X41.57 Y20.66 F120
G01 X41.62 Y20.64 F120
G01 X41.68 Y20.62 F120
G01 X41.70 Y20.61 F120
G01 X41.75 Y20.58 F120
G01 X41.80 Y20.54 F120
G01 X41.81 Y20.53 F120
G01 X41.86 Y20.49 F120
G01 X42.32 Y20.02 F120
G01 X42.37 Y19.97 F120
G01 X42.38 Y19.96 F120
G01 X42.42 Y19.91 F120
G01 X42.45 Y19.86 F120
G01 X42.46 Y19.84 F120
G01 X42.49 Y19.78 F120
G01 X42.51 Y19.71 F120
G01 X42.53 Y19.64 F120
G01 X42.54 Y19.57 F120
G01 X42.54 Y19.50 F120
G01 X42.54 Y14.80 F120
G01 X42.54 Y14.74 F120
G01 X42.54 Y14.72 F120
G01 X42.53 Y14.66 F120
G01 X42.51 Y14.60 F120
G01 X42.50 Y14.57 F120
G01 X42.48 Y14.52 F120
G01 X42.46 Y14.46 F120
G01 X42.45 Y14.45 F120
G01 X42.42 Y14.39 F120
G01 X42.38 Y14.34 F120
G01 X42.36 Y14.32 F120
G01 X42.32 Y14.28 F120
G01 X40.27 Y12.23 F120
G01 X40.23 Y12.19 F120
G01 X40.21 Y12.17 F120
G01 X40.16 Y12.13 F120
G01 X40.11 Y12.10 F120
G01 X40.09 Y12.09 F120
G01 X40.03 Y12.07 F120
G01 X39.96 Y12.04 F120
G01 X39.89 Y12.02 F120
G01 X39.83 Y12.01 F120
G01 X39.81 Y12.01 F120
G01 X39.75 Y12.01 F120
G01 X38.31 Y12.01 F120
G01 X34.24 Y7.94 F120
G01 X34.24 Y6.99 F120
G01 X34.29 Y6.95 F120
G01 X34.37 Y6.88 F120
G01 X34.38 Y6.87 F120
G01 X34.45 Y6.80 F120
G01 X34.46 Y6.78 F120
G01 X34.52 Y6.70 F120
G01 X34.54 Y6.68 F120
G01 X34.59 Y6.58 F120
G01 X34.64 Y6.48 F120
G01 X34.65 Y6.46 F120
G01 X34.69 Y6.36 F120
G01 X34.71 Y6.25 F120
G01 X34.72 Y6.23 F120
G01 X34.73 Y6.12 F120
G01 X34.74 Y6.01 F120
G01 X34.74 Y5.99 F120
G01 X34.73 Y5.88 F120
G01 X34.72 Y5.76 F120
G01 X34.69 Y5.65 F120
G01 X34.68 Y5.63 F120
G01 X34.65 Y5.53 F120
G01 X34.60 Y5.43 F120
G01 X34.59 Y5.41 F120
G01 X34.53 Y5.31 F120
G01 X34.47 Y5.22 F120
G01 X34.45 Y5.20 F120
G01 X34.38 Y5.12 F120
G01 X34.30 Y5.05 F120
G01 X34.28 Y5.03 F120
G01 X34.19 Y4.97 F120
G01 X34.09 Y4.91 F120
G01 X34.07 Y4.90 F120
G01 X33.99 Y4.86 F120
G01 X33.97 Y4.85 F120
G01 X33.86 Y4.81 F120
G01 X33.75 Y4.79 F120
G01 X33.73 Y4.78 F120
G01 X33.63 Y4.77 F120
G01 X33.61 Y4.77 F120
G01 X33.50 Y4.76 F120
G01 X33.38 Y4.77 F120
G01 X33.26 Y4.78 F120
G01 X33.15 Y4.81 F120
G01 X33.13 Y4.82 F120
G01 X33.04 Y4.85 F120
G01 X33.01 Y4.86 F120
G01 X32.92 Y4.91 F120
G01 X32.82 Y4.96 F120
G01 X32.81 Y4.97 F120
G01 X32.71 Y5.04 F120
G01 X32.63 Y5.12 F120
G01 X32.62 Y5.13 F120
G01 X32.55 Y5.21 F120
G01 X32.51 Y5.26 F120
G01 X30.00 Y5.26 F120
G01 X29.93 Y5.26 F120
G01 X29.87 Y5.27 F120
G01 X29.84 Y5.28 F120
G01 X29.78 Y5.29 F120
G01 X29.74 Y5.28 F120
G01 X29.63 Y5.27 F120
G01 X29.61 Y5.27 F120
G01 X29.50 Y5.26 F120
G01 X29.38 Y5.27 F120
G01 X29.27 Y5.28 F120
G01 X29.25 Y5.29 F120
G01 X29.14 Y5.31 F120
G01 X29.03 Y5.35 F120
G01 X28.92 Y5.41 F120
G01 X28.82 Y5.47 F120
G01 X28.80 Y5.48 F120
G01 X28.71 Y5.54 F120
G01 X28.63 Y5.62 F120
G01 X28.62 Y5.63 F120
G01 X28.55 Y5.71 F120
G01 X28.51 Y5.76 F120
G01 X28.00 Y5.76 F120
G01 X27.93 Y5.76 F120
G01 X27.87 Y5.77 F120
G01 X27.84 Y5.78 F120
G01 X27.79 Y5.79 F120
G01 X27.72 Y5.82 F120
G01 X27.65 Y5.85 F120
G01 X27.59 Y5.88 F120
G01 X27.53 Y5.93 F120
G01 X27.48 Y5.97 F120
G01 X24.98 Y8.48 F120
G01 X24.93 Y8.53 F120
G01 X24.88 Y8.59 F120
G01 X24.85 Y8.65 F120
G01 X24.82 Y8.71 F120
G01 X24.81 Y8.72 F120
G01 X24.79 Y8.79 F120
G01 X24.77 Y8.86 F120
G01 X24.76 Y8.93 F120
G01 X24.76 Y9.00 F120
G01 X24.76 Y29.51 F120
G00 Z2.00
G00 X27.98 Y26.03
G01 F30
G01 Z-0.11
G01 F120
G01 X28.03 Y26.12 F120
G01 X28.09 Y26.23 F120
G01 X28.16 Y26.33 F120
G01 X28.24 Y26.41 F120
G01 X28.25 Y26.42 F120
G01 X28.33 Y26.50 F120
G01 X28.43 Y26.57 F120
G01 X28.54 Y26.63 F120
G01 X28.63 Y26.68 F120
G01 X28.63 Y26.70 F120
G01 X28.59 Y26.69 F120
G01 X28.38 Y26.56 F120
G01 X28.19 Y26.40 F120
G01 X28.04 Y26.20 F120
G01 X27.96 Y26.03 F120
G01 X27.98 Y26.03 F120
G00 Z2.00
G00 X29.61 Y26.68
G01 F30
G01 Z-0.11
G01 F120
G01 X29.70 Y26.63 F120
G01 X29.81 Y26.57 F120
G01 X29.91 Y26.50 F120
G01 X29.99 Y26.42 F120
G01 X30.00 Y26.41 F120
G01 X30.08 Y26.33 F120
G01 X30.15 Y26.23 F120
G01 X30.21 Y26.12 F120
G01 X30.26 Y26.03 F120
G01 X30.28 Y26.03 F120
G01 X30.20 Y26.20 F120
G01 X30.05 Y26.40 F120
G01 X29.86 Y26.56 F120
G01 X29.65 Y26.69 F120
G01 X29.61 Y26.70 F120
G01 X29.61 Y26.68 F120
G00 Z2.00
G00 X29.13 Y24.24
G01 F30
G01 Z-0.11
G01 F120
G01 X29.23 Y24.23 F120
G01 X29.25 Y24.23 F120
G01 X29.36 Y24.22 F120
G01 X29.47 Y24.19 F120
G01 X29.49 Y24.18 F120
G01 X29.59 Y24.15 F120
G01 X29.70 Y24.10 F120
G01 X29.71 Y24.09 F120
G01 X29.81 Y24.03 F120
G01 X29.90 Y23.97 F120
G01 X29.91 Y23.95 F120
G01 X29.99 Y23.88 F120
G01 X30.00 Y23.87 F120
G01 X30.07 Y23.79 F120
G01 X30.11 Y23.74 F120
G01 X34.26 Y23.74 F120
G01 X34.32 Y23.74 F120
G01 X34.33 Y23.74 F120
G01 X34.39 Y23.73 F120
G01 X34.45 Y23.71 F120
G01 X34.48 Y23.70 F120
G01 X34.53 Y23.68 F120
G01 X34.59 Y23.66 F120
G01 X34.60 Y23.65 F120
G01 X36.52 Y25.56 F120
G01 X36.57 Y25.61 F120
G01 X36.62 Y25.65 F120
G01 X36.64 Y25.66 F120
G01 X36.69 Y25.69 F120
G01 X36.70 Y25.70 F120
G01 X36.76 Y25.72 F120
G01 X36.81 Y25.74 F120
G01 X36.84 Y25.75 F120
G01 X36.90 Y25.77 F120
G01 X36.97 Y25.78 F120
G01 X37.04 Y25.78 F120
G01 X38.01 Y25.78 F120
G01 X38.05 Y25.83 F120
G01 X38.12 Y25.91 F120
G01 X38.13 Y25.92 F120
G01 X38.21 Y25.99 F120
G01 X38.22 Y26.01 F120
G01 X38.31 Y26.07 F120
G01 X38.41 Y26.13 F120
G01 X38.43 Y26.14 F120
G01 X38.53 Y26.19 F120
G01 X38.64 Y26.23 F120
G01 X38.76 Y26.26 F120
G01 X38.87 Y26.27 F120
G01 X38.88 Y26.27 F120
G01 X39.00 Y26.28 F120
G01 X39.12 Y26.27 F120
G01 X39.24 Y26.26 F120
G01 X39.36 Y26.23 F120
G01 X39.47 Y26.19 F120
G01 X39.58 Y26.13 F120
G01 X39.69 Y26.07 F120
G01 X39.79 Y26.00 F120
G01 X39.88 Y25.92 F120
G01 X39.96 Y25.83 F120
G01 X40.03 Y25.73 F120
G01 X40.09 Y25.62 F120
G01 X40.15 Y25.51 F120
G01 X40.19 Y25.40 F120
G01 X40.22 Y25.28 F120
G01 X40.23 Y25.17 F120
G01 X40.23 Y25.16 F120
G01 X40.24 Y25.04 F120
G01 X40.23 Y24.92 F120
G01 X40.22 Y24.80 F120
G01 X40.19 Y24.69 F120
G01 X40.18 Y24.67 F120
G01 X40.15 Y24.58 F120
G01 X40.14 Y24.55 F120
G01 X40.09 Y24.46 F120
G01 X40.03 Y24.35 F120
G01 X39.96 Y24.25 F120
G01 X39.88 Y24.17 F120
G01 X39.87 Y24.16 F120
G01 X39.80 Y24.09 F120
G01 X39.78 Y24.07 F120
G01 X39.69 Y24.01 F120
G01 X39.58 Y23.95 F120
G01 X39.47 Y23.89 F120
G01 X39.36 Y23.85 F120
G01 X39.25 Y23.83 F120
G01 X39.23 Y23.82 F120
G01 X39.12 Y23.81 F120
G01 X39.01 Y23.80 F120
G01 X38.99 Y23.80 F120
G01 X38.88 Y23.81 F120
G01 X38.77 Y23.82 F120
G01 X38.75 Y23.83 F120
G01 X38.64 Y23.85 F120
G01 X38.53 Y23.89 F120
G01 X38.42 Y23.95 F120
G01 X38.32 Y24.01 F120
G01 X38.30 Y24.02 F120
G01 X38.21 Y24.08 F120
G01 X38.13 Y24.16 F120
G01 X38.12 Y24.17 F120
G01 X38.05 Y24.25 F120
G01 X38.01 Y24.30 F120
G01 X37.35 Y24.30 F120
G01 X34.24 Y21.19 F120
G01 X34.24 Y19.87 F120
G01 X34.29 Y19.83 F120
G01 X34.37 Y19.76 F120
G01 X34.38 Y19.75 F120
G01 X34.45 Y19.68 F120
G01 X34.46 Y19.66 F120
G01 X34.53 Y19.57 F120
G01 X34.59 Y19.47 F120
G01 X34.60 Y19.45 F120
G01 X34.64 Y19.37 F120
G01 X34.65 Y19.35 F120
G01 X34.69 Y19.24 F120
G01 X34.71 Y19.13 F120
G01 X34.72 Y19.11 F120
G01 X34.73 Y19.00 F120
G01 X34.74 Y18.89 F120
G01 X34.74 Y18.87 F120
G01 X34.73 Y18.76 F120
G01 X34.72 Y18.64 F120
G01 X34.71 Y18.63 F120
G01 X34.69 Y18.52 F120
G01 X34.65 Y18.42 F120
G01 X34.64 Y18.39 F120
G01 X34.60 Y18.31 F120
G01 X34.59 Y18.29 F120
G01 X34.53 Y18.19 F120
G01 X34.46 Y18.09 F120
G01 X34.38 Y18.00 F120
G01 X34.30 Y17.93 F120
G01 X34.28 Y17.91 F120
G01 X34.20 Y17.86 F120
G01 X34.18 Y17.84 F120
G01 X34.08 Y17.79 F120
G01 X33.97 Y17.73 F120
G01 X33.86 Y17.69 F120
G01 X33.75 Y17.67 F120
G01 X33.73 Y17.66 F120
G01 X33.63 Y17.65 F120
G01 X33.62 Y17.65 F120
G01 X33.50 Y17.64 F120
G01 X33.38 Y17.65 F120
G01 X33.26 Y17.66 F120
G01 X33.14 Y17.69 F120
G01 X33.03 Y17.73 F120
G01 X32.92 Y17.79 F120
G01 X32.81 Y17.85 F120
G01 X32.71 Y17.92 F120
G01 X32.62 Y18.00 F120
G01 X32.54 Y18.09 F120
G01 X32.47 Y18.19 F120
G01 X32.41 Y18.30 F120
G01 X32.35 Y18.41 F120
G01 X32.31 Y18.52 F120
G01 X32.28 Y18.64 F120
G01 X32.27 Y18.76 F120
G01 X32.26 Y18.87 F120
G01 X32.26 Y18.89 F120
G01 X32.27 Y19.00 F120
G01 X32.28 Y19.11 F120
G01 X32.29 Y19.13 F120
G01 X32.31 Y19.24 F120
G01 X32.35 Y19.34 F120
G01 X32.36 Y19.36 F120
G01 X32.41 Y19.46 F120
G01 X32.46 Y19.56 F120
G01 X32.48 Y19.58 F120
G01 X32.54 Y19.66 F120
G01 X32.55 Y19.68 F120
G01 X32.62 Y19.75 F120
G01 X32.63 Y19.76 F120
G01 X32.71 Y19.83 F120
G01 X32.76 Y19.87 F120
G01 X32.76 Y21.51 F120
G01 X32.76 Y21.57 F120
G01 X32.76 Y21.58 F120
G01 X32.77 Y21.64 F120
G01 X32.79 Y21.71 F120
G01 X32.80 Y21.73 F120
G01 X32.82 Y21.78 F120
G01 X32.85 Y21.85 F120
G01 X32.88 Y21.91 F120
G01 X32.92 Y21.97 F120
G01 X32.94 Y21.98 F120
G01 X32.98 Y22.02 F120
G01 X33.21 Y22.26 F120
G01 X30.11 Y22.26 F120
G01 X30.07 Y22.21 F120
G01 X30.00 Y22.13 F120
G01 X29.99 Y22.12 F120
G01 X29.91 Y22.04 F120
G01 X29.82 Y21.98 F120
G01 X29.80 Y21.97 F120
G01 X29.70 Y21.91 F120
G01 X29.59 Y21.85 F120
G01 X29.48 Y21.81 F120
G01 X29.37 Y21.79 F120
G01 X29.35 Y21.78 F120
G01 X29.24 Y21.77 F120
G01 X29.13 Y21.76 F120
G01 X29.11 Y21.76 F120
G01 X29.01 Y21.77 F120
G01 X28.99 Y21.77 F120
G01 X28.88 Y21.78 F120
G01 X28.76 Y21.81 F120
G01 X28.65 Y21.85 F120
G01 X28.55 Y21.90 F120
G01 X28.53 Y21.91 F120
G01 X28.43 Y21.97 F120
G01 X28.34 Y22.03 F120
G01 X28.32 Y22.05 F120
G01 X28.25 Y22.12 F120
G01 X28.24 Y22.13 F120
G01 X28.16 Y22.21 F120
G01 X28.09 Y22.31 F120
G01 X28.03 Y22.42 F120
G01 X27.98 Y22.51 F120
G01 X27.97 Y22.54 F120
G01 X27.94 Y22.63 F120
G01 X27.93 Y22.65 F120
G01 X27.90 Y22.76 F120
G01 X27.89 Y22.88 F120
G01 X27.88 Y23.00 F120
G01 X27.89 Y23.11 F120
G01 X27.89 Y23.13 F120
G01 X27.90 Y23.23 F120
G01 X27.91 Y23.25 F120
G01 X27.93 Y23.36 F120
G01 X27.97 Y23.47 F120
G01 X28.03 Y23.58 F120
G01 X28.08 Y23.68 F120
G01 X28.10 Y23.70 F120
G01 X28.15 Y23.78 F120
G01 X28.17 Y23.80 F120
G01 X28.24 Y23.88 F120
G01 X28.33 Y23.96 F120
G01 X28.43 Y24.03 F120
G01 X28.54 Y24.09 F120
G01 X28.65 Y24.15 F120
G01 X28.75 Y24.18 F120
G01 X28.77 Y24.19 F120
G01 X28.88 Y24.22 F120
G01 X28.99 Y24.23 F120
G01 X29.01 Y24.23 F120
G01 X29.11 Y24.24 F120
G01 X29.13 Y24.24 F120
G00 Z2.00
G00 X30.11 Y13.68
G01 F30
G01 Z-0.11
G01 F120
G01 X30.20 Y13.63 F120
G01 X30.31 Y13.57 F120
G01 X30.41 Y13.50 F120
G01 X30.49 Y13.42 F120
G01 X30.50 Y13.41 F120
G01 X30.58 Y13.33 F120
G01 X30.65 Y13.23 F120
G01 X30.71 Y13.12 F120
G01 X30.76 Y13.03 F120
G01 X30.78 Y13.03 F120
G01 X30.70 Y13.20 F120
G01 X30.55 Y13.40 F120
G01 X30.36 Y13.56 F120
G01 X30.15 Y13.69 F120
G01 X30.11 Y13.70 F120
G01 X30.11 Y13.68 F120
G00 Z2.00
G00 X28.48 Y13.03
G01 F30
G01 Z-0.11
G01 F120
G01 X28.53 Y13.12 F120
G01 X28.59 Y13.23 F120
G01 X28.66 Y13.33 F120
G01 X28.74 Y13.41 F120
G01 X28.75 Y13.42 F120
G01 X28.83 Y13.50 F120
G01 X28.93 Y13.57 F120
G01 X29.04 Y13.63 F120
G01 X29.13 Y13.68 F120
G01 X29.13 Y13.70 F120
G01 X29.09 Y13.69 F120
G01 X28.88 Y13.56 F120
G01 X28.69 Y13.40 F120
G01 X28.54 Y13.20 F120
G01 X28.46 Y13.03 F120
G01 X28.48 Y13.03 F120
G00 Z2.00
G00 X29.63 Y11.24
G01 F30
G01 Z-0.11
G01 F120
G01 X29.73 Y11.23 F120
G01 X29.75 Y11.23 F120
G01 X29.86 Y11.22 F120
G01 X29.97 Y11.19 F120
G01 X29.99 Y11.18 F120
G01 X30.09 Y11.15 F120
G01 X30.20 Y11.10 F120
G01 X30.21 Y11.09 F120
G01 X30.31 Y11.03 F120
G01 X30.40 Y10.97 F120
G01 X30.41 Y10.95 F120
G01 X30.49 Y10.88 F120
G01 X30.50 Y10.87 F120
G01 X30.57 Y10.79 F120
G01 X30.61 Y10.74 F120
G01 X31.19 Y10.74 F120
G01 X32.76 Y12.31 F120
G01 X32.76 Y12.63 F120
G01 X32.71 Y12.67 F120
G01 X32.63 Y12.74 F120
G01 X32.62 Y12.75 F120
G01 X32.54 Y12.83 F120
G01 X32.48 Y12.92 F120
G01 X32.47 Y12.94 F120
G01 X32.41 Y13.04 F120
G01 X32.35 Y13.15 F120
G01 X32.31 Y13.26 F120
G01 X32.29 Y13.37 F120
G01 X32.28 Y13.38 F120
G01 X32.27 Y13.50 F120
G01 X32.26 Y13.62 F120
G01 X32.27 Y13.74 F120
G01 X32.28 Y13.85 F120
G01 X32.29 Y13.87 F120
G01 X32.31 Y13.97 F120
G01 X32.32 Y13.99 F120
G01 X32.35 Y14.09 F120
G01 X32.40 Y14.19 F120
G01 X32.41 Y14.21 F120
G01 X32.47 Y14.31 F120
G01 X32.53 Y14.40 F120
G01 X32.55 Y14.42 F120
G01 X32.62 Y14.50 F120
G01 X32.71 Y14.58 F120
G01 X32.80 Y14.64 F120
G01 X32.82 Y14.66 F120
G01 X32.91 Y14.71 F120
G01 X32.92 Y14.72 F120
G01 X33.03 Y14.77 F120
G01 X33.13 Y14.80 F120
G01 X33.15 Y14.81 F120
G01 X33.25 Y14.83 F120
G01 X33.26 Y14.84 F120
G01 X33.38 Y14.85 F120
G01 X33.49 Y14.86 F120
G01 X33.51 Y14.86 F120
G01 X33.62 Y14.85 F120
G01 X33.68 Y14.85 F120
G01 X34.76 Y15.93 F120
G01 X34.76 Y20.01 F120
G01 X34.76 Y20.07 F120
G01 X34.77 Y20.14 F120
G01 X34.79 Y20.21 F120
G01 X34.81 Y20.27 F120
G01 X34.82 Y20.29 F120
G01 X34.84 Y20.34 F120
G01 X34.85 Y20.36 F120
G01 X34.88 Y20.41 F120
G01 X34.93 Y20.47 F120
G01 X34.98 Y20.52 F120
G01 X37.48 Y23.02 F120
G01 X37.53 Y23.07 F120
G01 X37.58 Y23.11 F120
G01 X37.60 Y23.12 F120
G01 X37.65 Y23.15 F120
G01 X37.71 Y23.18 F120
G01 X37.73 Y23.19 F120
G01 X37.79 Y23.21 F120
G01 X37.86 Y23.23 F120
G01 X37.92 Y23.24 F120
G01 X37.94 Y23.24 F120
G01 X38.01 Y23.24 F120
G01 X38.05 Y23.29 F120
G01 X38.12 Y23.37 F120
G01 X38.13 Y23.38 F120
G01 X38.21 Y23.46 F120
G01 X38.30 Y23.52 F120
G01 X38.32 Y23.53 F120
G01 X38.42 Y23.59 F120
G01 X38.53 Y23.65 F120
G01 X38.64 Y23.69 F120
G01 X38.75 Y23.71 F120
G01 X38.77 Y23.72 F120
G01 X38.87 Y23.73 F120
G01 X38.89 Y23.73 F120
G01 X39.00 Y23.74 F120
G01 X39.11 Y23.73 F120
G01 X39.13 Y23.73 F120
G01 X39.24 Y23.72 F120
G01 X39.35 Y23.69 F120
G01 X39.37 Y23.68 F120
G01 X39.47 Y23.65 F120
G01 X39.58 Y23.59 F120
G01 X39.69 Y23.53 F120
G01 X39.79 Y23.46 F120
G01 X39.88 Y23.38 F120
G01 X39.96 Y23.29 F120
G01 X40.03 Y23.19 F120
G01 X40.09 Y23.08 F120
G01 X40.15 Y22.97 F120
G01 X40.19 Y22.86 F120
G01 X40.22 Y22.74 F120
G01 X40.23 Y22.63 F120
G01 X40.23 Y22.61 F120
G01 X40.24 Y22.50 F120
G01 X40.23 Y22.39 F120
G01 X40.23 Y22.37 F120
G01 X40.22 Y22.26 F120
G01 X40.19 Y22.15 F120
G01 X40.18 Y22.13 F120
G01 X40.15 Y22.04 F120
G01 X40.14 Y22.01 F120
G01 X40.09 Y21.92 F120
G01 X40.03 Y21.81 F120
G01 X39.96 Y21.71 F120
G01 X39.88 Y21.63 F120
G01 X39.87 Y21.62 F120
G01 X39.79 Y21.54 F120
G01 X39.69 Y21.47 F120
G01 X39.58 Y21.41 F120
G01 X39.47 Y21.35 F120
G01 X39.36 Y21.31 F120
G01 X39.24 Y21.28 F120
G01 X39.12 Y21.27 F120
G01 X39.01 Y21.26 F120
G01 X38.99 Y21.26 F120
G01 X38.88 Y21.27 F120
G01 X38.76 Y21.28 F120
G01 X38.64 Y21.31 F120
G01 X38.53 Y21.35 F120
G01 X38.51 Y21.36 F120
G01 X38.42 Y21.41 F120
G01 X38.32 Y21.47 F120
G01 X38.30 Y21.48 F120
G01 X38.21 Y21.54 F120
G01 X38.15 Y21.60 F120
G01 X36.24 Y19.69 F120
G01 X36.24 Y15.62 F120
G01 X36.24 Y15.56 F120
G01 X36.24 Y15.54 F120
G01 X36.23 Y15.48 F120
G01 X36.21 Y15.41 F120
G01 X36.20 Y15.39 F120
G01 X36.18 Y15.34 F120
G01 X36.16 Y15.28 F120
G01 X36.15 Y15.26 F120
G01 X36.12 Y15.21 F120
G01 X36.08 Y15.16 F120
G01 X36.07 Y15.15 F120
G01 X36.03 Y15.11 F120
G01 X34.73 Y13.80 F120
G01 X34.73 Y13.74 F120
G01 X34.74 Y13.63 F120
G01 X34.74 Y13.61 F120
G01 X34.73 Y13.51 F120
G01 X34.73 Y13.49 F120
G01 X34.72 Y13.38 F120
G01 X34.69 Y13.27 F120
G01 X34.68 Y13.25 F120
G01 X34.65 Y13.15 F120
G01 X34.60 Y13.05 F120
G01 X34.59 Y13.03 F120
G01 X34.53 Y12.93 F120
G01 X34.46 Y12.84 F120
G01 X34.45 Y12.82 F120
G01 X34.38 Y12.75 F120
G01 X34.37 Y12.74 F120
G01 X34.29 Y12.67 F120
G01 X34.24 Y12.63 F120
G01 X34.24 Y11.99 F120
G01 X34.24 Y11.93 F120
G01 X34.23 Y11.87 F120
G01 X34.22 Y11.84 F120
G01 X34.21 Y11.79 F120
G01 X34.19 Y11.73 F120
G01 X34.18 Y11.71 F120
G01 X34.15 Y11.65 F120
G01 X34.12 Y11.60 F120
G01 X34.11 Y11.58 F120
G01 X34.07 Y11.53 F120
G01 X34.02 Y11.48 F120
G01 X32.02 Y9.48 F120
G01 X31.97 Y9.43 F120
G01 X31.92 Y9.39 F120
G01 X31.91 Y9.38 F120
G01 X31.85 Y9.35 F120
G01 X31.84 Y9.34 F120
G01 X31.78 Y9.32 F120
G01 X31.73 Y9.30 F120
G01 X31.70 Y9.29 F120
G01 X31.64 Y9.27 F120
G01 X31.57 Y9.26 F120
G01 X31.50 Y9.26 F120
G01 X30.61 Y9.26 F120
G01 X30.57 Y9.21 F120
G01 X30.50 Y9.13 F120
G01 X30.49 Y9.12 F120
G01 X30.41 Y9.05 F120
G01 X30.40 Y9.03 F120
G01 X30.31 Y8.97 F120
G01 X30.21 Y8.91 F120
G01 X30.20 Y8.90 F120
G01 X30.11 Y8.86 F120
G01 X30.08 Y8.85 F120
G01 X29.98 Y8.81 F120
G01 X29.87 Y8.79 F120
G01 X29.85 Y8.78 F120
G01 X29.74 Y8.77 F120
G01 X29.62 Y8.76 F120
G01 X29.50 Y8.77 F120
G01 X29.38 Y8.78 F120
G01 X29.26 Y8.81 F120
G01 X29.15 Y8.85 F120
G01 X29.04 Y8.91 F120
G01 X28.93 Y8.97 F120
G01 X28.83 Y9.04 F120
G01 X28.74 Y9.12 F120
G01 X28.66 Y9.21 F120
G01 X28.59 Y9.31 F120
G01 X28.53 Y9.42 F120
G01 X28.47 Y9.53 F120
G01 X28.43 Y9.64 F120
G01 X28.40 Y9.76 F120
G01 X28.39 Y9.88 F120
G01 X28.38 Y10.00 F120
G01 X28.39 Y10.12 F120
G01 X28.40 Y10.24 F120
G01 X28.43 Y10.36 F120
G01 X28.47 Y10.47 F120
G01 X28.53 Y10.58 F120
G01 X28.59 Y10.69 F120
G01 X28.66 Y10.79 F120
G01 X28.74 Y10.88 F120
G01 X28.83 Y10.96 F120
G01 X28.93 Y11.03 F120
G01 X29.04 Y11.09 F120
G01 X29.15 Y11.15 F120
G01 X29.26 Y11.19 F120
G01 X29.38 Y11.22 F120
G01 X29.50 Y11.23 F120
G01 X29.61 Y11.24 F120
G01 X29.63 Y11.24 F120
G00 Z2.00
G00 X21.00 Y11.24
G01 F30
G01 Z-0.11
G01 F120
G01 X23.00 Y11.24 F120
G01 X23.02 Y11.24 F120
G01 X23.05 Y11.24 F120
G01 X23.06 Y11.23 F120
G01 X23.08 Y11.23 F120
G01 X23.10 Y11.22 F120
G01 X23.11 Y11.21 F120
G01 X23.13 Y11.20 F120
G01 X23.15 Y11.19 F120
G01 X23.16 Y11.18 F120
G01 X23.18 Y11.16 F120
G01 X23.19 Y11.15 F120
G01 X23.20 Y11.13 F120
G01 X23.21 Y11.12 F120
G01 X23.22 Y11.10 F120
G01 X23.22 Y11.09 F120
G01 X23.23 Y11.06 F120
G01 X23.24 Y11.05 F120
G01 X23.24 Y11.02 F120
