(G-CODE GENERATED BY FLATCAM v8.994 - www.flatcam.org - Version Date: 2020/11/7)

(Name: SimpleGRBLEndSwich-NPTH.drl_cnc)
(Type: G-code from Geometry)
(Units: MM)

(Created on Friday, 14 January 2022 at 09:17)

(This preprocessor is used with a motion controller loaded with GRBL firmware.)
(It is configured to be compatible with almost any version of GRBL firmware.)


(TOOLS DIAMETER: )
(Tool: 1 -> Dia: 3.2)

(FEEDRATE Z: )
(Tool: 1 -> Feedrate: 150.0)

(FEEDRATE RAPIDS: )
(Tool: 1 -> Feedrate Rapids: 1500)

(Z_CUT: )
(Tool: 1 -> Z_Cut: -1.8)

(Tools Offset: )
(Tool: 1 -> Offset Z: 0.0)

(Z_MOVE: )
(Tool: 1 -> Z_Move: 2)

(Z Toolchange: 15 mm)
(X,Y Toolchange: 0.00, 0.00 mm)
(Z Start: None mm)
(Z End: 0.5 mm)
(X,Y End: None mm)
(Steps per circle: 64)
(Steps per circle: 64)
(Preprocessor Excellon: GRBL_11_no_M6)

(X range:      2.40 ...     40.60  mm)
(Y range:      2.40 ...     42.60  mm)

(Spindle Speed: 5000 RPM)
G21
G90
G17
G94


G01 F150

M5             
G00 Z15.00
G00 X0.00 Y0.00                
T1
(MSG, Change to Tool Dia = 3.20 ||| Total drills for tool T1 = 4)
M0
G00 Z15.00
        
G01 F150
M03 S5000
G00 X39.00 Y41.00
G01 Z-1.80
G01 Z0
G00 Z2.00
G00 X4.00 Y41.00
G01 Z-1.80
G01 Z0
G00 Z2.00
G00 X4.00 Y4.00
G01 Z-1.80
G01 Z0
G00 Z2.00
G00 X39.00 Y4.00
G01 Z-1.80
G01 Z0
G00 Z2.00
M05
G00 Z0


M2
