(TOOL DIAMETER: 0.35 mm)
(Feedrate_XY: 60.0 mm/min)
(Feedrate_Z: 30.0 mm/min)
(Feedrate rapids 2000.0 mm/min)

(Z_Cut: -0.09 mm)
(Z_Move: 2.0 mm)
(Z Start: None mm)
(Z End: 20.00 mm)
(X,Y End: None mm)
(Steps per circle: 64)
(Steps per circle: 64)
(Preprocessor Geometry: GRBL_11_no_M6)

(X range:     -0.04 ...     65.05  mm)
(Y range:     -0.04 ...     56.04  mm)

(Spindle Speed: 10000.0 RPM)
G21
G90
G17
G94

T1            
G00 Z20.00
G00 X0.00 Y0.00                
M03 S10000.0
G00 X0.38 Y0.69
G01 Z2.00 F150
G01 Z-0.09 F30
G01 X0.38 Y55.31 F60
G01 X0.38 Y55.34 F60
G01 X0.39 Y55.38 F60
G01 X0.40 Y55.41 F60
G01 X0.41 Y55.44 F60
G01 X0.42 Y55.46 F60
G01 X0.43 Y55.48 F60
G01 X0.45 Y55.50 F60
G01 X0.47 Y55.53 F60
G01 X0.49 Y55.55 F60
G01 X0.51 Y55.56 F60
G01 X0.54 Y55.58 F60
G01 X0.56 Y55.59 F60
G01 X0.58 Y55.60 F60
G01 X0.60 Y55.61 F60
G01 X0.63 Y55.61 F60
G01 X0.66 Y55.62 F60
G01 X0.69 Y55.62 F60
G01 X64.32 Y55.62 F60
G01 X64.34 Y55.62 F60
G01 X64.38 Y55.61 F60
G01 X64.41 Y55.60 F60
G01 X64.44 Y55.59 F60
G01 X64.46 Y55.58 F60
G01 X64.48 Y55.57 F60
G01 X64.50 Y55.55 F60
G01 X64.53 Y55.53 F60
G01 X64.55 Y55.51 F60
G01 X64.56 Y55.49 F60
G01 X64.57 Y55.48 F60
G01 X64.58 Y55.45 F60
G01 X64.60 Y55.43 F60
G01 X64.60 Y55.40 F60
G01 X64.61 Y55.37 F60
G01 X64.62 Y55.34 F60
G01 X64.62 Y55.32 F60
G01 X64.62 Y50.28 F60
G01 X64.62 Y50.26 F60
G01 X64.61 Y50.23 F60
G01 X64.60 Y50.20 F60
G01 X64.59 Y50.17 F60
G01 X64.58 Y50.15 F60
G01 X64.57 Y50.12 F60
G01 X64.55 Y50.10 F60
G01 X64.53 Y50.08 F60
G01 X64.51 Y50.06 F60
G01 X64.48 Y50.04 F60
G01 X64.46 Y50.02 F60
G01 X64.43 Y50.01 F60
G01 X64.41 Y50.00 F60
G01 X64.38 Y49.99 F60
G01 X64.35 Y49.99 F60
G01 X64.32 Y49.99 F60
G01 X64.31 Y49.99 F60
G01 X64.28 Y49.99 F60
G01 X64.25 Y49.99 F60
G01 X64.22 Y50.00 F60
G01 X64.20 Y50.01 F60
G01 X64.17 Y50.02 F60
G01 X64.15 Y50.04 F60
G01 X64.12 Y50.06 F60
G01 X64.10 Y50.08 F60
G01 X63.77 Y50.41 F60
G01 X63.75 Y50.43 F60
G01 X63.74 Y50.45 F60
G01 X63.72 Y50.47 F60
G01 X63.71 Y50.50 F60
G01 X63.70 Y50.53 F60
G01 X63.69 Y50.56 F60
G01 X63.69 Y50.59 F60
G01 X63.69 Y50.62 F60
G01 X63.69 Y51.34 F60
G01 X63.68 Y51.42 F60
G01 X63.66 Y51.48 F60
G01 X63.63 Y51.54 F60
G01 X63.59 Y51.59 F60
G01 X63.54 Y51.63 F60
G01 X63.48 Y51.66 F60
G01 X63.43 Y51.67 F60
G01 X63.41 Y51.68 F60
G01 X63.40 Y51.68 F60
G01 X63.38 Y51.70 F60
G01 X63.36 Y51.71 F60
G01 X63.35 Y51.72 F60
G01 X63.33 Y51.73 F60
G01 X63.31 Y51.75 F60
G01 X63.29 Y51.77 F60
G01 X63.28 Y51.79 F60
G01 X63.27 Y51.80 F60
G01 X63.26 Y51.82 F60
G01 X63.24 Y51.84 F60
G01 X63.24 Y51.85 F60
G01 X63.23 Y51.88 F60
G01 X63.23 Y51.90 F60
G01 X63.22 Y51.93 F60
G01 X63.22 Y51.96 F60
G01 X63.22 Y51.98 F60
G01 X63.22 Y52.00 F60
G01 X63.23 Y52.02 F60
G01 X63.23 Y52.05 F60
G01 X63.24 Y52.08 F60
G01 X63.26 Y52.10 F60
G01 X63.27 Y52.13 F60
G01 X63.29 Y52.16 F60
G01 X63.31 Y52.18 F60
G01 X63.42 Y52.29 F60
G01 X63.55 Y52.48 F60
G01 X63.64 Y52.69 F60
G01 X63.68 Y52.92 F60
G01 X63.68 Y53.16 F60
G01 X63.64 Y53.39 F60
G01 X63.55 Y53.60 F60
G01 X63.42 Y53.79 F60
G01 X63.25 Y53.96 F60
G01 X63.06 Y54.09 F60
G01 X62.85 Y54.18 F60
G01 X62.62 Y54.22 F60
G01 X62.38 Y54.22 F60
G01 X62.15 Y54.18 F60
G01 X61.94 Y54.09 F60
G01 X61.75 Y53.96 F60
G01 X61.58 Y53.79 F60
G01 X61.48 Y53.64 F60
G01 X61.46 Y53.62 F60
G01 X61.45 Y53.60 F60
G01 X61.42 Y53.58 F60
G01 X61.40 Y53.56 F60
G01 X61.38 Y53.55 F60
G01 X61.35 Y53.53 F60
G01 X61.33 Y53.53 F60
G01 X61.31 Y53.52 F60
G01 X61.28 Y53.52 F60
G01 X61.26 Y53.51 F60
G01 X61.23 Y53.51 F60
G01 X61.20 Y53.51 F60
G01 X61.18 Y53.52 F60
G01 X61.15 Y53.52 F60
G01 X61.13 Y53.53 F60
G01 X61.11 Y53.53 F60
G01 X61.08 Y53.55 F60
G01 X61.06 Y53.56 F60
G01 X61.04 Y53.58 F60
G01 X61.01 Y53.60 F60
G01 X61.00 Y53.62 F60
G01 X60.98 Y53.64 F60
G01 X60.88 Y53.79 F60
G01 X60.71 Y53.96 F60
G01 X60.52 Y54.09 F60
G01 X60.31 Y54.18 F60
G01 X60.08 Y54.22 F60
G01 X59.84 Y54.22 F60
G01 X59.61 Y54.18 F60
G01 X59.40 Y54.09 F60
G01 X59.21 Y53.96 F60
G01 X59.04 Y53.79 F60
G01 X58.94 Y53.64 F60
G01 X58.92 Y53.62 F60
G01 X58.91 Y53.60 F60
G01 X58.88 Y53.58 F60
G01 X58.86 Y53.56 F60
G01 X58.84 Y53.55 F60
G01 X58.81 Y53.53 F60
G01 X58.79 Y53.53 F60
G01 X58.77 Y53.52 F60
G01 X58.74 Y53.52 F60
G01 X58.72 Y53.51 F60
G01 X58.69 Y53.51 F60
G01 X58.66 Y53.51 F60
G01 X58.64 Y53.52 F60
G01 X58.61 Y53.52 F60
G01 X58.59 Y53.53 F60
G01 X58.57 Y53.53 F60
G01 X58.54 Y53.55 F60
G01 X58.52 Y53.56 F60
G01 X58.50 Y53.58 F60
G01 X58.47 Y53.60 F60
G01 X58.46 Y53.62 F60
G01 X58.44 Y53.64 F60
G01 X58.34 Y53.79 F60
G01 X58.17 Y53.96 F60
G01 X57.98 Y54.09 F60
G01 X57.77 Y54.18 F60
G01 X57.54 Y54.22 F60
G01 X57.30 Y54.22 F60
G01 X57.07 Y54.18 F60
G01 X56.86 Y54.09 F60
G01 X56.67 Y53.96 F60
G01 X56.50 Y53.79 F60
G01 X56.40 Y53.64 F60
G01 X56.38 Y53.62 F60
G01 X56.37 Y53.60 F60
G01 X56.34 Y53.58 F60
G01 X56.32 Y53.56 F60
G01 X56.30 Y53.55 F60
G01 X56.27 Y53.53 F60
G01 X56.25 Y53.53 F60
G01 X56.23 Y53.52 F60
G01 X56.20 Y53.52 F60
G01 X56.18 Y53.51 F60
G01 X56.15 Y53.51 F60
G01 X56.12 Y53.51 F60
G01 X56.10 Y53.52 F60
G01 X56.07 Y53.52 F60
G01 X56.05 Y53.53 F60
G01 X56.03 Y53.53 F60
G01 X56.00 Y53.55 F60
G01 X55.98 Y53.56 F60
G01 X55.96 Y53.58 F60
G01 X55.93 Y53.60 F60
G01 X55.92 Y53.62 F60
G01 X55.90 Y53.64 F60
G01 X55.80 Y53.79 F60
G01 X55.63 Y53.96 F60
G01 X55.44 Y54.09 F60
G01 X55.23 Y54.18 F60
G01 X55.00 Y54.22 F60
G01 X54.76 Y54.22 F60
G01 X54.53 Y54.18 F60
G01 X54.32 Y54.09 F60
G01 X54.13 Y53.96 F60
G01 X53.96 Y53.79 F60
G01 X53.86 Y53.64 F60
G01 X53.84 Y53.62 F60
G01 X53.83 Y53.60 F60
G01 X53.80 Y53.58 F60
G01 X53.78 Y53.56 F60
G01 X53.76 Y53.55 F60
G01 X53.73 Y53.53 F60
G01 X53.71 Y53.53 F60
G01 X53.69 Y53.52 F60
G01 X53.66 Y53.52 F60
G01 X53.64 Y53.51 F60
G01 X53.61 Y53.51 F60
G01 X53.58 Y53.51 F60
G01 X53.56 Y53.52 F60
G01 X53.53 Y53.52 F60
G01 X53.51 Y53.53 F60
G01 X53.49 Y53.53 F60
G01 X53.46 Y53.55 F60
G01 X53.44 Y53.56 F60
G01 X53.42 Y53.58 F60
G01 X53.39 Y53.60 F60
G01 X53.38 Y53.62 F60
G01 X53.36 Y53.64 F60
G01 X53.26 Y53.79 F60
G01 X53.09 Y53.96 F60
G01 X52.90 Y54.09 F60
G01 X52.69 Y54.18 F60
G01 X52.46 Y54.22 F60
G01 X52.22 Y54.22 F60
G01 X51.99 Y54.18 F60
G01 X51.78 Y54.09 F60
G01 X51.59 Y53.96 F60
G01 X51.42 Y53.79 F60
G01 X51.32 Y53.64 F60
G01 X51.30 Y53.62 F60
G01 X51.29 Y53.60 F60
G01 X51.26 Y53.58 F60
G01 X51.24 Y53.56 F60
G01 X51.22 Y53.55 F60
G01 X51.19 Y53.54 F60
G01 X51.18 Y53.53 F60
G01 X51.15 Y53.52 F60
G01 X51.13 Y53.52 F60
G01 X51.10 Y53.51 F60
G01 X51.07 Y53.51 F60
G01 X51.04 Y53.51 F60
G01 X51.02 Y53.51 F60
G01 X50.99 Y53.52 F60
G01 X50.97 Y53.53 F60
G01 X50.95 Y53.53 F60
G01 X50.92 Y53.55 F60
G01 X50.90 Y53.56 F60
G01 X50.88 Y53.58 F60
G01 X50.85 Y53.60 F60
G01 X50.84 Y53.62 F60
G01 X50.82 Y53.64 F60
G01 X50.72 Y53.79 F60
G01 X50.55 Y53.96 F60
G01 X50.36 Y54.09 F60
G01 X50.15 Y54.18 F60
G01 X49.92 Y54.22 F60
G01 X49.68 Y54.22 F60
G01 X49.45 Y54.18 F60
G01 X49.24 Y54.09 F60
G01 X49.05 Y53.96 F60
G01 X48.88 Y53.79 F60
G01 X48.77 Y53.63 F60
G01 X48.76 Y53.61 F60
G01 X48.74 Y53.59 F60
G01 X48.72 Y53.57 F60
G01 X48.69 Y53.55 F60
G01 X48.67 Y53.54 F60
G01 X48.65 Y53.53 F60
G01 X48.64 Y53.52 F60
G01 X48.61 Y53.52 F60
G01 X48.59 Y53.51 F60
G01 X48.56 Y53.50 F60
G01 X48.54 Y53.50 F60
G01 X48.51 Y53.50 F60
G01 X48.48 Y53.51 F60
G01 X48.47 Y53.51 F60
G01 X48.44 Y53.52 F60
G01 X48.41 Y53.52 F60
G01 X48.39 Y53.54 F60
G01 X48.37 Y53.55 F60
G01 X48.34 Y53.56 F60
G01 X48.32 Y53.58 F60
G01 X48.31 Y53.59 F60
G01 X48.30 Y53.61 F60
G01 X48.28 Y53.63 F60
G01 X48.27 Y53.65 F60
G01 X48.21 Y53.74 F60
G01 X48.06 Y53.91 F60
G01 X47.87 Y54.05 F60
G01 X47.69 Y54.14 F60
G01 X47.69 Y53.97 F60
G01 X47.75 Y53.94 F60
G01 X47.83 Y53.89 F60
G01 X47.91 Y53.83 F60
G01 X47.99 Y53.76 F60
G01 X48.05 Y53.69 F60
G01 X48.11 Y53.61 F60
G01 X48.16 Y53.52 F60
G01 X48.21 Y53.44 F60
G01 X48.24 Y53.35 F60
G01 X48.24 Y53.33 F60
G01 X48.27 Y53.24 F60
G01 X48.28 Y53.14 F60
G01 X48.28 Y53.04 F60
G01 X48.28 Y52.95 F60
G01 X48.28 Y52.93 F60
G01 X48.27 Y52.84 F60
G01 X48.24 Y52.74 F60
G01 X48.21 Y52.65 F60
G01 X48.16 Y52.56 F60
G01 X48.12 Y52.48 F60
G01 X48.11 Y52.46 F60
G01 X48.06 Y52.40 F60
G01 X48.05 Y52.38 F60
G01 X47.98 Y52.32 F60
G01 X47.91 Y52.25 F60
G01 X47.83 Y52.19 F60
G01 X47.75 Y52.14 F60
G01 X47.74 Y52.13 F60
G01 X47.66 Y52.10 F60
G01 X47.64 Y52.09 F60
G01 X47.56 Y52.06 F60
G01 X47.46 Y52.03 F60
G01 X47.36 Y52.02 F60
G01 X47.26 Y52.02 F60
G01 X47.16 Y52.02 F60
G01 X47.07 Y52.03 F60
G01 X47.05 Y52.04 F60
G01 X46.97 Y52.06 F60
G01 X46.95 Y52.06 F60
G01 X46.87 Y52.09 F60
G01 X46.78 Y52.14 F60
G01 X46.69 Y52.19 F60
G01 X46.61 Y52.25 F60
G01 X46.54 Y52.32 F60
G01 X46.47 Y52.38 F60
G01 X46.46 Y52.40 F60
G01 X46.41 Y52.46 F60
G01 X46.40 Y52.48 F60
G01 X46.36 Y52.56 F60
G01 X46.31 Y52.65 F60
G01 X46.28 Y52.74 F60
G01 X46.25 Y52.84 F60
G01 X46.24 Y52.93 F60
G01 X46.24 Y52.95 F60
G01 X46.24 Y53.04 F60
G01 X46.24 Y53.14 F60
G01 X46.25 Y53.24 F60
G01 X46.28 Y53.33 F60
G01 X46.28 Y53.35 F60
G01 X46.31 Y53.44 F60
G01 X46.36 Y53.52 F60
G01 X46.41 Y53.61 F60
G01 X46.47 Y53.69 F60
G01 X46.53 Y53.76 F60
G01 X46.61 Y53.83 F60
G01 X46.69 Y53.89 F60
G01 X46.77 Y53.94 F60
G01 X46.83 Y53.97 F60
G01 X46.83 Y54.14 F60
G01 X46.65 Y54.05 F60
G01 X46.46 Y53.91 F60
G01 X46.31 Y53.74 F60
G01 X46.25 Y53.65 F60
G01 X46.24 Y53.63 F60
G01 X46.22 Y53.61 F60
G01 X46.21 Y53.59 F60
G01 X46.20 Y53.58 F60
G01 X46.18 Y53.56 F60
G01 X46.15 Y53.55 F60
G01 X46.13 Y53.54 F60
G01 X46.11 Y53.52 F60
G01 X46.08 Y53.52 F60
G01 X46.05 Y53.51 F60
G01 X46.04 Y53.51 F60
G01 X46.01 Y53.50 F60
G01 X45.98 Y53.50 F60
G01 X45.96 Y53.50 F60
G01 X45.93 Y53.51 F60
G01 X45.91 Y53.52 F60
G01 X45.88 Y53.52 F60
G01 X45.87 Y53.53 F60
G01 X45.85 Y53.54 F60
G01 X45.83 Y53.55 F60
G01 X45.80 Y53.57 F60
G01 X45.78 Y53.59 F60
G01 X45.76 Y53.61 F60
G01 X45.75 Y53.63 F60
G01 X45.64 Y53.79 F60
G01 X45.47 Y53.96 F60
G01 X45.28 Y54.09 F60
G01 X45.07 Y54.18 F60
G01 X44.84 Y54.22 F60
G01 X44.60 Y54.22 F60
G01 X44.37 Y54.18 F60
G01 X44.16 Y54.09 F60
G01 X43.97 Y53.96 F60
G01 X43.80 Y53.79 F60
G01 X43.70 Y53.64 F60
G01 X43.68 Y53.62 F60
G01 X43.67 Y53.60 F60
G01 X43.64 Y53.58 F60
G01 X43.62 Y53.56 F60
G01 X43.60 Y53.55 F60
G01 X43.57 Y53.53 F60
G01 X43.55 Y53.53 F60
G01 X43.53 Y53.52 F60
G01 X43.50 Y53.51 F60
G01 X43.48 Y53.51 F60
G01 X43.45 Y53.51 F60
G01 X43.42 Y53.51 F60
G01 X43.39 Y53.52 F60
G01 X43.37 Y53.52 F60
G01 X43.34 Y53.53 F60
G01 X43.33 Y53.54 F60
G01 X43.30 Y53.55 F60
G01 X43.28 Y53.56 F60
G01 X43.26 Y53.58 F60
G01 X43.23 Y53.60 F60
G01 X43.22 Y53.62 F60
G01 X43.20 Y53.64 F60
G01 X43.10 Y53.79 F60
G01 X42.93 Y53.96 F60
G01 X42.74 Y54.09 F60
G01 X42.53 Y54.18 F60
G01 X42.30 Y54.22 F60
G01 X42.06 Y54.22 F60
G01 X41.83 Y54.18 F60
G01 X41.62 Y54.09 F60
G01 X41.43 Y53.96 F60
G01 X41.26 Y53.79 F60
G01 X41.15 Y53.63 F60
G01 X41.14 Y53.61 F60
G01 X41.12 Y53.59 F60
G01 X41.10 Y53.57 F60
G01 X41.07 Y53.55 F60
G01 X41.05 Y53.54 F60
G01 X41.03 Y53.53 F60
G01 X41.00 Y53.52 F60
G01 X40.99 Y53.51 F60
G01 X40.96 Y53.51 F60
G01 X40.94 Y53.50 F60
G01 X40.91 Y53.50 F60
G01 X40.88 Y53.50 F60
G01 X40.85 Y53.51 F60
G01 X40.83 Y53.51 F60
G01 X40.81 Y53.52 F60
G01 X40.79 Y53.53 F60
G01 X40.77 Y53.54 F60
G01 X40.75 Y53.55 F60
G01 X40.72 Y53.56 F60
G01 X40.70 Y53.58 F60
G01 X40.69 Y53.59 F60
G01 X40.68 Y53.61 F60
G01 X40.66 Y53.63 F60
G01 X40.65 Y53.65 F60
G01 X40.59 Y53.74 F60
G01 X40.44 Y53.91 F60
G01 X40.25 Y54.05 F60
G01 X40.07 Y54.14 F60
G01 X40.07 Y53.97 F60
G01 X40.13 Y53.94 F60
G01 X40.21 Y53.89 F60
G01 X40.29 Y53.83 F60
G01 X40.37 Y53.76 F60
G01 X40.43 Y53.69 F60
G01 X40.49 Y53.61 F60
G01 X40.54 Y53.52 F60
G01 X40.59 Y53.44 F60
G01 X40.62 Y53.35 F60
G01 X40.62 Y53.33 F60
G01 X40.65 Y53.24 F60
G01 X40.66 Y53.14 F60
G01 X40.66 Y53.04 F60
G01 X40.66 Y52.95 F60
G01 X40.66 Y52.93 F60
G01 X40.65 Y52.84 F60
G01 X40.62 Y52.74 F60
G01 X40.59 Y52.65 F60
G01 X40.54 Y52.56 F60
G01 X40.50 Y52.48 F60
G01 X40.49 Y52.46 F60
G01 X40.44 Y52.40 F60
G01 X40.43 Y52.38 F60
G01 X40.36 Y52.32 F60
G01 X40.29 Y52.25 F60
G01 X40.21 Y52.19 F60
G01 X40.13 Y52.14 F60
G01 X40.12 Y52.13 F60
G01 X40.04 Y52.10 F60
G01 X40.02 Y52.09 F60
G01 X39.94 Y52.06 F60
G01 X39.84 Y52.03 F60
G01 X39.74 Y52.02 F60
G01 X39.64 Y52.02 F60
G01 X39.54 Y52.02 F60
G01 X39.45 Y52.03 F60
G01 X39.43 Y52.04 F60
G01 X39.35 Y52.06 F60
G01 X39.33 Y52.06 F60
G01 X39.25 Y52.09 F60
G01 X39.16 Y52.14 F60
G01 X39.07 Y52.19 F60
G01 X38.99 Y52.25 F60
G01 X38.92 Y52.32 F60
G01 X38.85 Y52.38 F60
G01 X38.84 Y52.40 F60
G01 X38.79 Y52.46 F60
G01 X38.78 Y52.48 F60
G01 X38.74 Y52.56 F60
G01 X38.69 Y52.65 F60
G01 X38.66 Y52.74 F60
G01 X38.63 Y52.84 F60
G01 X38.62 Y52.93 F60
G01 X38.62 Y52.95 F60
G01 X38.62 Y53.04 F60
G01 X38.62 Y53.14 F60
G01 X38.63 Y53.24 F60
G01 X38.66 Y53.33 F60
G01 X38.66 Y53.35 F60
G01 X38.69 Y53.44 F60
G01 X38.74 Y53.52 F60
G01 X38.79 Y53.61 F60
G01 X38.85 Y53.69 F60
G01 X38.91 Y53.76 F60
G01 X38.99 Y53.83 F60
G01 X39.07 Y53.89 F60
G01 X39.15 Y53.94 F60
G01 X39.21 Y53.97 F60
G01 X39.21 Y54.14 F60
G01 X39.03 Y54.05 F60
G01 X38.84 Y53.91 F60
G01 X38.69 Y53.74 F60
G01 X38.63 Y53.65 F60
G01 X38.62 Y53.63 F60
G01 X38.60 Y53.61 F60
G01 X38.59 Y53.59 F60
G01 X38.58 Y53.58 F60
G01 X38.56 Y53.56 F60
G01 X38.54 Y53.55 F60
G01 X38.52 Y53.54 F60
G01 X38.50 Y53.53 F60
G01 X38.48 Y53.52 F60
G01 X38.45 Y53.51 F60
G01 X38.43 Y53.51 F60
G01 X38.40 Y53.50 F60
G01 X38.38 Y53.50 F60
G01 X38.35 Y53.50 F60
G01 X38.33 Y53.51 F60
G01 X38.31 Y53.51 F60
G01 X38.28 Y53.52 F60
G01 X38.26 Y53.53 F60
G01 X38.23 Y53.54 F60
G01 X38.21 Y53.55 F60
G01 X38.18 Y53.57 F60
G01 X38.16 Y53.59 F60
G01 X38.14 Y53.61 F60
G01 X38.13 Y53.63 F60
G01 X38.02 Y53.79 F60
G01 X37.85 Y53.96 F60
G01 X37.66 Y54.09 F60
G01 X37.45 Y54.18 F60
G01 X37.22 Y54.22 F60
G01 X36.98 Y54.22 F60
G01 X36.75 Y54.18 F60
G01 X36.54 Y54.09 F60
G01 X36.35 Y53.96 F60
G01 X36.18 Y53.79 F60
G01 X36.08 Y53.64 F60
G01 X36.06 Y53.62 F60
G01 X36.05 Y53.60 F60
G01 X36.02 Y53.58 F60
G01 X36.00 Y53.56 F60
G01 X35.98 Y53.55 F60
G01 X35.95 Y53.54 F60
G01 X35.94 Y53.53 F60
G01 X35.91 Y53.52 F60
G01 X35.89 Y53.52 F60
G01 X35.86 Y53.51 F60
G01 X35.83 Y53.51 F60
G01 X35.80 Y53.51 F60
G01 X35.78 Y53.51 F60
G01 X35.75 Y53.52 F60
G01 X35.73 Y53.53 F60
G01 X35.71 Y53.53 F60
G01 X35.68 Y53.55 F60
G01 X35.66 Y53.56 F60
G01 X35.64 Y53.58 F60
G01 X35.61 Y53.60 F60
G01 X35.60 Y53.62 F60
G01 X35.58 Y53.64 F60
G01 X35.48 Y53.79 F60
G01 X35.31 Y53.96 F60
G01 X35.12 Y54.09 F60
G01 X34.91 Y54.18 F60
G01 X34.68 Y54.22 F60
G01 X34.44 Y54.22 F60
G01 X34.21 Y54.18 F60
G01 X34.00 Y54.09 F60
G01 X33.81 Y53.96 F60
G01 X33.64 Y53.79 F60
G01 X33.54 Y53.64 F60
G01 X33.52 Y53.62 F60
G01 X33.51 Y53.60 F60
G01 X33.48 Y53.58 F60
G01 X33.46 Y53.56 F60
G01 X33.44 Y53.55 F60
G01 X33.41 Y53.54 F60
G01 X33.40 Y53.53 F60
G01 X33.37 Y53.52 F60
G01 X33.35 Y53.52 F60
G01 X33.32 Y53.51 F60
G01 X33.29 Y53.51 F60
G01 X33.26 Y53.51 F60
G01 X33.24 Y53.51 F60
G01 X33.21 Y53.52 F60
G01 X33.19 Y53.53 F60
G01 X33.17 Y53.53 F60
G01 X33.14 Y53.55 F60
G01 X33.12 Y53.56 F60
G01 X33.10 Y53.58 F60
G01 X33.07 Y53.60 F60
G01 X33.06 Y53.62 F60
G01 X33.04 Y53.64 F60
G01 X32.94 Y53.79 F60
G01 X32.77 Y53.96 F60
G01 X32.58 Y54.09 F60
G01 X32.37 Y54.18 F60
G01 X32.14 Y54.22 F60
G01 X31.90 Y54.22 F60
G01 X31.67 Y54.18 F60
G01 X31.46 Y54.09 F60
G01 X31.27 Y53.96 F60
G01 X31.25 Y53.94 F60
G01 X31.23 Y53.93 F60
G01 X31.19 Y53.91 F60
G01 X31.16 Y53.89 F60
G01 X31.14 Y53.89 F60
G01 X31.12 Y53.88 F60
G01 X31.09 Y53.87 F60
G01 X31.06 Y53.87 F60
G01 X16.70 Y53.87 F60
G01 X16.67 Y53.87 F60
G01 X16.64 Y53.88 F60
G01 X16.48 Y53.86 F60
G01 X16.32 Y53.81 F60
G01 X16.18 Y53.74 F60
G01 X16.05 Y53.63 F60
G01 X16.03 Y53.61 F60
G01 X16.01 Y53.59 F60
G01 X14.36 Y51.94 F60
G01 X14.34 Y51.92 F60
G01 X14.32 Y51.90 F60
G01 X14.21 Y51.77 F60
G01 X14.14 Y51.63 F60
G01 X14.09 Y51.47 F60
G01 X14.07 Y51.31 F60
G01 X14.08 Y51.28 F60
G01 X14.08 Y51.25 F60
G01 X14.08 Y50.63 F60
G01 X14.08 Y50.60 F60
G01 X14.07 Y50.58 F60
G01 X14.07 Y50.55 F60
G01 X14.06 Y50.53 F60
G01 X14.05 Y50.51 F60
G01 X14.04 Y50.49 F60
G01 X14.03 Y50.47 F60
G01 X13.91 Y50.29 F60
G01 X13.82 Y50.08 F60
G01 X13.78 Y49.86 F60
G01 X13.78 Y49.64 F60
G01 X13.82 Y49.42 F60
G01 X13.91 Y49.21 F60
G01 X14.03 Y49.03 F60
G01 X14.19 Y48.87 F60
G01 X14.37 Y48.75 F60
G01 X14.58 Y48.66 F60
G01 X14.80 Y48.62 F60
G01 X15.02 Y48.62 F60
G01 X15.24 Y48.66 F60
G01 X15.45 Y48.75 F60
G01 X15.63 Y48.87 F60
G01 X15.79 Y49.03 F60
G01 X15.91 Y49.21 F60
G01 X16.00 Y49.42 F60
G01 X16.04 Y49.64 F60
G01 X16.04 Y49.86 F60
G01 X16.00 Y50.08 F60
G01 X15.91 Y50.29 F60
G01 X15.79 Y50.47 F60
G01 X15.78 Y50.48 F60
G01 X15.78 Y50.50 F60
G01 X15.77 Y50.52 F60
G01 X15.76 Y50.54 F60
G01 X15.75 Y50.55 F60
G01 X15.75 Y50.58 F60
G01 X15.75 Y50.60 F60
G01 X15.74 Y50.63 F60
G01 X15.74 Y50.84 F60
G01 X15.74 Y50.87 F60
G01 X15.75 Y50.90 F60
G01 X15.76 Y50.93 F60
G01 X15.76 Y50.95 F60
G01 X15.78 Y50.98 F60
G01 X15.79 Y51.00 F60
G01 X15.81 Y51.03 F60
G01 X15.83 Y51.05 F60
G01 X16.90 Y52.12 F60
G01 X16.92 Y52.14 F60
G01 X16.94 Y52.15 F60
G01 X16.95 Y52.16 F60
G01 X16.97 Y52.17 F60
G01 X16.99 Y52.18 F60
G01 X17.00 Y52.19 F60
G01 X17.02 Y52.19 F60
G01 X17.05 Y52.20 F60
G01 X17.08 Y52.21 F60
G01 X17.11 Y52.21 F60
G01 X31.06 Y52.21 F60
G01 X31.08 Y52.21 F60
G01 X31.11 Y52.20 F60
G01 X31.14 Y52.20 F60
G01 X31.17 Y52.18 F60
G01 X31.20 Y52.17 F60
G01 X31.22 Y52.16 F60
G01 X31.24 Y52.14 F60
G01 X31.25 Y52.14 F60
G01 X31.27 Y52.12 F60
G01 X31.42 Y52.02 F60
G01 X31.44 Y52.00 F60
G01 X31.46 Y51.98 F60
G01 X31.48 Y51.96 F60
G01 X31.50 Y51.93 F60
G01 X31.52 Y51.91 F60
G01 X31.53 Y51.88 F60
G01 X31.54 Y51.86 F60
G01 X31.54 Y51.84 F60
G01 X31.55 Y51.82 F60
G01 X31.55 Y51.80 F60
G01 X31.55 Y51.79 F60
G01 X31.55 Y51.77 F60
G01 X31.55 Y51.74 F60
G01 X31.55 Y51.71 F60
G01 X31.54 Y51.69 F60
G01 X31.53 Y51.67 F60
G01 X31.52 Y51.64 F60
G01 X31.51 Y51.62 F60
G01 X31.50 Y51.60 F60
G01 X31.49 Y51.59 F60
G01 X31.47 Y51.57 F60
G01 X31.45 Y51.55 F60
G01 X31.43 Y51.53 F60
G01 X31.22 Y51.37 F60
G01 X31.07 Y51.20 F60
G01 X30.95 Y51.00 F60
G01 X30.92 Y50.93 F60
G01 X31.09 Y50.93 F60
G01 X31.12 Y50.99 F60
G01 X31.17 Y51.07 F60
G01 X31.23 Y51.15 F60
G01 X31.29 Y51.22 F60
G01 X31.36 Y51.29 F60
G01 X31.38 Y51.30 F60
G01 X31.45 Y51.35 F60
G01 X31.53 Y51.40 F60
G01 X31.54 Y51.41 F60
G01 X31.63 Y51.45 F60
G01 X31.72 Y51.48 F60
G01 X31.82 Y51.51 F60
G01 X31.92 Y51.52 F60
G01 X32.02 Y51.52 F60
G01 X32.11 Y51.52 F60
G01 X32.13 Y51.52 F60
G01 X32.22 Y51.51 F60
G01 X32.31 Y51.48 F60
G01 X32.33 Y51.48 F60
G01 X32.41 Y51.45 F60
G01 X32.50 Y51.41 F60
G01 X32.51 Y51.40 F60
G01 X32.59 Y51.35 F60
G01 X32.66 Y51.30 F60
G01 X32.68 Y51.29 F60
G01 X32.74 Y51.22 F60
G01 X32.81 Y51.16 F60
G01 X32.82 Y51.14 F60
G01 X32.87 Y51.07 F60
G01 X32.92 Y50.98 F60
G01 X32.97 Y50.89 F60
G01 X33.00 Y50.80 F60
G01 X33.02 Y50.71 F60
G01 X33.03 Y50.69 F60
G01 X33.04 Y50.61 F60
G01 X33.04 Y50.59 F60
G01 X33.04 Y50.50 F60
G01 X33.04 Y50.41 F60
G01 X33.04 Y50.39 F60
G01 X33.03 Y50.30 F60
G01 X33.00 Y50.20 F60
G01 X32.97 Y50.11 F60
G01 X32.92 Y50.02 F60
G01 X32.87 Y49.93 F60
G01 X32.81 Y49.85 F60
G01 X32.74 Y49.78 F60
G01 X32.68 Y49.71 F60
G01 X32.66 Y49.70 F60
G01 X32.59 Y49.65 F60
G01 X32.50 Y49.60 F60
G01 X32.41 Y49.55 F60
G01 X32.33 Y49.52 F60
G01 X32.31 Y49.52 F60
G01 X32.22 Y49.49 F60
G01 X32.13 Y49.48 F60
G01 X32.11 Y49.48 F60
G01 X32.03 Y49.48 F60
G01 X32.01 Y49.48 F60
G01 X31.92 Y49.48 F60
G01 X31.82 Y49.49 F60
G01 X31.72 Y49.52 F60
G01 X31.64 Y49.55 F60
G01 X31.62 Y49.56 F60
G01 X31.54 Y49.60 F60
G01 X31.46 Y49.64 F60
G01 X31.44 Y49.65 F60
G01 X31.37 Y49.70 F60
G01 X31.30 Y49.78 F60
G01 X31.22 Y49.85 F60
G01 X31.17 Y49.93 F60
G01 X31.12 Y50.02 F60
G01 X31.09 Y50.07 F60
G01 X30.92 Y50.07 F60
G01 X30.95 Y50.00 F60
G01 X30.99 Y49.94 F60
G01 X31.00 Y49.92 F60
G01 X31.00 Y49.90 F60
G01 X31.01 Y49.88 F60
G01 X31.02 Y49.85 F60
G01 X31.03 Y49.82 F60
G01 X31.03 Y49.79 F60
G01 X31.03 Y49.76 F60
G01 X31.02 Y49.74 F60
G01 X31.02 Y49.73 F60
G01 X31.02 Y49.71 F60
G01 X31.01 Y49.69 F60
G01 X31.01 Y49.67 F60
G01 X31.00 Y49.65 F60
G01 X30.98 Y49.62 F60
G01 X30.96 Y49.59 F60
G01 X30.95 Y49.58 F60
G01 X30.94 Y49.57 F60
G01 X30.92 Y49.55 F60
G01 X30.90 Y49.54 F60
G01 X30.87 Y49.52 F60
G01 X30.84 Y49.51 F60
G01 X30.82 Y49.50 F60
G01 X30.81 Y49.49 F60
G01 X30.79 Y49.49 F60
G01 X30.76 Y49.49 F60
G01 X30.75 Y49.48 F60
G01 X30.73 Y49.48 F60
G01 X29.98 Y49.48 F60
G01 X29.94 Y49.49 F60
G01 X29.92 Y49.49 F60
G01 X29.90 Y49.49 F60
G01 X29.86 Y49.51 F60
G01 X29.84 Y49.52 F60
G01 X29.81 Y49.53 F60
G01 X29.79 Y49.55 F60
G01 X29.77 Y49.57 F60
G01 X29.62 Y49.72 F60
G01 X29.60 Y49.74 F60
G01 X29.59 Y49.76 F60
G01 X29.57 Y49.78 F60
G01 X29.56 Y49.80 F60
G01 X29.56 Y49.82 F60
G01 X29.55 Y49.84 F60
G01 X29.54 Y49.87 F60
G01 X29.50 Y50.08 F60
G01 X29.41 Y50.29 F60
G01 X29.29 Y50.47 F60
G01 X29.13 Y50.63 F60
G01 X28.95 Y50.75 F60
G01 X28.74 Y50.84 F60
G01 X28.52 Y50.88 F60
G01 X28.30 Y50.88 F60
G01 X28.08 Y50.84 F60
G01 X27.87 Y50.75 F60
G01 X27.69 Y50.63 F60
G01 X27.53 Y50.47 F60
G01 X27.41 Y50.29 F60
G01 X27.32 Y50.08 F60
G01 X27.28 Y49.86 F60
G01 X27.28 Y49.64 F60
G01 X27.32 Y49.42 F60
G01 X27.41 Y49.21 F60
G01 X27.53 Y49.03 F60
G01 X27.69 Y48.87 F60
G01 X27.87 Y48.75 F60
G01 X28.08 Y48.66 F60
G01 X28.29 Y48.62 F60
G01 X28.32 Y48.61 F60
G01 X28.34 Y48.60 F60
G01 X28.36 Y48.60 F60
G01 X28.38 Y48.59 F60
G01 X28.40 Y48.57 F60
G01 X28.42 Y48.56 F60
G01 X28.45 Y48.54 F60
G01 X28.88 Y48.10 F60
G01 X28.90 Y48.08 F60
G01 X28.92 Y48.06 F60
G01 X29.05 Y47.95 F60
G01 X29.19 Y47.88 F60
G01 X29.35 Y47.83 F60
G01 X29.51 Y47.81 F60
G01 X29.54 Y47.82 F60
G01 X29.57 Y47.82 F60
G01 X33.79 Y47.82 F60
G01 X33.82 Y47.82 F60
G01 X33.85 Y47.81 F60
G01 X34.01 Y47.83 F60
G01 X34.17 Y47.88 F60
G01 X34.31 Y47.95 F60
G01 X34.44 Y48.06 F60
G01 X34.46 Y48.08 F60
G01 X34.48 Y48.10 F60
G01 X35.11 Y48.73 F60
G01 X35.13 Y48.75 F60
G01 X35.15 Y48.77 F60
G01 X35.26 Y48.90 F60
G01 X35.33 Y49.04 F60
G01 X35.38 Y49.20 F60
G01 X35.40 Y49.36 F60
G01 X35.39 Y49.39 F60
G01 X35.39 Y49.41 F60
G01 X35.39 Y49.53 F60
G01 X35.39 Y49.56 F60
G01 X35.40 Y49.59 F60
G01 X35.40 Y49.62 F60
G01 X35.41 Y49.65 F60
G01 X35.43 Y49.67 F60
G01 X35.44 Y49.70 F60
G01 X35.46 Y49.72 F60
G01 X35.48 Y49.75 F60
G01 X35.58 Y49.90 F60
G01 X35.59 Y49.92 F60
G01 X35.61 Y49.94 F60
G01 X35.63 Y49.96 F60
G01 X35.65 Y49.97 F60
G01 X35.67 Y49.98 F60
G01 X35.70 Y50.00 F60
G01 X35.71 Y50.01 F60
G01 X35.73 Y50.01 F60
G01 X35.77 Y50.02 F60
G01 X35.80 Y50.03 F60
G01 X35.83 Y50.03 F60
G01 X35.87 Y50.03 F60
G01 X35.89 Y50.02 F60
G01 X35.91 Y50.02 F60
G01 X35.94 Y50.01 F60
G01 X35.98 Y49.99 F60
G01 X36.00 Y49.98 F60
G01 X36.01 Y49.97 F60
G01 X36.02 Y49.96 F60
G01 X36.04 Y49.94 F60
G01 X36.07 Y49.92 F60
G01 X36.08 Y49.90 F60
G01 X36.18 Y49.75 F60
G01 X36.20 Y49.72 F60
G01 X36.22 Y49.70 F60
G01 X36.23 Y49.67 F60
G01 X36.25 Y49.65 F60
G01 X36.26 Y49.62 F60
G01 X36.26 Y49.59 F60
G01 X36.27 Y49.56 F60
G01 X36.27 Y49.53 F60
G01 X36.27 Y48.26 F60
G01 X36.27 Y48.22 F60
G01 X36.26 Y48.19 F60
G01 X36.25 Y48.16 F60
G01 X36.24 Y48.14 F60
G01 X36.23 Y48.11 F60
G01 X36.22 Y48.09 F60
G01 X36.20 Y48.06 F60
G01 X36.18 Y48.05 F60
G01 X36.16 Y48.03 F60
G01 X36.14 Y48.01 F60
G01 X36.13 Y48.00 F60
G01 X36.11 Y47.99 F60
G01 X36.08 Y47.98 F60
G01 X36.05 Y47.97 F60
G01 X36.03 Y47.96 F60
G01 X35.97 Y47.95 F60
G01 X35.76 Y47.86 F60
G01 X35.58 Y47.74 F60
G01 X35.42 Y47.58 F60
G01 X35.30 Y47.40 F60
G01 X35.21 Y47.19 F60
G01 X35.17 Y46.97 F60
G01 X35.17 Y46.75 F60
G01 X35.21 Y46.53 F60
G01 X35.30 Y46.32 F60
G01 X35.42 Y46.14 F60
G01 X35.58 Y45.98 F60
G01 X35.76 Y45.86 F60
G01 X35.97 Y45.77 F60
G01 X36.19 Y45.73 F60
G01 X36.41 Y45.73 F60
G01 X36.63 Y45.77 F60
G01 X36.84 Y45.86 F60
G01 X37.02 Y45.98 F60
G01 X37.18 Y46.14 F60
G01 X37.30 Y46.32 F60
G01 X37.39 Y46.53 F60
G01 X37.43 Y46.74 F60
G01 X37.44 Y46.77 F60
G01 X37.45 Y46.80 F60
G01 X37.46 Y46.83 F60
G01 X37.47 Y46.85 F60
G01 X37.49 Y46.87 F60
G01 X37.51 Y46.90 F60
G01 X37.65 Y47.03 F60
G01 X37.67 Y47.05 F60
G01 X37.69 Y47.07 F60
G01 X37.80 Y47.20 F60
G01 X37.87 Y47.34 F60
G01 X37.92 Y47.50 F60
G01 X37.94 Y47.66 F60
G01 X37.93 Y47.69 F60
G01 X37.93 Y47.72 F60
G01 X37.93 Y49.53 F60
G01 X37.93 Y49.56 F60
G01 X37.94 Y49.59 F60
G01 X37.95 Y49.62 F60
G01 X37.96 Y49.65 F60
G01 X37.97 Y49.68 F60
G01 X37.98 Y49.70 F60
G01 X38.00 Y49.72 F60
G01 X38.02 Y49.75 F60
G01 X38.12 Y49.90 F60
G01 X38.14 Y49.92 F60
G01 X38.15 Y49.94 F60
G01 X38.18 Y49.96 F60
G01 X38.20 Y49.98 F60
G01 X38.22 Y49.99 F60
G01 X38.25 Y50.00 F60
G01 X38.27 Y50.01 F60
G01 X38.29 Y50.02 F60
G01 X38.32 Y50.02 F60
G01 X38.35 Y50.03 F60
G01 X38.37 Y50.03 F60
G01 X38.40 Y50.03 F60
G01 X38.43 Y50.02 F60
G01 X38.46 Y50.02 F60
G01 X38.49 Y50.01 F60
G01 X38.51 Y49.99 F60
G01 X38.54 Y49.98 F60
G01 X38.56 Y49.96 F60
G01 X38.58 Y49.94 F60
G01 X38.60 Y49.92 F60
G01 X38.61 Y49.91 F60
G01 X38.62 Y49.90 F60
G01 X38.72 Y49.75 F60
G01 X38.89 Y49.58 F60
G01 X39.08 Y49.45 F60
G01 X39.29 Y49.36 F60
G01 X39.52 Y49.32 F60
G01 X39.76 Y49.32 F60
G01 X39.99 Y49.36 F60
G01 X40.20 Y49.45 F60
G01 X40.39 Y49.58 F60
G01 X40.56 Y49.75 F60
G01 X40.66 Y49.90 F60
G01 X40.68 Y49.92 F60
G01 X40.69 Y49.94 F60
G01 X40.72 Y49.96 F60
G01 X40.74 Y49.98 F60
G01 X40.77 Y50.00 F60
G01 X40.79 Y50.01 F60
G01 X40.81 Y50.01 F60
G01 X40.85 Y50.02 F60
G01 X40.88 Y50.03 F60
G01 X40.91 Y50.03 F60
G01 X40.94 Y50.03 F60
G01 X40.97 Y50.02 F60
G01 X41.00 Y50.02 F60
G01 X41.03 Y50.00 F60
G01 X41.05 Y49.99 F60
G01 X41.07 Y49.98 F60
G01 X41.09 Y49.97 F60
G01 X41.11 Y49.96 F60
G01 X41.13 Y49.94 F60
G01 X41.14 Y49.92 F60
G01 X41.16 Y49.90 F60
G01 X41.24 Y49.78 F60
G01 X41.25 Y49.76 F60
G01 X41.26 Y49.73 F60
G01 X41.28 Y49.70 F60
G01 X41.28 Y49.68 F60
G01 X41.28 Y49.66 F60
G01 X41.29 Y49.64 F60
G01 X41.29 Y49.62 F60
G01 X41.29 Y49.58 F60
G01 X41.28 Y49.56 F60
G01 X41.28 Y49.55 F60
G01 X41.28 Y49.53 F60
G01 X41.27 Y49.50 F60
G01 X41.25 Y49.47 F60
G01 X41.24 Y49.45 F60
G01 X41.22 Y49.43 F60
G01 X41.22 Y49.42 F60
G01 X41.20 Y49.40 F60
G01 X41.18 Y49.38 F60
G01 X41.16 Y49.37 F60
G01 X41.15 Y49.36 F60
G01 X41.13 Y49.35 F60
G01 X41.00 Y49.24 F60
G01 X40.98 Y49.22 F60
G01 X40.96 Y49.20 F60
G01 X39.84 Y48.07 F60
G01 X39.81 Y48.05 F60
G01 X39.79 Y48.04 F60
G01 X39.77 Y48.02 F60
G01 X39.74 Y48.01 F60
G01 X39.71 Y48.00 F60
G01 X39.68 Y47.99 F60
G01 X39.47 Y47.95 F60
G01 X39.26 Y47.86 F60
G01 X39.08 Y47.74 F60
G01 X38.92 Y47.58 F60
G01 X38.80 Y47.40 F60
G01 X38.71 Y47.19 F60
G01 X38.67 Y46.97 F60
G01 X38.67 Y46.75 F60
G01 X38.71 Y46.53 F60
G01 X38.80 Y46.32 F60
G01 X38.92 Y46.14 F60
G01 X39.08 Y45.98 F60
G01 X39.26 Y45.86 F60
G01 X39.47 Y45.77 F60
G01 X39.69 Y45.73 F60
G01 X39.91 Y45.73 F60
G01 X40.13 Y45.77 F60
G01 X40.34 Y45.86 F60
G01 X40.52 Y45.98 F60
G01 X40.68 Y46.14 F60
G01 X40.80 Y46.32 F60
G01 X40.89 Y46.53 F60
G01 X40.93 Y46.74 F60
G01 X40.94 Y46.77 F60
G01 X40.94 Y46.78 F60
G01 X40.95 Y46.80 F60
G01 X40.96 Y46.83 F60
G01 X40.98 Y46.85 F60
G01 X40.99 Y46.87 F60
G01 X41.01 Y46.90 F60
G01 X41.77 Y47.66 F60
G01 X41.79 Y47.67 F60
G01 X41.80 Y47.68 F60
G01 X41.82 Y47.70 F60
G01 X41.85 Y47.71 F60
G01 X41.87 Y47.72 F60
G01 X41.90 Y47.73 F60
G01 X41.92 Y47.74 F60
G01 X41.94 Y47.74 F60
G01 X41.96 Y47.74 F60
G01 X41.99 Y47.75 F60
G01 X42.02 Y47.74 F60
G01 X42.05 Y47.74 F60
G01 X42.08 Y47.73 F60
G01 X42.10 Y47.72 F60
G01 X42.13 Y47.71 F60
G01 X42.15 Y47.70 F60
G01 X42.17 Y47.68 F60
G01 X42.19 Y47.67 F60
G01 X42.21 Y47.65 F60
G01 X42.22 Y47.63 F60
G01 X42.24 Y47.61 F60
G01 X42.25 Y47.59 F60
G01 X42.27 Y47.56 F60
G01 X42.28 Y47.53 F60
G01 X42.28 Y47.51 F60
G01 X42.29 Y47.47 F60
G01 X42.29 Y47.44 F60
G01 X42.29 Y47.41 F60
G01 X42.28 Y47.38 F60
G01 X42.28 Y47.36 F60
G01 X42.27 Y47.33 F60
G01 X42.21 Y47.19 F60
G01 X42.17 Y46.97 F60
G01 X42.17 Y46.75 F60
G01 X42.21 Y46.53 F60
G01 X42.30 Y46.32 F60
G01 X42.42 Y46.14 F60
G01 X42.58 Y45.98 F60
G01 X42.76 Y45.86 F60
G01 X42.97 Y45.77 F60
G01 X43.19 Y45.73 F60
G01 X43.41 Y45.73 F60
G01 X43.63 Y45.77 F60
G01 X43.84 Y45.86 F60
G01 X44.02 Y45.98 F60
G01 X44.04 Y45.99 F60
G01 X44.06 Y46.00 F60
G01 X44.08 Y46.01 F60
G01 X44.10 Y46.02 F60
G01 X44.13 Y46.02 F60
G01 X44.15 Y46.03 F60
G01 X44.18 Y46.03 F60
G01 X45.00 Y46.03 F60
G01 X45.03 Y46.03 F60
G01 X45.06 Y46.02 F60
G01 X45.22 Y46.04 F60
G01 X45.38 Y46.09 F60
G01 X45.52 Y46.16 F60
G01 X45.65 Y46.27 F60
G01 X45.67 Y46.29 F60
G01 X45.69 Y46.31 F60
G01 X46.18 Y46.80 F60
G01 X46.20 Y46.82 F60
G01 X46.22 Y46.84 F60
G01 X46.25 Y46.85 F60
G01 X46.27 Y46.86 F60
G01 X46.30 Y46.87 F60
G01 X46.31 Y46.88 F60
G01 X46.34 Y46.88 F60
G01 X46.36 Y46.89 F60
G01 X46.39 Y46.89 F60
G01 X46.42 Y46.89 F60
G01 X46.45 Y46.88 F60
G01 X46.48 Y46.87 F60
G01 X46.51 Y46.86 F60
G01 X46.53 Y46.85 F60
G01 X46.55 Y46.84 F60
G01 X46.58 Y46.82 F60
G01 X46.60 Y46.80 F60
G01 X46.62 Y46.78 F60
G01 X46.64 Y46.76 F60
G01 X46.65 Y46.75 F60
G01 X46.66 Y46.72 F60
G01 X46.67 Y46.70 F60
G01 X46.68 Y46.67 F60
G01 X46.69 Y46.65 F60
G01 X46.71 Y46.53 F60
G01 X46.80 Y46.32 F60
G01 X46.92 Y46.14 F60
G01 X47.08 Y45.98 F60
G01 X47.26 Y45.86 F60
G01 X47.47 Y45.77 F60
G01 X47.69 Y45.73 F60
G01 X47.91 Y45.73 F60
G01 X48.13 Y45.77 F60
G01 X48.34 Y45.86 F60
G01 X48.52 Y45.98 F60
G01 X48.68 Y46.14 F60
G01 X48.80 Y46.32 F60
G01 X48.89 Y46.53 F60
G01 X48.93 Y46.74 F60
G01 X48.94 Y46.77 F60
G01 X48.95 Y46.80 F60
G01 X48.96 Y46.83 F60
G01 X48.98 Y46.85 F60
G01 X48.99 Y46.87 F60
G01 X49.01 Y46.90 F60
G01 X49.77 Y47.66 F60
G01 X49.79 Y47.67 F60
G01 X49.80 Y47.68 F60
G01 X49.82 Y47.70 F60
G01 X49.85 Y47.71 F60
G01 X49.87 Y47.72 F60
G01 X49.90 Y47.73 F60
G01 X49.92 Y47.74 F60
G01 X49.94 Y47.74 F60
G01 X49.96 Y47.74 F60
G01 X49.99 Y47.75 F60
G01 X50.02 Y47.74 F60
G01 X50.05 Y47.74 F60
G01 X50.08 Y47.73 F60
G01 X50.10 Y47.72 F60
G01 X50.13 Y47.71 F60
G01 X50.15 Y47.70 F60
G01 X50.17 Y47.68 F60
G01 X50.19 Y47.67 F60
G01 X50.21 Y47.65 F60
G01 X50.22 Y47.63 F60
G01 X50.24 Y47.61 F60
G01 X50.25 Y47.59 F60
G01 X50.27 Y47.56 F60
G01 X50.28 Y47.53 F60
G01 X50.28 Y47.51 F60
G01 X50.29 Y47.47 F60
G01 X50.29 Y47.44 F60
G01 X50.29 Y47.41 F60
G01 X50.28 Y47.38 F60
G01 X50.28 Y47.36 F60
G01 X50.27 Y47.33 F60
G01 X50.21 Y47.19 F60
G01 X50.17 Y46.97 F60
G01 X50.17 Y46.75 F60
G01 X50.21 Y46.53 F60
G01 X50.30 Y46.32 F60
G01 X50.42 Y46.14 F60
G01 X50.58 Y45.98 F60
G01 X50.76 Y45.86 F60
G01 X50.97 Y45.77 F60
G01 X51.19 Y45.73 F60
G01 X51.41 Y45.73 F60
G01 X51.63 Y45.77 F60
G01 X51.84 Y45.86 F60
G01 X52.02 Y45.98 F60
G01 X52.18 Y46.14 F60
G01 X52.30 Y46.32 F60
G01 X52.39 Y46.53 F60
G01 X52.43 Y46.74 F60
G01 X52.44 Y46.77 F60
G01 X52.45 Y46.79 F60
G01 X52.45 Y46.81 F60
G01 X52.46 Y46.83 F60
G01 X52.48 Y46.85 F60
G01 X52.49 Y46.87 F60
G01 X52.51 Y46.89 F60
G01 X52.76 Y47.14 F60
G01 X52.77 Y47.15 F60
G01 X52.80 Y47.17 F60
G01 X52.82 Y47.19 F60
G01 X52.85 Y47.20 F60
G01 X52.88 Y47.21 F60
G01 X52.90 Y47.21 F60
G01 X52.93 Y47.22 F60
G01 X52.95 Y47.22 F60
G01 X52.98 Y47.22 F60
G01 X53.00 Y47.22 F60
G01 X53.02 Y47.21 F60
G01 X53.05 Y47.21 F60
G01 X53.07 Y47.20 F60
G01 X53.10 Y47.19 F60
G01 X53.12 Y47.18 F60
G01 X53.14 Y47.16 F60
G01 X53.15 Y47.15 F60
G01 X53.17 Y47.13 F60
G01 X53.19 Y47.12 F60
G01 X53.21 Y47.09 F60
G01 X53.22 Y47.07 F60
G01 X53.24 Y47.04 F60
G01 X53.25 Y47.02 F60
G01 X53.26 Y46.98 F60
G01 X53.26 Y46.96 F60
G01 X53.26 Y46.93 F60
G01 X53.27 Y46.75 F60
G01 X53.32 Y46.56 F60
G01 X53.33 Y46.54 F60
G01 X53.46 Y46.66 F60
G01 X53.44 Y46.73 F60
G01 X53.43 Y46.81 F60
G01 X53.43 Y46.82 F60
G01 X53.43 Y46.89 F60
G01 X53.43 Y46.91 F60
G01 X53.43 Y46.99 F60
G01 X53.44 Y47.06 F60
G01 X53.44 Y47.08 F60
G01 X53.46 Y47.15 F60
G01 X53.49 Y47.23 F60
G01 X53.53 Y47.31 F60
G01 X53.57 Y47.38 F60
G01 X53.58 Y47.39 F60
G01 X53.62 Y47.45 F60
G01 X53.63 Y47.46 F60
G01 X53.68 Y47.52 F60
G01 X53.74 Y47.57 F60
G01 X53.75 Y47.58 F60
G01 X53.81 Y47.63 F60
G01 X53.89 Y47.67 F60
G01 X53.97 Y47.71 F60
G01 X54.04 Y47.73 F60
G01 X54.05 Y47.74 F60
G01 X54.13 Y47.76 F60
G01 X54.21 Y47.77 F60
G01 X54.22 Y47.77 F60
G01 X54.29 Y47.77 F60
G01 X54.31 Y47.77 F60
G01 X54.39 Y47.77 F60
G01 X54.46 Y47.76 F60
G01 X54.48 Y47.76 F60
G01 X54.55 Y47.74 F60
G01 X54.63 Y47.71 F60
G01 X54.64 Y47.70 F60
G01 X54.71 Y47.67 F60
G01 X54.78 Y47.63 F60
G01 X54.79 Y47.62 F60
G01 X54.86 Y47.58 F60
G01 X54.91 Y47.52 F60
G01 X54.92 Y47.51 F60
G01 X54.98 Y47.46 F60
G01 X55.02 Y47.39 F60
G01 X55.03 Y47.38 F60
G01 X55.07 Y47.31 F60
G01 X55.10 Y47.24 F60
G01 X55.11 Y47.23 F60
G01 X55.14 Y47.15 F60
G01 X55.16 Y47.07 F60
G01 X55.17 Y46.99 F60
G01 X55.17 Y46.98 F60
G01 X55.17 Y46.90 F60
G01 X55.17 Y46.82 F60
G01 X55.17 Y46.81 F60
G01 X55.16 Y46.73 F60
G01 X55.14 Y46.65 F60
G01 X55.11 Y46.57 F60
G01 X55.07 Y46.49 F60
G01 X55.03 Y46.41 F60
G01 X54.98 Y46.34 F60
G01 X54.92 Y46.28 F60
G01 X54.86 Y46.22 F60
G01 X54.79 Y46.17 F60
G01 X54.71 Y46.13 F60
G01 X54.63 Y46.09 F60
G01 X54.55 Y46.06 F60
G01 X54.48 Y46.04 F60
G01 X54.46 Y46.04 F60
G01 X54.39 Y46.03 F60
G01 X54.31 Y46.03 F60
G01 X54.29 Y46.03 F60
G01 X54.22 Y46.03 F60
G01 X54.21 Y46.03 F60
G01 X54.13 Y46.04 F60
G01 X54.06 Y46.06 F60
G01 X53.94 Y45.93 F60
G01 X54.04 Y45.89 F60
G01 X54.22 Y45.87 F60
G01 X54.24 Y45.86 F60
G01 X54.27 Y45.85 F60
G01 X54.30 Y45.84 F60
G01 X54.32 Y45.83 F60
G01 X54.35 Y45.81 F60
G01 X54.37 Y45.79 F60
G01 X54.38 Y45.78 F60
G01 X54.40 Y45.76 F60
G01 X54.41 Y45.74 F60
G01 X54.43 Y45.72 F60
G01 X54.44 Y45.70 F60
G01 X54.44 Y45.68 F60
G01 X54.45 Y45.66 F60
G01 X54.46 Y45.63 F60
G01 X54.46 Y45.61 F60
G01 X54.47 Y45.58 F60
G01 X54.47 Y45.57 F60
G01 X54.47 Y45.54 F60
G01 X54.46 Y45.51 F60
G01 X54.46 Y45.49 F60
G01 X54.45 Y45.46 F60
G01 X54.44 Y45.45 F60
G01 X54.43 Y45.43 F60
G01 X54.42 Y45.40 F60
G01 X54.40 Y45.39 F60
G01 X54.40 Y45.38 F60
G01 X54.38 Y45.36 F60
G01 X52.84 Y43.82 F60
G01 X52.82 Y43.80 F60
G01 X52.80 Y43.79 F60
G01 X52.77 Y43.77 F60
G01 X52.75 Y43.76 F60
G01 X52.72 Y43.75 F60
G01 X52.70 Y43.74 F60
G01 X52.68 Y43.74 F60
G01 X52.66 Y43.73 F60
G01 X52.63 Y43.73 F60
G01 X36.43 Y43.73 F60
G01 X36.41 Y43.73 F60
G01 X36.38 Y43.74 F60
G01 X36.22 Y43.72 F60
G01 X36.06 Y43.67 F60
G01 X35.91 Y43.60 F60
G01 X35.79 Y43.49 F60
G01 X35.77 Y43.47 F60
G01 X35.75 Y43.45 F60
G01 X32.05 Y39.75 F60
G01 X32.03 Y39.73 F60
G01 X32.01 Y39.71 F60
G01 X31.90 Y39.59 F60
G01 X31.83 Y39.44 F60
G01 X31.78 Y39.28 F60
G01 X31.76 Y39.12 F60
G01 X31.77 Y39.09 F60
G01 X31.77 Y39.07 F60
G01 X31.77 Y37.89 F60
G01 X31.77 Y37.86 F60
G01 X31.76 Y37.83 F60
G01 X31.76 Y37.81 F60
G01 X31.75 Y37.78 F60
G01 X31.74 Y37.77 F60
G01 X31.73 Y37.75 F60
G01 X31.72 Y37.73 F60
G01 X31.70 Y37.71 F60
G01 X31.70 Y37.70 F60
G01 X31.68 Y37.68 F60
G01 X31.66 Y37.66 F60
G01 X31.64 Y37.64 F60
G01 X31.63 Y37.64 F60
G01 X31.61 Y37.62 F60
G01 X31.58 Y37.61 F60
G01 X31.57 Y37.61 F60
G01 X31.55 Y37.60 F60
G01 X31.52 Y37.59 F60
G01 X31.49 Y37.59 F60
G01 X31.46 Y37.59 F60
G01 X31.44 Y37.59 F60
G01 X31.41 Y37.59 F60
G01 X31.38 Y37.60 F60
G01 X31.35 Y37.61 F60
G01 X31.32 Y37.63 F60
G01 X31.29 Y37.64 F60
G01 X31.27 Y37.66 F60
G01 X31.26 Y37.67 F60
G01 X28.63 Y40.30 F60
G01 X28.61 Y40.32 F60
G01 X28.59 Y40.34 F60
G01 X28.46 Y40.45 F60
G01 X28.32 Y40.52 F60
G01 X28.16 Y40.57 F60
G01 X28.00 Y40.59 F60
G01 X27.97 Y40.58 F60
G01 X27.94 Y40.58 F60
G01 X26.28 Y40.58 F60
G01 X26.25 Y40.58 F60
G01 X26.22 Y40.59 F60
G01 X26.19 Y40.60 F60
G01 X26.16 Y40.61 F60
G01 X26.13 Y40.62 F60
G01 X26.11 Y40.64 F60
G01 X26.09 Y40.65 F60
G01 X26.07 Y40.67 F60
G01 X25.95 Y40.79 F60
G01 X25.73 Y40.93 F60
G01 X25.49 Y41.03 F60
G01 X25.23 Y41.08 F60
G01 X24.97 Y41.08 F60
G01 X24.71 Y41.03 F60
G01 X24.47 Y40.93 F60
G01 X24.25 Y40.79 F60
G01 X24.06 Y40.60 F60
G01 X23.92 Y40.38 F60
G01 X23.82 Y40.14 F60
G01 X23.77 Y39.88 F60
G01 X23.77 Y39.62 F60
G01 X23.82 Y39.36 F60
G01 X23.92 Y39.12 F60
G01 X24.06 Y38.90 F60
G01 X24.25 Y38.71 F60
G01 X24.47 Y38.57 F60
G01 X24.71 Y38.47 F60
G01 X24.97 Y38.42 F60
G01 X25.23 Y38.42 F60
G01 X25.49 Y38.47 F60
G01 X25.73 Y38.57 F60
G01 X25.95 Y38.71 F60
G01 X26.07 Y38.83 F60
G01 X26.09 Y38.85 F60
G01 X26.11 Y38.86 F60
G01 X26.13 Y38.88 F60
G01 X26.16 Y38.89 F60
G01 X26.19 Y38.90 F60
G01 X26.22 Y38.91 F60
G01 X26.25 Y38.92 F60
G01 X26.28 Y38.92 F60
G01 X27.53 Y38.92 F60
G01 X27.56 Y38.92 F60
G01 X27.58 Y38.91 F60
G01 X27.61 Y38.91 F60
G01 X27.64 Y38.90 F60
G01 X27.67 Y38.88 F60
G01 X27.69 Y38.87 F60
G01 X27.72 Y38.85 F60
G01 X27.74 Y38.83 F60
G01 X29.88 Y36.69 F60
G01 X29.90 Y36.67 F60
G01 X29.91 Y36.65 F60
G01 X29.93 Y36.62 F60
G01 X29.94 Y36.60 F60
G01 X29.95 Y36.59 F60
G01 X29.95 Y36.57 F60
G01 X29.96 Y36.54 F60
G01 X29.97 Y36.51 F60
G01 X29.97 Y36.48 F60
G01 X29.97 Y35.98 F60
G01 X29.97 Y35.96 F60
G01 X29.96 Y35.93 F60
G01 X29.96 Y35.92 F60
G01 X29.95 Y35.89 F60
G01 X29.94 Y35.86 F60
G01 X29.93 Y35.84 F60
G01 X29.92 Y35.82 F60
G01 X29.80 Y35.64 F60
G01 X29.71 Y35.43 F60
G01 X29.67 Y35.21 F60
G01 X29.67 Y34.99 F60
G01 X29.71 Y34.77 F60
G01 X29.80 Y34.56 F60
G01 X29.92 Y34.38 F60
G01 X30.08 Y34.22 F60
G01 X30.26 Y34.10 F60
G01 X30.47 Y34.01 F60
G01 X30.69 Y33.97 F60
G01 X30.91 Y33.97 F60
G01 X31.13 Y34.01 F60
G01 X31.35 Y34.10 F60
G01 X31.38 Y34.11 F60
G01 X31.41 Y34.12 F60
G01 X31.44 Y34.12 F60
G01 X31.47 Y34.12 F60
G01 X31.49 Y34.12 F60
G01 X31.52 Y34.12 F60
G01 X31.53 Y34.12 F60
G01 X31.56 Y34.11 F60
G01 X31.58 Y34.10 F60
G01 X31.60 Y34.09 F60
G01 X31.61 Y34.08 F60
G01 X31.64 Y34.07 F60
G01 X31.66 Y34.06 F60
G01 X31.68 Y34.04 F60
G01 X31.69 Y34.02 F60
G01 X31.70 Y34.01 F60
G01 X31.72 Y33.99 F60
G01 X31.73 Y33.96 F60
G01 X31.74 Y33.94 F60
G01 X31.75 Y33.92 F60
G01 X31.76 Y33.90 F60
G01 X31.76 Y33.88 F60
G01 X31.77 Y33.86 F60
G01 X31.77 Y33.82 F60
G01 X31.77 Y29.67 F60
G01 X31.77 Y29.64 F60
G01 X31.76 Y29.61 F60
G01 X31.76 Y29.59 F60
G01 X31.75 Y29.56 F60
G01 X31.74 Y29.55 F60
G01 X31.73 Y29.53 F60
G01 X31.72 Y29.51 F60
G01 X31.71 Y29.50 F60
G01 X31.70 Y29.48 F60
G01 X31.68 Y29.46 F60
G01 X30.29 Y28.07 F60
G01 X30.27 Y28.05 F60
G01 X30.25 Y28.03 F60
G01 X30.22 Y28.02 F60
G01 X30.19 Y28.01 F60
G01 X30.17 Y28.00 F60
G01 X30.14 Y27.99 F60
G01 X30.11 Y27.99 F60
G01 X30.07 Y27.99 F60
G01 X30.05 Y27.99 F60
G01 X30.02 Y27.99 F60
G01 X30.00 Y28.00 F60
G01 X29.98 Y28.01 F60
G01 X29.96 Y28.01 F60
G01 X29.94 Y28.02 F60
G01 X29.91 Y28.04 F60
G01 X29.89 Y28.05 F60
G01 X29.88 Y28.07 F60
G01 X29.86 Y28.08 F60
G01 X29.85 Y28.10 F60
G01 X29.83 Y28.12 F60
G01 X29.82 Y28.14 F60
G01 X29.81 Y28.16 F60
G01 X29.80 Y28.18 F60
G01 X29.79 Y28.20 F60
G01 X29.79 Y28.23 F60
G01 X29.78 Y28.26 F60
G01 X29.78 Y28.29 F60
G01 X29.78 Y28.32 F60
G01 X29.79 Y28.35 F60
G01 X29.83 Y28.58 F60
G01 X29.83 Y29.02 F60
G01 X29.75 Y29.45 F60
G01 X29.58 Y29.86 F60
G01 X29.33 Y30.22 F60
G01 X29.02 Y30.53 F60
G01 X28.66 Y30.78 F60
G01 X28.25 Y30.95 F60
G01 X27.82 Y31.03 F60
G01 X27.38 Y31.03 F60
G01 X26.95 Y30.95 F60
G01 X26.54 Y30.78 F60
G01 X26.18 Y30.53 F60
G01 X25.87 Y30.22 F60
G01 X25.62 Y29.86 F60
G01 X25.45 Y29.45 F60
G01 X25.37 Y29.02 F60
G01 X25.37 Y28.58 F60
G01 X25.45 Y28.15 F60
G01 X25.62 Y27.74 F60
G01 X25.87 Y27.38 F60
G01 X26.18 Y27.07 F60
G01 X26.54 Y26.82 F60
G01 X26.95 Y26.65 F60
G01 X27.38 Y26.57 F60
G01 X27.82 Y26.57 F60
G01 X28.06 Y26.61 F60
G01 X28.08 Y26.62 F60
G01 X28.11 Y26.62 F60
G01 X28.14 Y26.62 F60
G01 X28.17 Y26.61 F60
G01 X28.20 Y26.61 F60
G01 X28.23 Y26.59 F60
G01 X28.25 Y26.58 F60
G01 X28.28 Y26.57 F60
G01 X28.30 Y26.55 F60
G01 X28.33 Y26.53 F60
G01 X28.35 Y26.51 F60
G01 X28.36 Y26.49 F60
G01 X28.38 Y26.46 F60
G01 X28.39 Y26.44 F60
G01 X28.40 Y26.41 F60
G01 X28.41 Y26.38 F60
G01 X28.41 Y26.35 F60
G01 X28.41 Y26.33 F60
G01 X28.41 Y26.31 F60
G01 X28.41 Y26.28 F60
G01 X28.41 Y26.25 F60
G01 X28.40 Y26.23 F60
G01 X28.39 Y26.19 F60
G01 X28.38 Y26.17 F60
G01 X28.37 Y26.16 F60
G01 X28.35 Y26.13 F60
G01 X28.33 Y26.10 F60
G01 X18.07 Y15.85 F60
G01 X18.05 Y15.83 F60
G01 X18.03 Y15.81 F60
G01 X17.92 Y15.68 F60
G01 X17.85 Y15.54 F60
G01 X17.80 Y15.38 F60
G01 X17.78 Y15.22 F60
G01 X17.79 Y15.19 F60
G01 X17.79 Y15.16 F60
G01 X17.79 Y6.16 F60
G01 X17.79 Y6.14 F60
G01 X17.78 Y6.11 F60
G01 X17.77 Y6.08 F60
G01 X17.76 Y6.05 F60
G01 X17.75 Y6.02 F60
G01 X17.74 Y6.00 F60
G01 X17.72 Y5.98 F60
G01 X17.72 Y5.97 F60
G01 X17.70 Y5.95 F60
G01 X17.60 Y5.80 F60
G01 X17.58 Y5.78 F60
G01 X17.56 Y5.76 F60
G01 X17.54 Y5.74 F60
G01 X17.52 Y5.72 F60
G01 X17.49 Y5.70 F60
G01 X17.47 Y5.69 F60
G01 X17.44 Y5.68 F60
G01 X17.41 Y5.67 F60
G01 X17.38 Y5.67 F60
G01 X17.35 Y5.67 F60
G01 X17.32 Y5.67 F60
G01 X17.28 Y5.68 F60
G01 X17.26 Y5.68 F60
G01 X17.24 Y5.69 F60
G01 X17.21 Y5.70 F60
G01 X17.18 Y5.72 F60
G01 X17.16 Y5.74 F60
G01 X17.13 Y5.76 F60
G01 X17.12 Y5.78 F60
G01 X17.10 Y5.80 F60
G01 X17.00 Y5.95 F60
G01 X16.98 Y5.97 F60
G01 X16.98 Y5.98 F60
G01 X16.96 Y6.00 F60
G01 X16.95 Y6.02 F60
G01 X16.94 Y6.05 F60
G01 X16.92 Y6.08 F60
G01 X16.92 Y6.11 F60
G01 X16.91 Y6.13 F60
G01 X16.91 Y6.16 F60
G01 X16.91 Y32.61 F60
G01 X16.91 Y32.64 F60
G01 X16.92 Y32.66 F60
G01 X16.92 Y32.68 F60
G01 X16.93 Y32.70 F60
G01 X16.94 Y32.73 F60
G01 X16.95 Y32.75 F60
G01 X16.96 Y32.78 F60
G01 X16.98 Y32.80 F60
G01 X17.00 Y32.82 F60
G01 X18.06 Y33.89 F60
G01 X18.08 Y33.90 F60
G01 X18.11 Y33.92 F60
G01 X18.13 Y33.94 F60
G01 X18.16 Y33.95 F60
G01 X18.18 Y33.96 F60
G01 X18.19 Y33.96 F60
G01 X18.22 Y33.97 F60
G01 X18.43 Y34.01 F60
G01 X18.64 Y34.10 F60
G01 X18.82 Y34.22 F60
G01 X18.98 Y34.38 F60
G01 X19.10 Y34.56 F60
G01 X19.19 Y34.77 F60
G01 X19.23 Y34.99 F60
G01 X19.23 Y35.21 F60
G01 X19.19 Y35.43 F60
G01 X19.10 Y35.64 F60
G01 X18.98 Y35.82 F60
G01 X18.82 Y35.98 F60
G01 X18.64 Y36.10 F60
G01 X18.43 Y36.19 F60
G01 X18.21 Y36.23 F60
G01 X17.99 Y36.23 F60
G01 X17.77 Y36.19 F60
G01 X17.56 Y36.10 F60
G01 X17.38 Y35.98 F60
G01 X17.22 Y35.82 F60
G01 X17.10 Y35.64 F60
G01 X17.01 Y35.43 F60
G01 X16.97 Y35.22 F60
G01 X16.96 Y35.19 F60
G01 X16.95 Y35.17 F60
G01 X16.94 Y35.14 F60
G01 X16.93 Y35.13 F60
G01 X16.92 Y35.11 F60
G01 X16.91 Y35.09 F60
G01 X16.89 Y35.06 F60
G01 X16.76 Y34.94 F60
G01 X16.74 Y34.92 F60
G01 X16.72 Y34.91 F60
G01 X16.71 Y34.90 F60
G01 X16.69 Y34.89 F60
G01 X16.67 Y34.88 F60
G01 X16.66 Y34.87 F60
G01 X16.64 Y34.87 F60
G01 X16.61 Y34.86 F60
G01 X16.58 Y34.85 F60
G01 X16.55 Y34.85 F60
G01 X16.52 Y34.85 F60
G01 X16.50 Y34.86 F60
G01 X16.48 Y34.86 F60
G01 X16.46 Y34.87 F60
G01 X16.43 Y34.88 F60
G01 X16.41 Y34.89 F60
G01 X16.39 Y34.90 F60
G01 X16.36 Y34.92 F60
G01 X16.34 Y34.94 F60
G01 X16.21 Y35.06 F60
G01 X16.19 Y35.09 F60
G01 X16.18 Y35.11 F60
G01 X16.16 Y35.13 F60
G01 X16.15 Y35.16 F60
G01 X16.14 Y35.18 F60
G01 X16.14 Y35.19 F60
G01 X16.13 Y35.22 F60
G01 X16.09 Y35.43 F60
G01 X16.00 Y35.64 F60
G01 X15.88 Y35.82 F60
G01 X15.72 Y35.98 F60
G01 X15.54 Y36.10 F60
G01 X15.33 Y36.19 F60
G01 X15.11 Y36.23 F60
G01 X14.89 Y36.23 F60
G01 X14.67 Y36.19 F60
G01 X14.46 Y36.10 F60
G01 X14.28 Y35.98 F60
G01 X14.12 Y35.82 F60
G01 X14.00 Y35.64 F60
G01 X13.91 Y35.43 F60
G01 X13.87 Y35.21 F60
G01 X13.87 Y34.99 F60
G01 X13.91 Y34.77 F60
G01 X14.00 Y34.56 F60
G01 X14.12 Y34.38 F60
G01 X14.28 Y34.22 F60
G01 X14.46 Y34.10 F60
G01 X14.67 Y34.01 F60
G01 X14.88 Y33.97 F60
G01 X14.91 Y33.96 F60
G01 X14.93 Y33.95 F60
G01 X14.96 Y33.94 F60
G01 X14.97 Y33.93 F60
G01 X14.99 Y33.92 F60
G01 X15.01 Y33.91 F60
G01 X15.03 Y33.89 F60
G01 X15.16 Y33.76 F60
G01 X15.18 Y33.74 F60
G01 X15.19 Y33.72 F60
G01 X15.21 Y33.69 F60
G01 X15.22 Y33.67 F60
G01 X15.23 Y33.64 F60
G01 X15.24 Y33.60 F60
G01 X15.25 Y33.58 F60
G01 X15.25 Y33.55 F60
G01 X15.25 Y33.14 F60
G01 X15.25 Y33.11 F60
G01 X15.24 Y33.08 F60
G01 X15.25 Y33.05 F60
G01 X15.25 Y33.02 F60
G01 X15.25 Y6.36 F60
G01 X15.25 Y6.33 F60
G01 X15.24 Y6.30 F60
G01 X15.23 Y6.27 F60
G01 X15.22 Y6.24 F60
G01 X15.21 Y6.22 F60
G01 X15.20 Y6.19 F60
G01 X15.18 Y6.17 F60
G01 X15.16 Y6.14 F60
G01 X15.14 Y6.12 F60
G01 X15.11 Y6.11 F60
G01 X15.09 Y6.09 F60
G01 X15.06 Y6.08 F60
G01 X15.03 Y6.07 F60
G01 X15.00 Y6.06 F60
G01 X14.97 Y6.06 F60
G01 X14.94 Y6.06 F60
G01 X14.92 Y6.06 F60
G01 X14.89 Y6.06 F60
G01 X14.85 Y6.07 F60
G01 X14.83 Y6.08 F60
G01 X14.81 Y6.09 F60
G01 X14.77 Y6.11 F60
G01 X14.75 Y6.12 F60
G01 X14.74 Y6.14 F60
G01 X14.73 Y6.15 F60
G01 X14.71 Y6.17 F60
G01 X14.69 Y6.19 F60
G01 X14.68 Y6.21 F60
G01 X14.67 Y6.23 F60
G01 X14.63 Y6.29 F60
G01 X14.58 Y6.33 F60
G01 X14.52 Y6.36 F60
G01 X14.46 Y6.38 F60
G01 X14.38 Y6.38 F60
G01 X13.97 Y6.38 F60
G01 X13.97 Y6.22 F60
G01 X14.39 Y6.22 F60
G01 X14.42 Y6.22 F60
G01 X14.44 Y6.22 F60
G01 X14.45 Y6.21 F60
G01 X14.47 Y6.21 F60
G01 X14.49 Y6.19 F60
G01 X14.50 Y6.18 F60
G01 X14.51 Y6.17 F60
G01 X14.53 Y6.15 F60
G01 X14.54 Y6.14 F60
G01 X14.55 Y6.13 F60
G01 X14.56 Y6.10 F60
G01 X14.56 Y6.08 F60
G01 X14.56 Y6.06 F60
G01 X14.56 Y6.05 F60
G01 X14.56 Y4.35 F60
G01 X14.56 Y4.32 F60
G01 X14.56 Y4.30 F60
G01 X14.55 Y4.27 F60
G01 X14.54 Y4.26 F60
G01 X14.52 Y4.23 F60
G01 X14.51 Y4.22 F60
G01 X14.49 Y4.21 F60
G01 X14.47 Y4.19 F60
G01 X14.44 Y4.18 F60
G01 X14.42 Y4.18 F60
G01 X14.41 Y4.17 F60
G01 X14.39 Y4.17 F60
G01 X13.97 Y4.17 F60
G01 X13.97 Y4.02 F60
G01 X14.38 Y4.01 F60
G01 X14.46 Y4.02 F60
G01 X14.52 Y4.04 F60
G01 X14.58 Y4.07 F60
G01 X14.63 Y4.11 F60
G01 X14.67 Y4.16 F60
G01 X14.68 Y4.18 F60
G01 X14.69 Y4.20 F60
G01 X14.71 Y4.23 F60
G01 X14.73 Y4.25 F60
G01 X14.75 Y4.27 F60
G01 X14.78 Y4.29 F60
G01 X14.81 Y4.31 F60
G01 X14.83 Y4.32 F60
G01 X14.85 Y4.32 F60
G01 X14.88 Y4.33 F60
G01 X14.91 Y4.34 F60
G01 X14.94 Y4.34 F60
G01 X14.98 Y4.34 F60
G01 X15.01 Y4.33 F60
G01 X15.03 Y4.33 F60
G01 X15.05 Y4.32 F60
G01 X15.08 Y4.31 F60
G01 X15.11 Y4.29 F60
G01 X15.14 Y4.27 F60
G01 X15.15 Y4.25 F60
G01 X15.16 Y4.24 F60
G01 X15.18 Y4.23 F60
G01 X15.19 Y4.21 F60
G01 X15.21 Y4.18 F60
G01 X15.21 Y4.17 F60
G01 X15.22 Y4.15 F60
G01 X15.23 Y4.13 F60
G01 X15.24 Y4.10 F60
G01 X15.24 Y4.07 F60
G01 X15.25 Y4.03 F60
G01 X15.24 Y4.00 F60
G01 X15.26 Y3.83 F60
G01 X15.31 Y3.68 F60
G01 X15.38 Y3.53 F60
G01 X15.49 Y3.41 F60
G01 X15.51 Y3.39 F60
G01 X15.53 Y3.37 F60
G01 X17.90 Y1.00 F60
G01 X17.92 Y0.98 F60
G01 X17.94 Y0.96 F60
G01 X17.99 Y0.92 F60
G01 X18.01 Y0.89 F60
G01 X18.03 Y0.88 F60
G01 X18.04 Y0.86 F60
G01 X18.06 Y0.82 F60
G01 X18.07 Y0.80 F60
G01 X18.08 Y0.78 F60
G01 X18.08 Y0.77 F60
G01 X18.09 Y0.74 F60
G01 X18.09 Y0.72 F60
G01 X18.09 Y0.71 F60
G01 X18.09 Y0.68 F60
G01 X18.09 Y0.66 F60
G01 X18.09 Y0.63 F60
G01 X18.09 Y0.62 F60
G01 X18.08 Y0.60 F60
G01 X18.07 Y0.57 F60
G01 X18.06 Y0.55 F60
G01 X18.05 Y0.54 F60
G01 X18.04 Y0.51 F60
G01 X18.03 Y0.49 F60
G01 X18.01 Y0.47 F60
G01 X17.99 Y0.46 F60
G01 X17.98 Y0.45 F60
G01 X17.96 Y0.43 F60
G01 X17.94 Y0.42 F60
G01 X17.92 Y0.41 F60
G01 X17.90 Y0.40 F60
G01 X17.88 Y0.40 F60
G01 X17.85 Y0.39 F60
G01 X17.83 Y0.39 F60
G01 X17.82 Y0.38 F60
G01 X17.79 Y0.38 F60
G01 X0.69 Y0.38 F60
G01 X0.66 Y0.38 F60
G01 X0.63 Y0.39 F60
G01 X0.60 Y0.40 F60
G01 X0.57 Y0.41 F60
G01 X0.54 Y0.42 F60
G01 X0.52 Y0.43 F60
G01 X0.49 Y0.45 F60
G01 X0.47 Y0.47 F60
G01 X0.45 Y0.49 F60
G01 X0.43 Y0.52 F60
G01 X0.42 Y0.54 F60
G01 X0.41 Y0.57 F60
G01 X0.40 Y0.60 F60
G01 X0.39 Y0.63 F60
G01 X0.38 Y0.66 F60
G01 X0.38 Y0.69 F60
G00 Z2.00
G00 X9.17 Y5.89
G01 F30
G01 Z-0.09
G01 F60
G01 X9.17 Y5.70 F60
G01 X9.14 Y5.50 F60
G01 X9.09 Y5.30 F60
G01 X9.02 Y5.11 F60
G01 X8.93 Y4.92 F60
G01 X8.83 Y4.75 F60
G01 X8.70 Y4.58 F60
G01 X8.57 Y4.43 F60
G01 X8.42 Y4.30 F60
G01 X8.25 Y4.17 F60
G01 X8.08 Y4.07 F60
G01 X7.89 Y3.98 F60
G01 X7.70 Y3.91 F60
G01 X7.50 Y3.86 F60
G01 X7.30 Y3.83 F60
G01 X7.10 Y3.83 F60
G01 X6.90 Y3.83 F60
G01 X6.70 Y3.86 F60
G01 X6.50 Y3.91 F60
G01 X6.31 Y3.98 F60
G01 X6.12 Y4.07 F60
G01 X5.95 Y4.17 F60
G01 X5.78 Y4.30 F60
G01 X5.63 Y4.43 F60
G01 X5.50 Y4.58 F60
G01 X5.37 Y4.75 F60
G01 X5.27 Y4.92 F60
G01 X5.18 Y5.11 F60
G01 X5.11 Y5.30 F60
G01 X5.06 Y5.50 F60
G01 X5.03 Y5.70 F60
G01 X5.03 Y5.90 F60
G01 X5.03 Y6.10 F60
G01 X5.06 Y6.30 F60
G01 X5.11 Y6.50 F60
G01 X5.18 Y6.69 F60
G01 X5.27 Y6.88 F60
G01 X5.37 Y7.05 F60
G01 X5.50 Y7.22 F60
G01 X5.63 Y7.37 F60
G01 X5.78 Y7.50 F60
G01 X5.95 Y7.63 F60
G01 X6.12 Y7.73 F60
G01 X6.31 Y7.82 F60
G01 X6.50 Y7.89 F60
G01 X6.70 Y7.94 F60
G01 X6.90 Y7.97 F60
G01 X7.10 Y7.97 F60
G01 X7.30 Y7.97 F60
G01 X7.50 Y7.94 F60
G01 X7.70 Y7.89 F60
G01 X7.89 Y7.82 F60
G01 X8.08 Y7.73 F60
G01 X8.25 Y7.63 F60
G01 X8.42 Y7.50 F60
G01 X8.57 Y7.37 F60
G01 X8.70 Y7.22 F60
G01 X8.83 Y7.05 F60
G01 X8.93 Y6.88 F60
G01 X9.02 Y6.69 F60
G01 X9.09 Y6.50 F60
G01 X9.14 Y6.30 F60
G01 X9.17 Y6.10 F60
G01 X9.17 Y5.91 F60
G01 X9.17 Y5.89 F60
G00 Z2.00
G00 X9.33 Y5.68
G01 F30
G01 Z-0.09
G01 F60
G01 X9.33 Y6.12 F60
G01 X9.25 Y6.55 F60
G01 X9.08 Y6.96 F60
G01 X8.83 Y7.32 F60
G01 X8.52 Y7.63 F60
G01 X8.16 Y7.88 F60
G01 X7.75 Y8.05 F60
G01 X7.32 Y8.13 F60
G01 X6.88 Y8.13 F60
G01 X6.45 Y8.05 F60
G01 X6.04 Y7.88 F60
G01 X5.68 Y7.63 F60
G01 X5.37 Y7.32 F60
G01 X5.12 Y6.96 F60
G01 X4.95 Y6.55 F60
G01 X4.87 Y6.12 F60
G01 X4.87 Y5.68 F60
G01 X4.95 Y5.25 F60
G01 X5.12 Y4.84 F60
G01 X5.37 Y4.48 F60
G01 X5.68 Y4.17 F60
G01 X6.04 Y3.92 F60
G01 X6.45 Y3.75 F60
G01 X6.88 Y3.67 F60
G01 X7.32 Y3.67 F60
G01 X7.75 Y3.75 F60
G01 X8.16 Y3.92 F60
G01 X8.52 Y4.17 F60
G01 X8.83 Y4.48 F60
G01 X9.08 Y4.84 F60
G01 X9.25 Y5.25 F60
G01 X9.33 Y5.68 F60
G00 Z2.00
G00 X12.36 Y5.63
G01 F30
G01 Z-0.09
G01 F60
G01 X12.52 Y5.63 F60
G01 X12.52 Y6.05 F60
G01 X12.52 Y6.07 F60
G01 X12.52 Y6.08 F60
G01 X12.52 Y6.10 F60
G01 X12.53 Y6.11 F60
G01 X12.53 Y6.12 F60
G01 X12.54 Y6.14 F60
G01 X12.55 Y6.15 F60
G01 X12.56 Y6.16 F60
G01 X12.57 Y6.17 F60
G01 X12.58 Y6.18 F60
G01 X12.59 Y6.19 F60
G01 X12.60 Y6.20 F60
G01 X12.62 Y6.21 F60
G01 X12.63 Y6.21 F60
G01 X12.64 Y6.22 F60
G01 X12.66 Y6.22 F60
G01 X12.67 Y6.22 F60
G01 X12.69 Y6.22 F60
G01 X13.11 Y6.22 F60
G01 X13.11 Y6.38 F60
G01 X12.70 Y6.38 F60
G01 X12.62 Y6.38 F60
G01 X12.56 Y6.36 F60
G01 X12.50 Y6.33 F60
G01 X12.45 Y6.29 F60
G01 X12.41 Y6.23 F60
G01 X12.38 Y6.18 F60
G01 X12.36 Y6.11 F60
G01 X12.35 Y6.03 F60
G01 X12.36 Y5.63 F60
G00 Z2.00
G00 X12.36 Y4.77
G01 F30
G01 Z-0.09
G01 F60
G01 X12.35 Y4.36 F60
G01 X12.36 Y4.28 F60
G01 X12.38 Y4.22 F60
G01 X12.41 Y4.16 F60
G01 X12.45 Y4.11 F60
G01 X12.50 Y4.07 F60
G01 X12.56 Y4.04 F60
G01 X12.62 Y4.02 F60
G01 X12.70 Y4.01 F60
G01 X13.11 Y4.02 F60
G01 X13.11 Y4.17 F60
G01 X12.69 Y4.17 F60
G01 X12.67 Y4.17 F60
G01 X12.66 Y4.18 F60
G01 X12.64 Y4.18 F60
G01 X12.63 Y4.18 F60
G01 X12.62 Y4.19 F60
G01 X12.60 Y4.20 F60
G01 X12.59 Y4.21 F60
G01 X12.58 Y4.21 F60
G01 X12.57 Y4.23 F60
G01 X12.55 Y4.24 F60
G01 X12.55 Y4.25 F60
G01 X12.54 Y4.26 F60
G01 X12.53 Y4.27 F60
G01 X12.53 Y4.29 F60
G01 X12.52 Y4.30 F60
G01 X12.52 Y4.32 F60
G01 X12.52 Y4.33 F60
G01 X12.52 Y4.35 F60
G01 X12.52 Y4.77 F60
G01 X12.36 Y4.77 F60
G00 Z2.00
G00 X15.04 Y4.54
G01 F30
G01 Z-0.09
G01 F60
G01 X14.99 Y4.62 F60
G01 X14.94 Y4.72 F60
G01 X14.93 Y4.74 F60
G01 X14.90 Y4.82 F60
G01 X14.90 Y4.85 F60
G01 X14.87 Y4.96 F60
G01 X14.85 Y5.06 F60
G01 X14.85 Y5.10 F60
G01 X14.85 Y5.20 F60
G01 X14.85 Y5.30 F60
G01 X14.85 Y5.34 F60
G01 X14.87 Y5.44 F60
G01 X14.90 Y5.55 F60
G01 X14.90 Y5.58 F60
G01 X14.93 Y5.65 F60
G01 X14.94 Y5.68 F60
G01 X14.99 Y5.78 F60
G01 X15.03 Y5.85 F60
G01 X15.00 Y5.85 F60
G01 X14.96 Y5.85 F60
G01 X14.94 Y5.85 F60
G01 X14.90 Y5.85 F60
G01 X14.86 Y5.85 F60
G01 X14.84 Y5.86 F60
G01 X14.81 Y5.87 F60
G01 X14.77 Y5.87 F60
G01 X14.77 Y4.52 F60
G01 X14.80 Y4.53 F60
G01 X14.84 Y4.54 F60
G01 X14.87 Y4.54 F60
G01 X14.90 Y4.55 F60
G01 X14.94 Y4.55 F60
G01 X14.97 Y4.55 F60
G01 X15.00 Y4.55 F60
G01 X15.04 Y4.54 F60
G00 Z2.00
G00 X17.09 Y4.16
G01 F30
G01 Z-0.09
G01 F60
G01 X17.08 Y4.18 F60
G01 X17.06 Y4.20 F60
G01 X17.04 Y4.23 F60
G01 X17.03 Y4.25 F60
G01 X17.02 Y4.28 F60
G01 X17.02 Y4.32 F60
G01 X17.01 Y4.34 F60
G01 X17.01 Y4.36 F60
G01 X17.01 Y4.37 F60
G01 X17.01 Y4.40 F60
G01 X17.02 Y4.42 F60
G01 X17.02 Y4.45 F60
G01 X17.02 Y4.46 F60
G01 X17.03 Y4.49 F60
G01 X17.04 Y4.51 F60
G01 X17.06 Y4.53 F60
G01 X17.10 Y4.60 F60
G01 X17.12 Y4.62 F60
G01 X17.13 Y4.63 F60
G01 X17.14 Y4.64 F60
G01 X17.16 Y4.66 F60
G01 X17.18 Y4.68 F60
G01 X17.20 Y4.69 F60
G01 X17.22 Y4.70 F60
G01 X17.24 Y4.71 F60
G01 X17.26 Y4.72 F60
G01 X17.29 Y4.72 F60
G01 X17.31 Y4.73 F60
G01 X17.33 Y4.73 F60
G01 X17.35 Y4.73 F60
G01 X17.38 Y4.73 F60
G01 X17.41 Y4.72 F60
G01 X17.44 Y4.72 F60
G01 X17.47 Y4.71 F60
G01 X17.49 Y4.69 F60
G01 X17.52 Y4.68 F60
G01 X17.54 Y4.66 F60
G01 X17.56 Y4.64 F60
G01 X17.58 Y4.62 F60
G01 X17.59 Y4.61 F60
G01 X17.60 Y4.59 F60
G01 X17.70 Y4.44 F60
G01 X17.87 Y4.28 F60
G01 X18.06 Y4.15 F60
G01 X18.27 Y4.06 F60
G01 X18.50 Y4.02 F60
G01 X18.74 Y4.02 F60
G01 X18.97 Y4.06 F60
G01 X19.18 Y4.15 F60
G01 X19.37 Y4.28 F60
G01 X19.54 Y4.44 F60
G01 X19.64 Y4.60 F60
G01 X19.66 Y4.62 F60
G01 X19.67 Y4.63 F60
G01 X19.70 Y4.66 F60
G01 X19.73 Y4.68 F60
G01 X19.75 Y4.69 F60
G01 X19.77 Y4.70 F60
G01 X19.81 Y4.72 F60
G01 X19.83 Y4.72 F60
G01 X19.86 Y4.73 F60
G01 X19.89 Y4.73 F60
G01 X19.92 Y4.73 F60
G01 X19.94 Y4.72 F60
G01 X19.97 Y4.72 F60
G01 X20.00 Y4.71 F60
G01 X20.03 Y4.70 F60
G01 X20.05 Y4.68 F60
G01 X20.08 Y4.66 F60
G01 X20.10 Y4.64 F60
G01 X20.12 Y4.62 F60
G01 X20.13 Y4.61 F60
G01 X20.14 Y4.59 F60
G01 X20.24 Y4.44 F60
G01 X20.41 Y4.28 F60
G01 X20.60 Y4.15 F60
G01 X20.81 Y4.06 F60
G01 X21.04 Y4.02 F60
G01 X21.28 Y4.02 F60
G01 X21.51 Y4.06 F60
G01 X21.72 Y4.15 F60
G01 X21.91 Y4.28 F60
G01 X22.08 Y4.44 F60
G01 X22.21 Y4.64 F60
G01 X22.30 Y4.85 F60
G01 X22.34 Y5.08 F60
G01 X22.34 Y5.32 F60
G01 X22.30 Y5.54 F60
G01 X22.21 Y5.76 F60
G01 X22.08 Y5.95 F60
G01 X22.06 Y5.97 F60
G01 X22.05 Y5.99 F60
G01 X22.04 Y6.00 F60
G01 X22.03 Y6.02 F60
G01 X22.01 Y6.05 F60
G01 X22.00 Y6.08 F60
G01 X22.00 Y6.11 F60
G01 X22.00 Y6.13 F60
G01 X21.99 Y6.16 F60
G01 X21.99 Y14.69 F60
G01 X21.99 Y14.72 F60
G01 X22.00 Y14.75 F60
G01 X22.01 Y14.78 F60
G01 X22.02 Y14.81 F60
G01 X22.03 Y14.83 F60
G01 X22.04 Y14.86 F60
G01 X22.06 Y14.88 F60
G01 X22.08 Y14.90 F60
G01 X29.75 Y22.57 F60
G01 X29.77 Y22.59 F60
G01 X29.79 Y22.61 F60
G01 X29.80 Y22.62 F60
G01 X29.83 Y22.63 F60
G01 X29.86 Y22.64 F60
G01 X29.88 Y22.65 F60
G01 X29.90 Y22.65 F60
G01 X29.93 Y22.66 F60
G01 X29.97 Y22.66 F60
G01 X30.00 Y22.66 F60
G01 X30.03 Y22.66 F60
G01 X30.06 Y22.65 F60
G01 X30.08 Y22.64 F60
G01 X30.10 Y22.63 F60
G01 X30.13 Y22.61 F60
G01 X30.16 Y22.59 F60
G01 X30.18 Y22.57 F60
G01 X30.20 Y22.55 F60
G01 X30.22 Y22.52 F60
G01 X30.23 Y22.50 F60
G01 X30.24 Y22.48 F60
G01 X30.25 Y22.45 F60
G01 X30.26 Y22.42 F60
G01 X30.27 Y22.39 F60
G01 X30.27 Y22.36 F60
G01 X30.27 Y22.33 F60
G01 X30.26 Y22.30 F60
G01 X30.27 Y22.27 F60
G01 X30.27 Y22.24 F60
G01 X30.27 Y20.71 F60
G01 X30.27 Y20.68 F60
G01 X30.26 Y20.65 F60
G01 X30.28 Y20.49 F60
G01 X30.33 Y20.33 F60
G01 X30.40 Y20.19 F60
G01 X30.51 Y20.06 F60
G01 X30.53 Y20.04 F60
G01 X30.55 Y20.02 F60
G01 X32.93 Y17.64 F60
G01 X32.95 Y17.62 F60
G01 X32.97 Y17.60 F60
G01 X32.98 Y17.58 F60
G01 X32.99 Y17.56 F60
G01 X32.99 Y17.55 F60
G01 X33.00 Y17.52 F60
G01 X33.01 Y17.49 F60
G01 X33.02 Y17.46 F60
G01 X33.02 Y17.43 F60
G01 X33.02 Y17.27 F60
G01 X33.07 Y17.01 F60
G01 X33.17 Y16.77 F60
G01 X33.31 Y16.55 F60
G01 X33.50 Y16.36 F60
G01 X33.72 Y16.22 F60
G01 X33.74 Y16.21 F60
G01 X33.76 Y16.20 F60
G01 X33.78 Y16.19 F60
G01 X33.80 Y16.17 F60
G01 X33.83 Y16.15 F60
G01 X33.85 Y16.12 F60
G01 X33.87 Y16.10 F60
G01 X33.88 Y16.08 F60
G01 X33.89 Y16.05 F60
G01 X33.90 Y16.03 F60
G01 X33.91 Y16.00 F60
G01 X33.92 Y15.97 F60
G01 X33.92 Y15.94 F60
G01 X33.92 Y15.13 F60
G01 X33.92 Y15.10 F60
G01 X33.91 Y15.08 F60
G01 X33.91 Y15.05 F60
G01 X33.90 Y15.03 F60
G01 X33.89 Y15.01 F60
G01 X33.88 Y14.99 F60
G01 X33.87 Y14.97 F60
G01 X33.75 Y14.79 F60
G01 X33.66 Y14.58 F60
G01 X33.62 Y14.36 F60
G01 X33.62 Y14.14 F60
G01 X33.66 Y13.92 F60
G01 X33.75 Y13.71 F60
G01 X33.87 Y13.53 F60
G01 X34.03 Y13.37 F60
G01 X34.21 Y13.25 F60
G01 X34.42 Y13.16 F60
G01 X34.64 Y13.12 F60
G01 X34.86 Y13.12 F60
G01 X35.08 Y13.16 F60
G01 X35.29 Y13.25 F60
G01 X35.47 Y13.37 F60
G01 X35.63 Y13.53 F60
G01 X35.75 Y13.71 F60
G01 X35.84 Y13.92 F60
G01 X35.86 Y14.01 F60
G01 X35.88 Y14.14 F60
G01 X35.88 Y14.36 F60
G01 X35.84 Y14.58 F60
G01 X35.75 Y14.79 F60
G01 X35.63 Y14.97 F60
G01 X35.62 Y14.99 F60
G01 X35.61 Y15.00 F60
G01 X35.60 Y15.02 F60
G01 X35.59 Y15.05 F60
G01 X35.59 Y15.08 F60
G01 X35.58 Y15.10 F60
G01 X35.58 Y15.13 F60
G01 X35.58 Y16.84 F60
G01 X35.58 Y16.86 F60
G01 X35.59 Y16.88 F60
G01 X35.59 Y16.92 F60
G01 X35.60 Y16.94 F60
G01 X35.63 Y17.01 F60
G01 X35.68 Y17.27 F60
G01 X35.68 Y17.53 F60
G01 X35.63 Y17.79 F60
G01 X35.53 Y18.03 F60
G01 X35.39 Y18.25 F60
G01 X35.20 Y18.44 F60
G01 X34.98 Y18.58 F60
G01 X34.74 Y18.68 F60
G01 X34.48 Y18.73 F60
G01 X34.32 Y18.73 F60
G01 X34.29 Y18.73 F60
G01 X34.26 Y18.74 F60
G01 X34.23 Y18.75 F60
G01 X34.20 Y18.76 F60
G01 X34.18 Y18.77 F60
G01 X34.16 Y18.78 F60
G01 X34.13 Y18.80 F60
G01 X34.11 Y18.82 F60
G01 X32.02 Y20.91 F60
G01 X32.00 Y20.93 F60
G01 X31.98 Y20.95 F60
G01 X31.97 Y20.97 F60
G01 X31.96 Y21.00 F60
G01 X31.95 Y21.01 F60
G01 X31.94 Y21.04 F60
G01 X31.94 Y21.06 F60
G01 X31.93 Y21.09 F60
G01 X31.93 Y21.12 F60
G01 X31.93 Y21.83 F60
G01 X31.93 Y21.85 F60
G01 X31.94 Y21.87 F60
G01 X31.94 Y21.89 F60
G01 X31.95 Y21.92 F60
G01 X31.96 Y21.95 F60
G01 X31.97 Y21.97 F60
G01 X31.98 Y21.99 F60
G01 X31.99 Y22.00 F60
G01 X32.00 Y22.02 F60
G01 X32.02 Y22.04 F60
G01 X32.57 Y22.59 F60
G01 X32.60 Y22.62 F60
G01 X32.62 Y22.63 F60
G01 X32.63 Y22.64 F60
G01 X32.65 Y22.65 F60
G01 X32.67 Y22.66 F60
G01 X32.71 Y22.67 F60
G01 X32.73 Y22.68 F60
G01 X32.75 Y22.68 F60
G01 X32.76 Y22.68 F60
G01 X32.79 Y22.68 F60
G01 X32.82 Y22.68 F60
G01 X32.85 Y22.68 F60
G01 X32.87 Y22.67 F60
G01 X32.88 Y22.67 F60
G01 X32.91 Y22.66 F60
G01 X32.94 Y22.64 F60
G01 X32.96 Y22.63 F60
G01 X32.98 Y22.62 F60
G01 X32.99 Y22.61 F60
G01 X33.00 Y22.59 F60
G01 X33.02 Y22.57 F60
G01 X33.04 Y22.54 F60
G01 X33.05 Y22.52 F60
G01 X33.06 Y22.51 F60
G01 X33.07 Y22.49 F60
G01 X33.08 Y22.47 F60
G01 X33.08 Y22.46 F60
G01 X33.08 Y22.44 F60
G01 X33.09 Y22.41 F60
G01 X33.09 Y22.38 F60
G01 X33.09 Y22.36 F60
G01 X33.09 Y22.34 F60
G01 X33.08 Y22.31 F60
G01 X33.07 Y22.29 F60
G01 X33.05 Y22.21 F60
G01 X33.01 Y21.95 F60
G01 X33.03 Y21.69 F60
G01 X33.09 Y21.43 F60
G01 X33.15 Y21.31 F60
G01 X33.27 Y21.43 F60
G01 X33.26 Y21.46 F60
G01 X33.23 Y21.55 F60
G01 X33.22 Y21.57 F60
G01 X33.20 Y21.67 F60
G01 X33.18 Y21.79 F60
G01 X33.18 Y21.90 F60
G01 X33.18 Y22.02 F60
G01 X33.20 Y22.13 F60
G01 X33.22 Y22.23 F60
G01 X33.23 Y22.25 F60
G01 X33.26 Y22.35 F60
G01 X33.31 Y22.45 F60
G01 X33.32 Y22.46 F60
G01 X33.37 Y22.55 F60
G01 X33.44 Y22.64 F60
G01 X33.45 Y22.65 F60
G01 X33.52 Y22.73 F60
G01 X33.60 Y22.80 F60
G01 X33.61 Y22.81 F60
G01 X33.70 Y22.88 F60
G01 X33.79 Y22.93 F60
G01 X33.80 Y22.94 F60
G01 X33.90 Y22.99 F60
G01 X34.00 Y23.02 F60
G01 X34.02 Y23.03 F60
G01 X34.12 Y23.05 F60
G01 X34.23 Y23.07 F60
G01 X34.35 Y23.07 F60
G01 X34.46 Y23.07 F60
G01 X34.58 Y23.05 F60
G01 X34.68 Y23.03 F60
G01 X34.70 Y23.02 F60
G01 X34.79 Y22.99 F60
G01 X34.82 Y22.98 F60
G01 X34.94 Y23.10 F60
G01 X34.91 Y23.12 F60
G01 X34.66 Y23.20 F60
G01 X34.40 Y23.24 F60
G01 X34.14 Y23.22 F60
G01 X33.94 Y23.17 F60
G01 X33.92 Y23.17 F60
G01 X33.89 Y23.16 F60
G01 X33.86 Y23.16 F60
G01 X33.83 Y23.16 F60
G01 X33.80 Y23.17 F60
G01 X33.77 Y23.18 F60
G01 X33.75 Y23.19 F60
G01 X33.72 Y23.20 F60
G01 X33.70 Y23.22 F60
G01 X33.67 Y23.24 F60
G01 X33.65 Y23.26 F60
G01 X33.63 Y23.28 F60
G01 X33.61 Y23.30 F60
G01 X33.60 Y23.33 F60
G01 X33.59 Y23.35 F60
G01 X33.58 Y23.38 F60
G01 X33.57 Y23.41 F60
G01 X33.57 Y23.44 F60
G01 X33.57 Y23.47 F60
G01 X33.57 Y23.50 F60
G01 X33.57 Y23.53 F60
G01 X33.58 Y23.56 F60
G01 X33.59 Y23.59 F60
G01 X33.60 Y23.61 F60
G01 X33.61 Y23.63 F60
G01 X33.63 Y23.65 F60
G01 X33.66 Y23.68 F60
G01 X36.85 Y26.87 F60
G01 X36.87 Y26.89 F60
G01 X36.89 Y26.91 F60
G01 X37.00 Y27.04 F60
G01 X37.07 Y27.18 F60
G01 X37.12 Y27.34 F60
G01 X37.14 Y27.50 F60
G01 X37.13 Y27.53 F60
G01 X37.13 Y27.56 F60
G01 X37.13 Y35.82 F60
G01 X37.13 Y35.85 F60
G01 X37.14 Y35.88 F60
G01 X37.15 Y35.91 F60
G01 X37.16 Y35.94 F60
G01 X37.17 Y35.96 F60
G01 X37.18 Y35.98 F60
G01 X37.30 Y36.16 F60
G01 X37.39 Y36.37 F60
G01 X37.43 Y36.59 F60
G01 X37.43 Y36.81 F60
G01 X37.39 Y37.03 F60
G01 X37.30 Y37.24 F60
G01 X37.18 Y37.42 F60
G01 X37.02 Y37.58 F60
G01 X36.84 Y37.70 F60
G01 X36.63 Y37.79 F60
G01 X36.41 Y37.83 F60
G01 X36.19 Y37.83 F60
G01 X35.97 Y37.79 F60
G01 X35.76 Y37.70 F60
G01 X35.58 Y37.58 F60
G01 X35.45 Y37.45 F60
G01 X35.43 Y37.44 F60
G01 X35.42 Y37.43 F60
G01 X35.40 Y37.41 F60
G01 X35.38 Y37.40 F60
G01 X35.37 Y37.39 F60
G01 X35.34 Y37.38 F60
G01 X35.32 Y37.38 F60
G01 X35.30 Y37.37 F60
G01 X35.27 Y37.36 F60
G01 X35.24 Y37.36 F60
G01 X35.21 Y37.36 F60
G01 X35.18 Y37.37 F60
G01 X35.15 Y37.38 F60
G01 X35.12 Y37.39 F60
G01 X35.09 Y37.40 F60
G01 X35.06 Y37.42 F60
G01 X35.04 Y37.44 F60
G01 X35.02 Y37.45 F60
G01 X35.01 Y37.47 F60
G01 X34.99 Y37.49 F60
G01 X34.97 Y37.52 F60
G01 X34.96 Y37.55 F60
G01 X34.94 Y37.58 F60
G01 X34.94 Y37.61 F60
G01 X34.93 Y37.63 F60
G01 X34.93 Y37.66 F60
G01 X34.93 Y38.03 F60
G01 X34.93 Y38.06 F60
G01 X34.94 Y38.09 F60
G01 X34.95 Y38.12 F60
G01 X34.96 Y38.15 F60
G01 X34.97 Y38.17 F60
G01 X34.98 Y38.20 F60
G01 X35.00 Y38.22 F60
G01 X35.02 Y38.24 F60
G01 X37.26 Y40.48 F60
G01 X37.28 Y40.50 F60
G01 X37.30 Y40.52 F60
G01 X37.33 Y40.53 F60
G01 X37.35 Y40.54 F60
G01 X37.38 Y40.55 F60
G01 X37.41 Y40.56 F60
G01 X37.44 Y40.57 F60
G01 X37.47 Y40.57 F60
G01 X53.67 Y40.57 F60
G01 X53.69 Y40.57 F60
G01 X53.72 Y40.56 F60
G01 X53.88 Y40.58 F60
G01 X54.04 Y40.63 F60
G01 X54.19 Y40.70 F60
G01 X54.31 Y40.81 F60
G01 X54.33 Y40.83 F60
G01 X54.35 Y40.85 F60
G01 X60.49 Y46.99 F60
G01 X60.50 Y47.00 F60
G01 X60.54 Y47.03 F60
G01 X60.56 Y47.04 F60
G01 X60.58 Y47.05 F60
G01 X60.59 Y47.05 F60
G01 X60.61 Y47.06 F60
G01 X60.64 Y47.07 F60
G01 X60.67 Y47.07 F60
G01 X60.69 Y47.07 F60
G01 X60.76 Y47.07 F60
G01 X60.78 Y47.07 F60
G01 X60.81 Y47.07 F60
G01 X60.84 Y47.06 F60
G01 X60.87 Y47.05 F60
G01 X60.89 Y47.04 F60
G01 X60.90 Y47.04 F60
G01 X60.92 Y47.02 F60
G01 X60.95 Y47.00 F60
G01 X60.97 Y46.98 F60
G01 X60.98 Y46.97 F60
G01 X60.99 Y46.96 F60
G01 X61.01 Y46.94 F60
G01 X61.02 Y46.90 F60
G01 X61.03 Y46.88 F60
G01 X61.04 Y46.86 F60
G01 X61.04 Y46.85 F60
G01 X61.05 Y46.82 F60
G01 X61.05 Y46.89 F60
G01 X61.05 Y46.91 F60
G01 X61.05 Y46.99 F60
G01 X61.06 Y47.06 F60
G01 X61.06 Y47.08 F60
G01 X61.08 Y47.15 F60
G01 X61.11 Y47.24 F60
G01 X61.15 Y47.31 F60
G01 X61.19 Y47.38 F60
G01 X61.20 Y47.39 F60
G01 X61.24 Y47.45 F60
G01 X61.25 Y47.46 F60
G01 X61.30 Y47.52 F60
G01 X61.36 Y47.58 F60
G01 X61.43 Y47.63 F60
G01 X61.49 Y47.66 F60
G01 X61.49 Y47.84 F60
G01 X61.47 Y47.83 F60
G01 X61.30 Y47.72 F60
G01 X61.28 Y47.71 F60
G01 X61.27 Y47.70 F60
G01 X61.25 Y47.69 F60
G01 X61.23 Y47.67 F60
G01 X61.20 Y47.66 F60
G01 X61.16 Y47.65 F60
G01 X61.14 Y47.65 F60
G01 X61.12 Y47.65 F60
G01 X61.09 Y47.64 F60
G01 X61.06 Y47.65 F60
G01 X61.04 Y47.65 F60
G01 X61.02 Y47.65 F60
G01 X61.00 Y47.66 F60
G01 X60.98 Y47.67 F60
G01 X60.95 Y47.68 F60
G01 X60.94 Y47.69 F60
G01 X60.92 Y47.70 F60
G01 X60.90 Y47.72 F60
G01 X60.88 Y47.73 F60
G01 X60.86 Y47.75 F60
G01 X60.85 Y47.76 F60
G01 X60.84 Y47.78 F60
G01 X60.83 Y47.81 F60
G01 X60.82 Y47.83 F60
G01 X60.81 Y47.85 F60
G01 X60.80 Y47.87 F60
G01 X60.80 Y47.89 F60
G01 X60.79 Y47.92 F60
G01 X60.79 Y47.95 F60
G01 X60.79 Y49.35 F60
G01 X60.79 Y49.38 F60
G01 X60.80 Y49.40 F60
G01 X60.81 Y49.43 F60
G01 X60.82 Y49.46 F60
G01 X60.83 Y49.49 F60
G01 X60.85 Y49.51 F60
G01 X60.86 Y49.54 F60
G01 X60.89 Y49.56 F60
G01 X60.90 Y49.57 F60
G01 X60.92 Y49.59 F60
G01 X60.95 Y49.61 F60
G01 X60.98 Y49.62 F60
G01 X60.99 Y49.62 F60
G01 X61.01 Y49.63 F60
G01 X61.03 Y49.64 F60
G01 X61.07 Y49.64 F60
G01 X61.09 Y49.64 F60
G01 X61.10 Y49.64 F60
G01 X61.12 Y49.64 F60
G01 X61.15 Y49.64 F60
G01 X61.19 Y49.63 F60
G01 X61.21 Y49.62 F60
G01 X61.24 Y49.60 F60
G01 X61.27 Y49.59 F60
G01 X61.29 Y49.57 F60
G01 X61.30 Y49.56 F60
G01 X61.31 Y49.55 F60
G01 X61.33 Y49.53 F60
G01 X61.35 Y49.50 F60
G01 X61.37 Y49.46 F60
G01 X61.41 Y49.41 F60
G01 X61.46 Y49.37 F60
G01 X61.52 Y49.34 F60
G01 X61.58 Y49.32 F60
G01 X61.66 Y49.31 F60
G01 X62.39 Y49.31 F60
G01 X62.41 Y49.31 F60
G01 X62.44 Y49.31 F60
G01 X62.46 Y49.30 F60
G01 X62.48 Y49.30 F60
G01 X62.50 Y49.29 F60
G01 X62.52 Y49.28 F60
G01 X62.54 Y49.27 F60
G01 X62.57 Y49.25 F60
G01 X62.59 Y49.23 F60
G01 X62.98 Y48.84 F60
G01 X63.00 Y48.82 F60
G01 X63.02 Y48.80 F60
G01 X63.03 Y48.77 F60
G01 X63.04 Y48.75 F60
G01 X63.05 Y48.72 F60
G01 X63.06 Y48.69 F60
G01 X63.07 Y48.66 F60
G01 X63.07 Y48.63 F60
G01 X63.07 Y47.93 F60
G01 X63.07 Y47.91 F60
G01 X63.07 Y47.89 F60
G01 X63.06 Y47.87 F60
G01 X63.05 Y47.84 F60
G01 X63.04 Y47.81 F60
G01 X63.03 Y47.79 F60
G01 X63.02 Y47.77 F60
G01 X63.00 Y47.74 F60
G01 X62.98 Y47.72 F60
G01 X62.97 Y47.70 F60
G01 X62.96 Y47.69 F60
G01 X62.94 Y47.68 F60
G01 X62.92 Y47.67 F60
G01 X62.91 Y47.66 F60
G01 X62.89 Y47.65 F60
G01 X62.86 Y47.64 F60
G01 X62.83 Y47.63 F60
G01 X62.80 Y47.63 F60
G01 X62.78 Y47.63 F60
G01 X62.74 Y47.63 F60
G01 X62.71 Y47.63 F60
G01 X62.68 Y47.64 F60
G01 X62.66 Y47.65 F60
G01 X62.63 Y47.66 F60
G01 X62.60 Y47.67 F60
G01 X62.58 Y47.69 F60
G01 X62.56 Y47.70 F60
G01 X62.54 Y47.72 F60
G01 X62.37 Y47.83 F60
G01 X62.35 Y47.84 F60
G01 X62.35 Y47.66 F60
G01 X62.41 Y47.63 F60
G01 X62.47 Y47.58 F60
G01 X62.48 Y47.57 F60
G01 X62.54 Y47.52 F60
G01 X62.60 Y47.46 F60
G01 X62.64 Y47.39 F60
G01 X62.65 Y47.38 F60
G01 X62.69 Y47.32 F60
G01 X62.70 Y47.30 F60
G01 X62.72 Y47.24 F60
G01 X62.73 Y47.23 F60
G01 X62.76 Y47.15 F60
G01 X62.78 Y47.08 F60
G01 X62.78 Y47.06 F60
G01 X62.79 Y46.99 F60
G01 X62.79 Y46.90 F60
G01 X62.79 Y46.81 F60
G01 X62.78 Y46.74 F60
G01 X62.78 Y46.72 F60
G01 X62.76 Y46.65 F60
G01 X62.73 Y46.57 F60
G01 X62.72 Y46.56 F60
G01 X62.70 Y46.50 F60
G01 X62.69 Y46.48 F60
G01 X62.65 Y46.42 F60
G01 X62.64 Y46.41 F60
G01 X62.60 Y46.34 F60
G01 X62.54 Y46.28 F60
G01 X62.48 Y46.23 F60
G01 X62.47 Y46.22 F60
G01 X62.41 Y46.17 F60
G01 X62.35 Y46.14 F60
G01 X62.35 Y45.96 F60
G01 X62.37 Y45.97 F60
G01 X62.54 Y46.08 F60
G01 X62.56 Y46.10 F60
G01 X62.59 Y46.12 F60
G01 X62.61 Y46.13 F60
G01 X62.63 Y46.14 F60
G01 X62.66 Y46.16 F60
G01 X62.69 Y46.16 F60
G01 X62.71 Y46.17 F60
G01 X62.72 Y46.17 F60
G01 X62.74 Y46.17 F60
G01 X62.78 Y46.17 F60
G01 X62.80 Y46.17 F60
G01 X62.83 Y46.17 F60
G01 X62.86 Y46.16 F60
G01 X62.88 Y46.15 F60
G01 X62.89 Y46.15 F60
G01 X62.92 Y46.13 F60
G01 X62.94 Y46.12 F60
G01 X62.96 Y46.10 F60
G01 X62.98 Y46.08 F60
G01 X63.00 Y46.06 F60
G01 X63.02 Y46.04 F60
G01 X63.03 Y46.02 F60
G01 X63.04 Y46.00 F60
G01 X63.05 Y45.98 F60
G01 X63.05 Y45.96 F60
G01 X63.06 Y45.93 F60
G01 X63.07 Y45.90 F60
G01 X63.07 Y45.87 F60
G01 X63.07 Y43.02 F60
G01 X63.07 Y42.99 F60
G01 X63.06 Y42.96 F60
G01 X63.05 Y42.93 F60
G01 X63.05 Y42.91 F60
G01 X63.03 Y42.88 F60
G01 X63.02 Y42.86 F60
G01 X63.01 Y42.85 F60
G01 X62.99 Y42.82 F60
G01 X62.98 Y42.81 F60
G01 X61.74 Y41.56 F60
G01 X61.71 Y41.54 F60
G01 X61.69 Y41.53 F60
G01 X61.67 Y41.51 F60
G01 X61.64 Y41.50 F60
G01 X61.61 Y41.49 F60
G01 X61.58 Y41.48 F60
G01 X61.37 Y41.44 F60
G01 X61.16 Y41.35 F60
G01 X60.98 Y41.23 F60
G01 X60.96 Y41.22 F60
G01 X60.94 Y41.21 F60
G01 X60.91 Y41.20 F60
G01 X60.88 Y41.19 F60
G01 X60.87 Y41.19 F60
G01 X60.84 Y41.18 F60
G01 X60.82 Y41.18 F60
G01 X57.58 Y41.18 F60
G01 X57.56 Y41.18 F60
G01 X57.53 Y41.19 F60
G01 X57.50 Y41.19 F60
G01 X57.47 Y41.20 F60
G01 X57.45 Y41.21 F60
G01 X57.44 Y41.22 F60
G01 X57.42 Y41.23 F60
G01 X57.24 Y41.35 F60
G01 X57.03 Y41.44 F60
G01 X56.81 Y41.48 F60
G01 X56.59 Y41.48 F60
G01 X56.37 Y41.44 F60
G01 X56.16 Y41.35 F60
G01 X55.98 Y41.23 F60
G01 X55.82 Y41.07 F60
G01 X55.70 Y40.89 F60
G01 X55.61 Y40.68 F60
G01 X55.57 Y40.46 F60
G01 X55.57 Y40.24 F60
G01 X55.61 Y40.02 F60
G01 X55.70 Y39.81 F60
G01 X55.82 Y39.63 F60
G01 X55.98 Y39.47 F60
G01 X56.16 Y39.35 F60
G01 X56.37 Y39.26 F60
G01 X56.59 Y39.22 F60
G01 X56.81 Y39.22 F60
G01 X57.03 Y39.26 F60
G01 X57.24 Y39.35 F60
G01 X57.42 Y39.47 F60
G01 X57.44 Y39.48 F60
G01 X57.45 Y39.49 F60
G01 X57.47 Y39.50 F60
G01 X57.50 Y39.51 F60
G01 X57.53 Y39.51 F60
G01 X57.56 Y39.52 F60
G01 X57.58 Y39.52 F60
G01 X60.82 Y39.52 F60
G01 X60.85 Y39.52 F60
G01 X60.87 Y39.51 F60
G01 X60.90 Y39.51 F60
G01 X60.91 Y39.50 F60
G01 X60.93 Y39.49 F60
G01 X60.95 Y39.49 F60
G01 X60.98 Y39.47 F60
G01 X61.16 Y39.35 F60
G01 X61.37 Y39.26 F60
G01 X61.58 Y39.22 F60
G01 X61.61 Y39.21 F60
G01 X61.64 Y39.20 F60
G01 X61.67 Y39.19 F60
G01 X61.69 Y39.17 F60
G01 X61.71 Y39.16 F60
G01 X61.74 Y39.14 F60
G01 X63.03 Y37.84 F60
G01 X63.05 Y37.82 F60
G01 X63.07 Y37.80 F60
G01 X63.08 Y37.78 F60
G01 X63.09 Y37.75 F60
G01 X63.10 Y37.74 F60
G01 X63.11 Y37.71 F60
G01 X63.11 Y37.68 F60
G01 X63.12 Y37.66 F60
G01 X63.12 Y37.63 F60
G01 X63.12 Y31.53 F60
G01 X63.12 Y31.50 F60
G01 X63.11 Y31.48 F60
G01 X63.11 Y31.45 F60
G01 X63.10 Y31.44 F60
G01 X63.09 Y31.42 F60
G01 X63.08 Y31.39 F60
G01 X63.06 Y31.36 F60
G01 X63.05 Y31.34 F60
G01 X63.03 Y31.32 F60
G01 X63.01 Y31.30 F60
G01 X62.99 Y31.29 F60
G01 X62.98 Y31.28 F60
G01 X62.95 Y31.27 F60
G01 X62.93 Y31.26 F60
G01 X62.90 Y31.25 F60
G01 X62.88 Y31.24 F60
G01 X62.85 Y31.23 F60
G01 X62.84 Y31.23 F60
G01 X62.81 Y31.23 F60
G01 X62.79 Y31.23 F60
G01 X62.76 Y31.24 F60
G01 X62.73 Y31.24 F60
G01 X62.71 Y31.25 F60
G01 X62.69 Y31.26 F60
G01 X62.67 Y31.27 F60
G01 X62.65 Y31.28 F60
G01 X62.62 Y31.30 F60
G01 X62.60 Y31.32 F60
G01 X62.58 Y31.34 F60
G01 X62.57 Y31.36 F60
G01 X62.55 Y31.39 F60
G01 X62.54 Y31.41 F60
G01 X62.53 Y31.42 F60
G01 X62.53 Y31.45 F60
G01 X62.47 Y31.62 F60
G01 X62.40 Y31.76 F60
G01 X62.29 Y31.89 F60
G01 X62.27 Y31.91 F60
G01 X62.25 Y31.93 F60
G01 X55.13 Y39.05 F60
G01 X55.11 Y39.07 F60
G01 X55.09 Y39.09 F60
G01 X54.96 Y39.20 F60
G01 X54.82 Y39.27 F60
G01 X54.66 Y39.32 F60
G01 X54.50 Y39.34 F60
G01 X54.47 Y39.33 F60
G01 X54.44 Y39.33 F60
G01 X45.16 Y39.33 F60
G01 X45.13 Y39.33 F60
G01 X45.10 Y39.34 F60
G01 X44.94 Y39.32 F60
G01 X44.78 Y39.27 F60
G01 X44.64 Y39.20 F60
G01 X44.51 Y39.09 F60
G01 X44.49 Y39.07 F60
G01 X44.47 Y39.05 F60
G01 X43.34 Y37.91 F60
G01 X43.32 Y37.90 F60
G01 X43.31 Y37.89 F60
G01 X43.29 Y37.87 F60
G01 X43.27 Y37.86 F60
G01 X43.24 Y37.85 F60
G01 X43.21 Y37.84 F60
G01 X43.18 Y37.83 F60
G01 X42.97 Y37.79 F60
G01 X42.76 Y37.70 F60
G01 X42.58 Y37.58 F60
G01 X42.42 Y37.42 F60
G01 X42.30 Y37.24 F60
G01 X42.21 Y37.03 F60
G01 X42.17 Y36.82 F60
G01 X42.16 Y36.79 F60
G01 X42.15 Y36.77 F60
G01 X42.14 Y36.74 F60
G01 X42.13 Y36.73 F60
G01 X42.12 Y36.71 F60
G01 X42.11 Y36.69 F60
G01 X42.09 Y36.66 F60
G01 X41.55 Y36.13 F60
G01 X41.53 Y36.11 F60
G01 X41.51 Y36.09 F60
G01 X41.40 Y35.96 F60
G01 X41.33 Y35.82 F60
G01 X41.28 Y35.66 F60
G01 X41.26 Y35.50 F60
G01 X41.27 Y35.47 F60
G01 X41.27 Y35.44 F60
G01 X41.27 Y26.96 F60
G01 X41.27 Y26.93 F60
G01 X41.26 Y26.90 F60
G01 X41.28 Y26.74 F60
G01 X41.33 Y26.58 F60
G01 X41.40 Y26.44 F60
G01 X41.51 Y26.31 F60
G01 X41.53 Y26.29 F60
G01 X41.55 Y26.27 F60
G01 X43.67 Y24.15 F60
G01 X43.69 Y24.13 F60
G01 X43.71 Y24.11 F60
G01 X43.84 Y24.00 F60
G01 X43.98 Y23.93 F60
G01 X44.14 Y23.88 F60
G01 X44.30 Y23.86 F60
G01 X44.33 Y23.87 F60
G01 X44.36 Y23.87 F60
G01 X45.83 Y23.87 F60
G01 X45.86 Y23.87 F60
G01 X45.89 Y23.86 F60
G01 X45.92 Y23.85 F60
G01 X45.94 Y23.85 F60
G01 X45.97 Y23.83 F60
G01 X45.99 Y23.82 F60
G01 X46.02 Y23.80 F60
G01 X46.04 Y23.78 F60
G01 X46.88 Y22.94 F60
G01 X46.90 Y22.92 F60
G01 X46.91 Y22.90 F60
G01 X46.93 Y22.87 F60
G01 X46.94 Y22.85 F60
G01 X46.95 Y22.82 F60
G01 X46.96 Y22.78 F60
G01 X46.97 Y22.76 F60
G01 X46.97 Y22.73 F60
G01 X46.97 Y20.82 F60
G01 X46.97 Y20.79 F60
G01 X46.96 Y20.77 F60
G01 X46.96 Y20.76 F60
G01 X46.95 Y20.73 F60
G01 X46.95 Y20.71 F60
G01 X46.94 Y20.70 F60
G01 X46.93 Y20.67 F60
G01 X46.92 Y20.65 F60
G01 X46.90 Y20.63 F60
G01 X46.88 Y20.61 F60
G01 X45.09 Y18.82 F60
G01 X45.07 Y18.80 F60
G01 X45.06 Y18.80 F60
G01 X45.05 Y18.78 F60
G01 X45.03 Y18.77 F60
G01 X45.00 Y18.76 F60
G01 X44.97 Y18.75 F60
G01 X44.94 Y18.74 F60
G01 X44.91 Y18.73 F60
G01 X44.88 Y18.73 F60
G01 X44.72 Y18.73 F60
G01 X44.46 Y18.68 F60
G01 X44.22 Y18.58 F60
G01 X44.00 Y18.44 F60
G01 X43.81 Y18.25 F60
G01 X43.67 Y18.03 F60
G01 X43.57 Y17.79 F60
G01 X43.52 Y17.53 F60
G01 X43.52 Y17.27 F60
G01 X43.57 Y17.01 F60
G01 X43.67 Y16.77 F60
G01 X43.81 Y16.55 F60
G01 X44.00 Y16.36 F60
G01 X44.22 Y16.22 F60
G01 X44.46 Y16.12 F60
G01 X44.72 Y16.07 F60
G01 X44.98 Y16.07 F60
G01 X45.24 Y16.12 F60
G01 X45.48 Y16.22 F60
G01 X45.70 Y16.36 F60
G01 X45.89 Y16.55 F60
G01 X46.03 Y16.77 F60
G01 X46.13 Y17.01 F60
G01 X46.18 Y17.27 F60
G01 X46.18 Y17.43 F60
G01 X46.18 Y17.46 F60
G01 X46.19 Y17.49 F60
G01 X46.20 Y17.52 F60
G01 X46.21 Y17.55 F60
G01 X46.22 Y17.57 F60
G01 X46.23 Y17.59 F60
G01 X46.25 Y17.62 F60
G01 X46.27 Y17.64 F60
G01 X48.35 Y19.72 F60
G01 X48.37 Y19.74 F60
G01 X48.39 Y19.76 F60
G01 X48.50 Y19.89 F60
G01 X48.57 Y20.03 F60
G01 X48.62 Y20.19 F60
G01 X48.64 Y20.35 F60
G01 X48.63 Y20.38 F60
G01 X48.63 Y20.41 F60
G01 X48.63 Y23.14 F60
G01 X48.63 Y23.17 F60
G01 X48.64 Y23.20 F60
G01 X48.62 Y23.36 F60
G01 X48.57 Y23.52 F60
G01 X48.50 Y23.66 F60
G01 X48.39 Y23.79 F60
G01 X48.37 Y23.81 F60
G01 X48.35 Y23.83 F60
G01 X46.93 Y25.25 F60
G01 X46.91 Y25.27 F60
G01 X46.89 Y25.29 F60
G01 X46.76 Y25.40 F60
G01 X46.62 Y25.47 F60
G01 X46.46 Y25.52 F60
G01 X46.30 Y25.54 F60
G01 X46.27 Y25.53 F60
G01 X46.24 Y25.53 F60
G01 X44.77 Y25.53 F60
G01 X44.74 Y25.53 F60
G01 X44.72 Y25.54 F60
G01 X44.69 Y25.54 F60
G01 X44.67 Y25.55 F60
G01 X44.65 Y25.56 F60
G01 X44.63 Y25.57 F60
G01 X44.61 Y25.58 F60
G01 X44.58 Y25.60 F60
G01 X44.56 Y25.62 F60
G01 X44.00 Y26.18 F60
G01 X43.98 Y26.20 F60
G01 X43.96 Y26.22 F60
G01 X43.95 Y26.25 F60
G01 X43.94 Y26.26 F60
G01 X43.93 Y26.29 F60
G01 X43.92 Y26.31 F60
G01 X43.91 Y26.34 F60
G01 X43.91 Y26.37 F60
G01 X43.91 Y26.40 F60
G01 X43.91 Y26.43 F60
G01 X43.91 Y26.45 F60
G01 X43.92 Y26.47 F60
G01 X43.92 Y26.49 F60
G01 X43.93 Y26.52 F60
G01 X43.94 Y26.54 F60
G01 X43.96 Y26.56 F60
G01 X43.97 Y26.58 F60
G01 X43.99 Y26.60 F60
G01 X44.00 Y26.62 F60
G01 X44.02 Y26.63 F60
G01 X44.04 Y26.65 F60
G01 X44.07 Y26.66 F60
G01 X44.09 Y26.67 F60
G01 X44.11 Y26.68 F60
G01 X44.13 Y26.69 F60
G01 X44.15 Y26.69 F60
G01 X44.17 Y26.70 F60
G01 X44.21 Y26.70 F60
G01 X44.24 Y26.70 F60
G01 X44.27 Y26.69 F60
G01 X44.30 Y26.68 F60
G01 X44.32 Y26.68 F60
G01 X44.46 Y26.62 F60
G01 X44.72 Y26.57 F60
G01 X44.98 Y26.57 F60
G01 X45.24 Y26.62 F60
G01 X45.48 Y26.72 F60
G01 X45.70 Y26.86 F60
G01 X45.89 Y27.05 F60
G01 X46.03 Y27.27 F60
G01 X46.13 Y27.51 F60
G01 X46.18 Y27.77 F60
G01 X46.18 Y27.93 F60
G01 X46.18 Y27.96 F60
G01 X46.19 Y27.99 F60
G01 X46.20 Y28.02 F60
G01 X46.21 Y28.05 F60
G01 X46.22 Y28.07 F60
G01 X46.23 Y28.09 F60
G01 X46.25 Y28.12 F60
G01 X46.27 Y28.14 F60
G01 X48.35 Y30.22 F60
G01 X48.37 Y30.24 F60
G01 X48.39 Y30.26 F60
G01 X48.50 Y30.39 F60
G01 X48.57 Y30.53 F60
G01 X48.62 Y30.69 F60
G01 X48.64 Y30.85 F60
G01 X48.63 Y30.88 F60
G01 X48.63 Y30.91 F60
G01 X48.63 Y35.82 F60
G01 X48.63 Y35.84 F60
G01 X48.64 Y35.87 F60
G01 X48.64 Y35.90 F60
G01 X48.65 Y35.93 F60
G01 X48.66 Y35.95 F60
G01 X48.67 Y35.96 F60
G01 X48.68 Y35.98 F60
G01 X48.80 Y36.16 F60
G01 X48.89 Y36.37 F60
G01 X48.93 Y36.59 F60
G01 X48.93 Y36.81 F60
G01 X48.89 Y37.03 F60
G01 X48.80 Y37.25 F60
G01 X48.79 Y37.27 F60
G01 X48.78 Y37.30 F60
G01 X48.78 Y37.31 F60
G01 X48.78 Y37.34 F60
G01 X48.78 Y37.37 F60
G01 X48.78 Y37.39 F60
G01 X48.78 Y37.40 F60
G01 X48.78 Y37.42 F60
G01 X48.79 Y37.45 F60
G01 X48.80 Y37.48 F60
G01 X48.81 Y37.50 F60
G01 X48.82 Y37.51 F60
G01 X48.83 Y37.53 F60
G01 X48.84 Y37.55 F60
G01 X48.86 Y37.58 F60
G01 X48.88 Y37.60 F60
G01 X48.89 Y37.60 F60
G01 X48.91 Y37.62 F60
G01 X48.93 Y37.63 F60
G01 X48.96 Y37.64 F60
G01 X48.99 Y37.66 F60
G01 X49.02 Y37.66 F60
G01 X49.04 Y37.66 F60
G01 X49.07 Y37.67 F60
G01 X50.03 Y37.67 F60
G01 X50.05 Y37.67 F60
G01 X50.08 Y37.66 F60
G01 X50.11 Y37.65 F60
G01 X50.13 Y37.65 F60
G01 X50.16 Y37.63 F60
G01 X50.18 Y37.62 F60
G01 X50.21 Y37.60 F60
G01 X50.22 Y37.59 F60
G01 X50.24 Y37.58 F60
G01 X50.25 Y37.56 F60
G01 X50.27 Y37.54 F60
G01 X50.29 Y37.51 F60
G01 X50.30 Y37.48 F60
G01 X50.31 Y37.45 F60
G01 X50.32 Y37.42 F60
G01 X50.32 Y37.39 F60
G01 X50.32 Y37.37 F60
G01 X50.32 Y37.34 F60
G01 X50.32 Y37.33 F60
G01 X50.32 Y37.30 F60
G01 X50.31 Y37.28 F60
G01 X50.30 Y37.26 F60
G01 X50.21 Y37.03 F60
G01 X50.17 Y36.81 F60
G01 X50.17 Y36.59 F60
G01 X50.21 Y36.37 F60
G01 X50.30 Y36.16 F60
G01 X50.42 Y35.98 F60
G01 X50.58 Y35.82 F60
G01 X50.76 Y35.70 F60
G01 X50.97 Y35.61 F60
G01 X51.19 Y35.57 F60
G01 X51.41 Y35.57 F60
G01 X51.63 Y35.61 F60
G01 X51.72 Y35.65 F60
G01 X51.74 Y35.65 F60
G01 X51.76 Y35.66 F60
G01 X51.77 Y35.66 F60
G01 X51.80 Y35.67 F60
G01 X51.83 Y35.67 F60
G01 X51.86 Y35.67 F60
G01 X51.89 Y35.66 F60
G01 X51.92 Y35.65 F60
G01 X51.94 Y35.65 F60
G01 X51.96 Y35.64 F60
G01 X51.98 Y35.63 F60
G01 X52.00 Y35.61 F60
G01 X52.02 Y35.60 F60
G01 X52.04 Y35.58 F60
G01 X58.28 Y29.34 F60
G01 X58.30 Y29.32 F60
G01 X58.32 Y29.30 F60
G01 X58.33 Y29.28 F60
G01 X58.33 Y29.27 F60
G01 X58.34 Y29.25 F60
G01 X58.36 Y29.21 F60
G01 X58.36 Y29.19 F60
G01 X58.36 Y29.17 F60
G01 X58.37 Y29.16 F60
G01 X58.37 Y29.13 F60
G01 X58.37 Y28.10 F60
G01 X58.37 Y28.07 F60
G01 X58.36 Y28.05 F60
G01 X58.36 Y28.03 F60
G01 X58.35 Y28.01 F60
G01 X58.34 Y27.98 F60
G01 X58.33 Y27.96 F60
G01 X58.32 Y27.94 F60
G01 X58.30 Y27.92 F60
G01 X58.29 Y27.91 F60
G01 X58.28 Y27.89 F60
G01 X58.26 Y27.87 F60
G01 X58.24 Y27.86 F60
G01 X58.21 Y27.84 F60
G01 X58.20 Y27.83 F60
G01 X58.18 Y27.82 F60
G01 X58.15 Y27.82 F60
G01 X58.13 Y27.81 F60
G01 X58.10 Y27.80 F60
G01 X58.07 Y27.80 F60
G01 X58.04 Y27.80 F60
G01 X58.01 Y27.81 F60
G01 X57.98 Y27.82 F60
G01 X57.95 Y27.83 F60
G01 X57.92 Y27.84 F60
G01 X57.90 Y27.85 F60
G01 X57.87 Y27.87 F60
G01 X57.85 Y27.89 F60
G01 X57.83 Y27.91 F60
G01 X57.81 Y27.94 F60
G01 X57.80 Y27.96 F60
G01 X57.79 Y27.99 F60
G01 X57.70 Y28.19 F60
G01 X57.58 Y28.37 F60
G01 X57.42 Y28.53 F60
G01 X57.24 Y28.65 F60
G01 X57.03 Y28.74 F60
G01 X56.81 Y28.78 F60
G01 X56.59 Y28.78 F60
G01 X56.37 Y28.74 F60
G01 X56.16 Y28.65 F60
G01 X55.98 Y28.53 F60
G01 X55.96 Y28.52 F60
G01 X55.95 Y28.51 F60
G01 X55.93 Y28.50 F60
G01 X55.90 Y28.49 F60
G01 X55.87 Y28.49 F60
G01 X55.84 Y28.48 F60
G01 X55.82 Y28.48 F60
G01 X52.73 Y28.48 F60
G01 X52.70 Y28.48 F60
G01 X52.67 Y28.49 F60
G01 X52.65 Y28.49 F60
G01 X52.63 Y28.50 F60
G01 X52.61 Y28.51 F60
G01 X52.59 Y28.52 F60
G01 X52.56 Y28.53 F60
G01 X52.55 Y28.54 F60
G01 X52.53 Y28.55 F60
G01 X52.51 Y28.57 F60
G01 X52.49 Y28.60 F60
G01 X52.47 Y28.62 F60
G01 X52.39 Y28.75 F60
G01 X52.20 Y28.94 F60
G01 X51.98 Y29.08 F60
G01 X51.74 Y29.18 F60
G01 X51.48 Y29.23 F60
G01 X51.22 Y29.23 F60
G01 X50.96 Y29.18 F60
G01 X50.72 Y29.08 F60
G01 X50.50 Y28.94 F60
G01 X50.31 Y28.75 F60
G01 X50.17 Y28.53 F60
G01 X50.07 Y28.29 F60
G01 X50.02 Y28.03 F60
G01 X50.02 Y27.77 F60
G01 X50.07 Y27.51 F60
G01 X50.17 Y27.27 F60
G01 X50.31 Y27.05 F60
G01 X50.50 Y26.86 F60
G01 X50.72 Y26.72 F60
G01 X50.96 Y26.62 F60
G01 X51.22 Y26.57 F60
G01 X51.48 Y26.57 F60
G01 X51.74 Y26.62 F60
G01 X51.98 Y26.72 F60
G01 X52.06 Y26.77 F60
G01 X52.08 Y26.78 F60
G01 X52.10 Y26.79 F60
G01 X52.13 Y26.80 F60
G01 X52.15 Y26.81 F60
G01 X52.17 Y26.81 F60
G01 X52.20 Y26.82 F60
G01 X52.22 Y26.82 F60
G01 X55.82 Y26.82 F60
G01 X55.85 Y26.82 F60
G01 X55.88 Y26.81 F60
G01 X55.91 Y26.80 F60
G01 X55.94 Y26.79 F60
G01 X55.96 Y26.78 F60
G01 X55.98 Y26.77 F60
G01 X56.16 Y26.65 F60
G01 X56.37 Y26.56 F60
G01 X56.59 Y26.52 F60
G01 X56.81 Y26.52 F60
G01 X57.03 Y26.56 F60
G01 X57.24 Y26.65 F60
G01 X57.42 Y26.77 F60
G01 X57.58 Y26.93 F60
G01 X57.70 Y27.11 F60
G01 X57.79 Y27.32 F60
G01 X57.80 Y27.34 F60
G01 X57.81 Y27.36 F60
G01 X57.83 Y27.39 F60
G01 X57.85 Y27.41 F60
G01 X57.87 Y27.42 F60
G01 X57.88 Y27.43 F60
G01 X57.90 Y27.45 F60
G01 X57.93 Y27.46 F60
G01 X57.95 Y27.48 F60
G01 X57.98 Y27.49 F60
G01 X58.01 Y27.49 F60
G01 X58.04 Y27.50 F60
G01 X58.07 Y27.50 F60
G01 X58.10 Y27.50 F60
G01 X58.13 Y27.49 F60
G01 X58.15 Y27.48 F60
G01 X58.17 Y27.48 F60
G01 X58.20 Y27.46 F60
G01 X58.23 Y27.45 F60
G01 X58.25 Y27.43 F60
G01 X58.28 Y27.41 F60
G01 X58.30 Y27.39 F60
G01 X58.32 Y27.36 F60
G01 X58.33 Y27.34 F60
G01 X58.34 Y27.31 F60
G01 X58.35 Y27.28 F60
G01 X58.36 Y27.25 F60
G01 X58.37 Y27.23 F60
G01 X58.37 Y27.20 F60
G01 X58.37 Y25.07 F60
G01 X58.37 Y25.04 F60
G01 X58.36 Y25.00 F60
G01 X58.35 Y24.98 F60
G01 X58.35 Y24.96 F60
G01 X58.33 Y24.93 F60
G01 X58.32 Y24.90 F60
G01 X58.30 Y24.88 F60
G01 X58.28 Y24.86 F60
G01 X58.24 Y24.82 F60
G01 X58.21 Y24.79 F60
G01 X58.10 Y24.66 F60
G01 X58.03 Y24.52 F60
G01 X57.98 Y24.36 F60
G01 X57.96 Y24.20 F60
G01 X57.97 Y24.17 F60
G01 X57.97 Y24.14 F60
G01 X57.97 Y21.32 F60
G01 X57.97 Y21.29 F60
G01 X57.96 Y21.26 F60
G01 X57.95 Y21.23 F60
G01 X57.94 Y21.20 F60
G01 X57.93 Y21.18 F60
G01 X57.92 Y21.15 F60
G01 X57.90 Y21.13 F60
G01 X57.88 Y21.11 F60
G01 X55.59 Y18.82 F60
G01 X55.57 Y18.80 F60
G01 X55.54 Y18.78 F60
G01 X55.51 Y18.76 F60
G01 X55.50 Y18.76 F60
G01 X55.47 Y18.75 F60
G01 X55.44 Y18.74 F60
G01 X55.41 Y18.73 F60
G01 X55.38 Y18.73 F60
G01 X55.22 Y18.73 F60
G01 X54.96 Y18.68 F60
G01 X54.72 Y18.58 F60
G01 X54.50 Y18.44 F60
G01 X54.31 Y18.25 F60
G01 X54.17 Y18.03 F60
G01 X54.07 Y17.79 F60
G01 X54.02 Y17.53 F60
G01 X54.02 Y17.27 F60
G01 X54.07 Y17.01 F60
G01 X54.17 Y16.77 F60
G01 X54.31 Y16.55 F60
G01 X54.43 Y16.43 F60
G01 X54.45 Y16.41 F60
G01 X54.46 Y16.39 F60
G01 X54.48 Y16.37 F60
G01 X54.49 Y16.34 F60
G01 X54.50 Y16.31 F60
G01 X54.51 Y16.29 F60
G01 X54.52 Y16.25 F60
G01 X54.52 Y16.22 F60
G01 X54.52 Y15.46 F60
G01 X54.52 Y15.43 F60
G01 X54.51 Y15.40 F60
G01 X54.53 Y15.24 F60
G01 X54.58 Y15.08 F60
G01 X54.65 Y14.94 F60
G01 X54.76 Y14.81 F60
G01 X54.78 Y14.79 F60
G01 X54.80 Y14.77 F60
G01 X55.29 Y14.29 F60
G01 X55.31 Y14.26 F60
G01 X55.32 Y14.24 F60
G01 X55.34 Y14.22 F60
G01 X55.35 Y14.20 F60
G01 X55.35 Y14.18 F60
G01 X55.36 Y14.16 F60
G01 X55.37 Y14.13 F60
G01 X55.41 Y13.92 F60
G01 X55.50 Y13.71 F60
G01 X55.62 Y13.53 F60
G01 X55.78 Y13.37 F60
G01 X55.96 Y13.25 F60
G01 X56.17 Y13.16 F60
G01 X56.39 Y13.12 F60
G01 X56.61 Y13.12 F60
G01 X56.83 Y13.16 F60
G01 X57.04 Y13.25 F60
G01 X57.22 Y13.37 F60
G01 X57.38 Y13.53 F60
G01 X57.50 Y13.71 F60
G01 X57.59 Y13.92 F60
G01 X57.63 Y14.14 F60
G01 X57.63 Y14.36 F60
G01 X57.59 Y14.58 F60
G01 X57.50 Y14.79 F60
G01 X57.38 Y14.97 F60
G01 X57.22 Y15.13 F60
G01 X57.04 Y15.25 F60
G01 X56.83 Y15.34 F60
G01 X56.62 Y15.38 F60
G01 X56.59 Y15.39 F60
G01 X56.57 Y15.40 F60
G01 X56.54 Y15.41 F60
G01 X56.53 Y15.42 F60
G01 X56.51 Y15.43 F60
G01 X56.49 Y15.44 F60
G01 X56.46 Y15.46 F60
G01 X56.27 Y15.66 F60
G01 X56.25 Y15.68 F60
G01 X56.23 Y15.70 F60
G01 X56.22 Y15.73 F60
G01 X56.21 Y15.75 F60
G01 X56.19 Y15.79 F60
G01 X56.19 Y15.82 F60
G01 X56.18 Y15.84 F60
G01 X56.18 Y15.87 F60
G01 X56.18 Y16.22 F60
G01 X56.18 Y16.25 F60
G01 X56.19 Y16.26 F60
G01 X56.19 Y16.29 F60
G01 X56.20 Y16.31 F60
G01 X56.21 Y16.34 F60
G01 X56.22 Y16.36 F60
G01 X56.23 Y16.38 F60
G01 X56.24 Y16.40 F60
G01 X56.25 Y16.41 F60
G01 X56.27 Y16.43 F60
G01 X56.39 Y16.55 F60
G01 X56.53 Y16.77 F60
G01 X56.63 Y17.01 F60
G01 X56.68 Y17.27 F60
G01 X56.68 Y17.43 F60
G01 X56.68 Y17.46 F60
G01 X56.69 Y17.48 F60
G01 X56.69 Y17.50 F60
G01 X56.70 Y17.52 F60
G01 X56.71 Y17.55 F60
G01 X56.72 Y17.57 F60
G01 X56.73 Y17.59 F60
G01 X56.74 Y17.60 F60
G01 X56.75 Y17.62 F60
G01 X56.77 Y17.64 F60
G01 X59.35 Y20.22 F60
G01 X59.37 Y20.24 F60
G01 X59.39 Y20.26 F60
G01 X59.50 Y20.39 F60
G01 X59.57 Y20.53 F60
G01 X59.62 Y20.69 F60
G01 X59.64 Y20.85 F60
G01 X59.63 Y20.88 F60
G01 X59.63 Y20.91 F60
G01 X59.63 Y23.73 F60
G01 X59.63 Y23.76 F60
G01 X59.64 Y23.79 F60
G01 X59.65 Y23.82 F60
G01 X59.65 Y23.84 F60
G01 X59.66 Y23.85 F60
G01 X59.67 Y23.87 F60
G01 X59.69 Y23.90 F60
G01 X59.70 Y23.92 F60
G01 X59.72 Y23.94 F60
G01 X59.76 Y23.98 F60
G01 X59.79 Y24.01 F60
G01 X59.90 Y24.14 F60
G01 X59.97 Y24.28 F60
G01 X60.02 Y24.44 F60
G01 X60.04 Y24.60 F60
G01 X60.03 Y24.63 F60
G01 X60.03 Y24.66 F60
G01 X60.03 Y27.20 F60
G01 X60.04 Y27.23 F60
G01 X60.04 Y27.25 F60
G01 X60.04 Y27.27 F60
G01 X60.05 Y27.31 F60
G01 X60.07 Y27.34 F60
G01 X60.08 Y27.36 F60
G01 X60.10 Y27.39 F60
G01 X60.12 Y27.41 F60
G01 X60.14 Y27.43 F60
G01 X60.17 Y27.45 F60
G01 X60.19 Y27.46 F60
G01 X60.22 Y27.47 F60
G01 X60.25 Y27.48 F60
G01 X60.28 Y27.49 F60
G01 X60.31 Y27.50 F60
G01 X60.34 Y27.50 F60
G01 X60.36 Y27.50 F60
G01 X60.39 Y27.49 F60
G01 X60.42 Y27.48 F60
G01 X60.45 Y27.47 F60
G01 X60.48 Y27.46 F60
G01 X60.51 Y27.44 F60
G01 X60.53 Y27.43 F60
G01 X60.54 Y27.42 F60
G01 X60.55 Y27.41 F60
G01 X60.57 Y27.39 F60
G01 X60.59 Y27.36 F60
G01 X60.60 Y27.34 F60
G01 X60.61 Y27.32 F60
G01 X60.70 Y27.11 F60
G01 X60.82 Y26.93 F60
G01 X60.98 Y26.77 F60
G01 X61.16 Y26.65 F60
G01 X61.37 Y26.56 F60
G01 X61.59 Y26.52 F60
G01 X61.81 Y26.52 F60
G01 X62.03 Y26.56 F60
G01 X62.24 Y26.65 F60
G01 X62.42 Y26.77 F60
G01 X62.60 Y26.95 F60
G01 X62.63 Y26.97 F60
G01 X62.65 Y26.99 F60
G01 X62.68 Y27.00 F60
G01 X62.70 Y27.02 F60
G01 X62.74 Y27.03 F60
G01 X62.76 Y27.03 F60
G01 X62.79 Y27.04 F60
G01 X62.81 Y27.04 F60
G01 X62.84 Y27.04 F60
G01 X62.85 Y27.04 F60
G01 X62.88 Y27.03 F60
G01 X62.90 Y27.02 F60
G01 X62.93 Y27.02 F60
G01 X62.95 Y27.01 F60
G01 X62.96 Y27.00 F60
G01 X62.99 Y26.98 F60
G01 X63.01 Y26.97 F60
G01 X63.03 Y26.95 F60
G01 X63.04 Y26.93 F60
G01 X63.05 Y26.92 F60
G01 X63.07 Y26.90 F60
G01 X63.08 Y26.88 F60
G01 X63.09 Y26.86 F60
G01 X63.10 Y26.85 F60
G01 X63.10 Y26.82 F60
G01 X63.11 Y26.80 F60
G01 X63.11 Y26.77 F60
G01 X63.12 Y26.76 F60
G01 X63.12 Y26.74 F60
G01 X63.12 Y23.04 F60
G01 X63.12 Y23.01 F60
G01 X63.11 Y22.98 F60
G01 X63.10 Y22.95 F60
G01 X63.09 Y22.93 F60
G01 X63.09 Y22.91 F60
G01 X63.07 Y22.88 F60
G01 X63.05 Y22.86 F60
G01 X63.03 Y22.84 F60
G01 X63.02 Y22.82 F60
G01 X63.00 Y22.80 F60
G01 X62.97 Y22.78 F60
G01 X62.95 Y22.77 F60
G01 X62.92 Y22.76 F60
G01 X62.90 Y22.75 F60
G01 X62.88 Y22.74 F60
G01 X62.86 Y22.74 F60
G01 X62.83 Y22.73 F60
G01 X62.80 Y22.73 F60
G01 X62.77 Y22.74 F60
G01 X62.74 Y22.74 F60
G01 X62.72 Y22.75 F60
G01 X62.70 Y22.75 F60
G01 X62.68 Y22.76 F60
G01 X62.66 Y22.77 F60
G01 X62.63 Y22.79 F60
G01 X62.61 Y22.80 F60
G01 X62.60 Y22.81 F60
G01 X62.58 Y22.83 F60
G01 X62.57 Y22.85 F60
G01 X62.55 Y22.88 F60
G01 X62.54 Y22.90 F60
G01 X62.53 Y22.91 F60
G01 X62.52 Y22.93 F60
G01 X62.47 Y23.09 F60
G01 X62.41 Y23.12 F60
G01 X62.16 Y23.20 F60
G01 X61.90 Y23.24 F60
G01 X61.64 Y23.22 F60
G01 X61.38 Y23.16 F60
G01 X61.26 Y23.10 F60
G01 X61.38 Y22.98 F60
G01 X61.41 Y22.99 F60
G01 X61.50 Y23.02 F60
G01 X61.52 Y23.03 F60
G01 X61.62 Y23.05 F60
G01 X61.73 Y23.07 F60
G01 X61.85 Y23.07 F60
G01 X61.96 Y23.07 F60
G01 X61.97 Y23.07 F60
G01 X62.08 Y23.05 F60
G01 X62.18 Y23.03 F60
G01 X62.20 Y23.02 F60
G01 X62.30 Y22.99 F60
G01 X62.40 Y22.94 F60
G01 X62.41 Y22.93 F60
G01 X62.50 Y22.88 F60
G01 X62.59 Y22.81 F60
G01 X62.60 Y22.80 F60
G01 X62.68 Y22.73 F60
G01 X62.75 Y22.65 F60
G01 X62.76 Y22.64 F60
G01 X62.83 Y22.55 F60
G01 X62.89 Y22.45 F60
G01 X62.93 Y22.36 F60
G01 X62.94 Y22.34 F60
G01 X62.97 Y22.24 F60
G01 X63.00 Y22.13 F60
G01 X63.02 Y22.02 F60
G01 X63.02 Y22.01 F60
G01 X63.02 Y21.90 F60
G01 X63.02 Y21.79 F60
G01 X63.02 Y21.78 F60
G01 X63.00 Y21.67 F60
G01 X62.97 Y21.56 F60
G01 X62.94 Y21.45 F60
G01 X62.89 Y21.35 F60
G01 X62.83 Y21.25 F60
G01 X62.76 Y21.15 F60
G01 X62.68 Y21.07 F60
G01 X62.60 Y20.99 F60
G01 X62.50 Y20.92 F60
G01 X62.40 Y20.86 F60
G01 X62.30 Y20.81 F60
G01 X62.20 Y20.78 F60
G01 X62.18 Y20.77 F60
G01 X62.08 Y20.75 F60
G01 X61.97 Y20.73 F60
G01 X61.96 Y20.73 F60
G01 X61.86 Y20.73 F60
G01 X61.84 Y20.73 F60
G01 X61.73 Y20.73 F60
G01 X61.62 Y20.75 F60
G01 X61.51 Y20.78 F60
G01 X61.40 Y20.81 F60
G01 X61.38 Y20.82 F60
G01 X61.26 Y20.70 F60
G01 X61.29 Y20.68 F60
G01 X61.54 Y20.60 F60
G01 X61.80 Y20.56 F60
G01 X62.06 Y20.58 F60
G01 X62.32 Y20.64 F60
G01 X62.47 Y20.72 F60
G01 X62.52 Y20.87 F60
G01 X62.53 Y20.89 F60
G01 X62.54 Y20.90 F60
G01 X62.55 Y20.92 F60
G01 X62.56 Y20.94 F60
G01 X62.59 Y20.97 F60
G01 X62.61 Y20.99 F60
G01 X62.63 Y21.01 F60
G01 X62.66 Y21.03 F60
G01 X62.68 Y21.04 F60
G01 X62.70 Y21.05 F60
G01 X62.72 Y21.05 F60
G01 X62.74 Y21.06 F60
G01 X62.77 Y21.06 F60
G01 X62.80 Y21.07 F60
G01 X62.82 Y21.07 F60
G01 X62.84 Y21.06 F60
G01 X62.87 Y21.06 F60
G01 X62.89 Y21.05 F60
G01 X62.91 Y21.05 F60
G01 X62.93 Y21.04 F60
G01 X62.95 Y21.03 F60
G01 X62.97 Y21.02 F60
G01 X62.99 Y21.00 F60
G01 X63.00 Y20.99 F60
G01 X63.02 Y20.98 F60
G01 X63.04 Y20.95 F60
G01 X63.06 Y20.93 F60
G01 X63.07 Y20.92 F60
G01 X63.08 Y20.89 F60
G01 X63.10 Y20.87 F60
G01 X63.10 Y20.84 F60
G01 X63.11 Y20.81 F60
G01 X63.12 Y20.79 F60
G01 X63.12 Y20.76 F60
G01 X63.12 Y18.72 F60
G01 X63.12 Y18.70 F60
G01 X63.11 Y18.68 F60
G01 X63.11 Y18.66 F60
G01 X63.11 Y18.64 F60
G01 X63.10 Y18.61 F60
G01 X63.09 Y18.60 F60
G01 X63.08 Y18.58 F60
G01 X63.07 Y18.55 F60
G01 X63.05 Y18.53 F60
G01 X63.03 Y18.51 F60
G01 X63.02 Y18.50 F60
G01 X63.00 Y18.49 F60
G01 X62.98 Y18.47 F60
G01 X62.96 Y18.46 F60
G01 X62.93 Y18.44 F60
G01 X62.91 Y18.44 F60
G01 X62.89 Y18.43 F60
G01 X62.87 Y18.42 F60
G01 X62.84 Y18.42 F60
G01 X62.82 Y18.42 F60
G01 X62.79 Y18.42 F60
G01 X62.76 Y18.43 F60
G01 X62.73 Y18.43 F60
G01 X62.70 Y18.44 F60
G01 X62.67 Y18.46 F60
G01 X62.65 Y18.47 F60
G01 X62.48 Y18.58 F60
G01 X62.24 Y18.68 F60
G01 X61.98 Y18.73 F60
G01 X61.72 Y18.73 F60
G01 X61.46 Y18.68 F60
G01 X61.22 Y18.58 F60
G01 X61.00 Y18.44 F60
G01 X60.81 Y18.25 F60
G01 X60.67 Y18.03 F60
G01 X60.57 Y17.79 F60
G01 X60.52 Y17.53 F60
G01 X60.52 Y17.27 F60
G01 X60.57 Y17.01 F60
G01 X60.67 Y16.77 F60
G01 X60.81 Y16.55 F60
G01 X61.00 Y16.36 F60
G01 X61.22 Y16.22 F60
G01 X61.46 Y16.12 F60
G01 X61.72 Y16.07 F60
G01 X61.98 Y16.07 F60
G01 X62.24 Y16.12 F60
G01 X62.48 Y16.22 F60
G01 X62.65 Y16.33 F60
G01 X62.67 Y16.34 F60
G01 X62.69 Y16.35 F60
G01 X62.71 Y16.36 F60
G01 X62.73 Y16.37 F60
G01 X62.76 Y16.37 F60
G01 X62.79 Y16.38 F60
G01 X62.81 Y16.38 F60
G01 X62.84 Y16.38 F60
G01 X62.85 Y16.38 F60
G01 X62.87 Y16.37 F60
G01 X62.91 Y16.37 F60
G01 X62.93 Y16.36 F60
G01 X62.95 Y16.35 F60
G01 X62.96 Y16.34 F60
G01 X62.98 Y16.33 F60
G01 X63.01 Y16.31 F60
G01 X63.03 Y16.29 F60
G01 X63.04 Y16.28 F60
G01 X63.06 Y16.25 F60
G01 X63.07 Y16.24 F60
G01 X63.08 Y16.22 F60
G01 X63.10 Y16.19 F60
G01 X63.10 Y16.17 F60
G01 X63.11 Y16.14 F60
G01 X63.12 Y16.11 F60
G01 X63.12 Y16.08 F60
G01 X63.12 Y14.82 F60
G01 X63.12 Y14.80 F60
G01 X63.11 Y14.77 F60
G01 X63.11 Y14.76 F60
G01 X63.10 Y14.74 F60
G01 X63.10 Y14.71 F60
G01 X63.09 Y14.70 F60
G01 X63.08 Y14.68 F60
G01 X63.07 Y14.66 F60
G01 X63.05 Y14.63 F60
G01 X63.03 Y14.61 F60
G01 X63.01 Y14.59 F60
G01 X62.99 Y14.58 F60
G01 X62.96 Y14.56 F60
G01 X62.94 Y14.55 F60
G01 X62.92 Y14.54 F60
G01 X62.89 Y14.53 F60
G01 X62.87 Y14.53 F60
G01 X62.84 Y14.52 F60
G01 X62.81 Y14.52 F60
G01 X62.79 Y14.52 F60
G01 X62.76 Y14.53 F60
G01 X62.73 Y14.54 F60
G01 X62.70 Y14.55 F60
G01 X62.68 Y14.56 F60
G01 X62.65 Y14.57 F60
G01 X62.62 Y14.59 F60
G01 X62.60 Y14.61 F60
G01 X62.58 Y14.64 F60
G01 X62.56 Y14.66 F60
G01 X62.55 Y14.69 F60
G01 X62.54 Y14.71 F60
G01 X62.50 Y14.79 F60
G01 X62.38 Y14.97 F60
G01 X62.22 Y15.13 F60
G01 X62.04 Y15.25 F60
G01 X61.83 Y15.34 F60
G01 X61.61 Y15.38 F60
G01 X61.39 Y15.38 F60
G01 X61.17 Y15.34 F60
G01 X60.96 Y15.25 F60
G01 X60.78 Y15.13 F60
G01 X60.62 Y14.97 F60
G01 X60.50 Y14.79 F60
G01 X60.41 Y14.58 F60
G01 X60.37 Y14.36 F60
G01 X60.37 Y14.14 F60
G01 X60.41 Y13.92 F60
G01 X60.50 Y13.71 F60
G01 X60.62 Y13.53 F60
G01 X60.63 Y13.51 F60
G01 X60.64 Y13.50 F60
G01 X60.65 Y13.48 F60
G01 X60.66 Y13.45 F60
G01 X60.66 Y13.42 F60
G01 X60.67 Y13.40 F60
G01 X60.67 Y13.37 F60
G01 X60.67 Y11.47 F60
G01 X60.67 Y11.44 F60
G01 X60.66 Y11.40 F60
G01 X60.65 Y11.38 F60
G01 X60.65 Y11.36 F60
G01 X60.63 Y11.33 F60
G01 X60.62 Y11.31 F60
G01 X60.61 Y11.30 F60
G01 X60.60 Y11.28 F60
G01 X60.58 Y11.26 F60
G01 X57.14 Y7.82 F60
G01 X57.12 Y7.80 F60
G01 X57.10 Y7.78 F60
G01 X57.08 Y7.77 F60
G01 X57.07 Y7.77 F60
G01 X57.05 Y7.76 F60
G01 X57.01 Y7.74 F60
G01 X56.99 Y7.74 F60
G01 X56.97 Y7.74 F60
G01 X56.96 Y7.73 F60
G01 X56.93 Y7.73 F60
G01 X52.53 Y7.73 F60
G01 X52.50 Y7.73 F60
G01 X52.47 Y7.74 F60
G01 X52.44 Y7.74 F60
G01 X52.43 Y7.75 F60
G01 X52.41 Y7.76 F60
G01 X52.39 Y7.77 F60
G01 X52.36 Y7.78 F60
G01 X52.34 Y7.80 F60
G01 X52.32 Y7.82 F60
G01 X52.20 Y7.94 F60
G01 X51.98 Y8.08 F60
G01 X51.74 Y8.18 F60
G01 X51.48 Y8.23 F60
G01 X51.22 Y8.23 F60
G01 X50.96 Y8.18 F60
G01 X50.72 Y8.08 F60
G01 X50.50 Y7.94 F60
G01 X50.31 Y7.75 F60
G01 X50.17 Y7.53 F60
G01 X50.07 Y7.29 F60
G01 X50.02 Y7.03 F60
G01 X50.02 Y6.77 F60
G01 X50.07 Y6.51 F60
G01 X50.17 Y6.27 F60
G01 X50.31 Y6.05 F60
G01 X50.50 Y5.86 F60
G01 X50.72 Y5.72 F60
G01 X50.96 Y5.62 F60
G01 X51.22 Y5.57 F60
G01 X51.48 Y5.57 F60
G01 X51.74 Y5.62 F60
G01 X51.98 Y5.72 F60
G01 X52.20 Y5.86 F60
G01 X52.32 Y5.98 F60
G01 X52.34 Y6.00 F60
G01 X52.36 Y6.02 F60
G01 X52.39 Y6.03 F60
G01 X52.42 Y6.05 F60
G01 X52.44 Y6.05 F60
G01 X52.46 Y6.06 F60
G01 X52.50 Y6.07 F60
G01 X52.53 Y6.07 F60
G01 X57.34 Y6.07 F60
G01 X57.37 Y6.07 F60
G01 X57.40 Y6.06 F60
G01 X57.56 Y6.08 F60
G01 X57.72 Y6.13 F60
G01 X57.86 Y6.20 F60
G01 X57.99 Y6.31 F60
G01 X58.01 Y6.33 F60
G01 X58.03 Y6.35 F60
G01 X62.05 Y10.37 F60
G01 X62.07 Y10.39 F60
G01 X62.09 Y10.41 F60
G01 X62.20 Y10.54 F60
G01 X62.27 Y10.68 F60
G01 X62.32 Y10.84 F60
G01 X62.34 Y11.00 F60
G01 X62.33 Y11.03 F60
G01 X62.33 Y11.06 F60
G01 X62.33 Y13.37 F60
G01 X62.33 Y13.40 F60
G01 X62.34 Y13.43 F60
G01 X62.35 Y13.45 F60
G01 X62.35 Y13.47 F60
G01 X62.36 Y13.49 F60
G01 X62.37 Y13.51 F60
G01 X62.38 Y13.53 F60
G01 X62.50 Y13.71 F60
G01 X62.54 Y13.79 F60
G01 X62.55 Y13.82 F60
G01 X62.57 Y13.85 F60
G01 X62.58 Y13.87 F60
G01 X62.60 Y13.89 F60
G01 X62.62 Y13.90 F60
G01 X62.63 Y13.91 F60
G01 X62.65 Y13.93 F60
G01 X62.67 Y13.94 F60
G01 X62.68 Y13.95 F60
G01 X62.70 Y13.95 F60
G01 X62.72 Y13.96 F60
G01 X62.76 Y13.97 F60
G01 X62.79 Y13.98 F60
G01 X62.81 Y13.98 F60
G01 X62.82 Y13.98 F60
G01 X62.84 Y13.98 F60
G01 X62.88 Y13.97 F60
G01 X62.90 Y13.96 F60
G01 X62.92 Y13.96 F60
G01 X62.94 Y13.95 F60
G01 X62.96 Y13.94 F60
G01 X62.98 Y13.93 F60
G01 X63.00 Y13.91 F60
G01 X63.03 Y13.89 F60
G01 X63.05 Y13.87 F60
G01 X63.06 Y13.85 F60
G01 X63.08 Y13.81 F60
G01 X63.09 Y13.79 F60
G01 X63.10 Y13.77 F60
G01 X63.11 Y13.73 F60
G01 X63.12 Y13.70 F60
G01 X63.12 Y13.68 F60
G01 X63.12 Y4.47 F60
G01 X63.12 Y4.44 F60
G01 X63.11 Y4.41 F60
G01 X63.10 Y4.38 F60
G01 X63.10 Y4.36 F60
G01 X63.09 Y4.34 F60
G01 X63.08 Y4.32 F60
G01 X63.06 Y4.30 F60
G01 X63.05 Y4.28 F60
G01 X63.03 Y4.26 F60
G01 X61.53 Y2.76 F60
G01 X61.51 Y2.74 F60
G01 X61.49 Y2.73 F60
G01 X61.47 Y2.72 F60
G01 X61.44 Y2.70 F60
G01 X61.41 Y2.69 F60
G01 X61.38 Y2.68 F60
G01 X61.17 Y2.64 F60
G01 X60.96 Y2.55 F60
G01 X60.78 Y2.43 F60
G01 X60.76 Y2.42 F60
G01 X60.74 Y2.41 F60
G01 X60.71 Y2.40 F60
G01 X60.68 Y2.39 F60
G01 X60.65 Y2.38 F60
G01 X60.62 Y2.38 F60
G01 X57.38 Y2.38 F60
G01 X57.36 Y2.38 F60
G01 X57.33 Y2.39 F60
G01 X57.30 Y2.39 F60
G01 X57.27 Y2.40 F60
G01 X57.25 Y2.41 F60
G01 X57.24 Y2.42 F60
G01 X57.22 Y2.43 F60
G01 X57.04 Y2.55 F60
G01 X56.83 Y2.64 F60
G01 X56.61 Y2.68 F60
G01 X56.39 Y2.68 F60
G01 X56.17 Y2.64 F60
G01 X55.96 Y2.55 F60
G01 X55.78 Y2.43 F60
G01 X55.76 Y2.42 F60
G01 X55.74 Y2.41 F60
G01 X55.71 Y2.40 F60
G01 X55.68 Y2.39 F60
G01 X55.65 Y2.38 F60
G01 X55.62 Y2.38 F60
G01 X35.63 Y2.38 F60
G01 X35.60 Y2.38 F60
G01 X35.57 Y2.39 F60
G01 X35.54 Y2.40 F60
G01 X35.51 Y2.41 F60
G01 X35.49 Y2.42 F60
G01 X35.47 Y2.43 F60
G01 X35.29 Y2.55 F60
G01 X35.08 Y2.64 F60
G01 X34.86 Y2.68 F60
G01 X34.64 Y2.68 F60
G01 X34.42 Y2.64 F60
G01 X34.21 Y2.55 F60
G01 X34.03 Y2.43 F60
G01 X34.01 Y2.42 F60
G01 X33.99 Y2.41 F60
G01 X33.96 Y2.40 F60
G01 X33.93 Y2.39 F60
G01 X33.90 Y2.38 F60
G01 X33.87 Y2.38 F60
G01 X18.99 Y2.38 F60
G01 X18.97 Y2.38 F60
G01 X18.94 Y2.39 F60
G01 X18.91 Y2.40 F60
G01 X18.88 Y2.41 F60
G01 X18.85 Y2.42 F60
G01 X18.83 Y2.43 F60
G01 X18.81 Y2.45 F60
G01 X18.79 Y2.47 F60
G01 X17.09 Y4.16 F60
G00 Z2.00
G00 X17.29 Y5.46
G01 F30
G01 Z-0.09
G01 F60
G01 X17.29 Y5.43 F60
G01 X17.31 Y5.32 F60
G01 X17.31 Y5.20 F60
G01 X17.31 Y5.08 F60
G01 X17.29 Y4.97 F60
G01 X17.29 Y4.93 F60
G01 X17.31 Y4.94 F60
G01 X17.35 Y4.94 F60
G01 X17.39 Y4.94 F60
G01 X17.41 Y4.93 F60
G01 X17.41 Y4.97 F60
G01 X17.39 Y5.08 F60
G01 X17.39 Y5.20 F60
G01 X17.39 Y5.32 F60
G01 X17.41 Y5.43 F60
G01 X17.41 Y5.46 F60
G01 X17.39 Y5.46 F60
G01 X17.35 Y5.46 F60
G01 X17.31 Y5.46 F60
G01 X17.29 Y5.46 F60
G00 Z2.00
G00 X17.94 Y5.97
G01 F30
G01 Z-0.09
G01 F60
G01 X17.94 Y15.22 F60
G01 X17.95 Y15.28 F60
G01 X17.95 Y15.29 F60
G01 X17.96 Y15.35 F60
G01 X17.97 Y15.41 F60
G01 X17.98 Y15.42 F60
G01 X18.00 Y15.48 F60
G01 X18.02 Y15.53 F60
G01 X18.03 Y15.55 F60
G01 X18.06 Y15.60 F60
G01 X18.09 Y15.64 F60
G01 X18.10 Y15.65 F60
G01 X18.14 Y15.70 F60
G01 X31.92 Y29.48 F60
G01 X31.92 Y39.13 F60
G01 X31.93 Y39.19 F60
G01 X31.94 Y39.25 F60
G01 X31.95 Y39.32 F60
G01 X31.97 Y39.37 F60
G01 X31.98 Y39.38 F60
G01 X32.00 Y39.43 F60
G01 X32.01 Y39.45 F60
G01 X32.04 Y39.50 F60
G01 X32.07 Y39.54 F60
G01 X32.08 Y39.56 F60
G01 X32.12 Y39.60 F60
G01 X35.90 Y43.38 F60
G01 X35.95 Y43.42 F60
G01 X36.00 Y43.46 F60
G01 X36.01 Y43.47 F60
G01 X36.06 Y43.50 F60
G01 X36.11 Y43.52 F60
G01 X36.13 Y43.53 F60
G01 X36.18 Y43.55 F60
G01 X36.25 Y43.56 F60
G01 X36.31 Y43.57 F60
G01 X36.38 Y43.58 F60
G01 X52.82 Y43.58 F60
G01 X56.74 Y47.50 F60
G01 X56.74 Y49.73 F60
G01 X56.69 Y49.78 F60
G01 X56.62 Y49.85 F60
G01 X56.57 Y49.93 F60
G01 X56.51 Y50.02 F60
G01 X56.47 Y50.11 F60
G01 X56.44 Y50.20 F60
G01 X56.41 Y50.30 F60
G01 X56.40 Y50.39 F60
G01 X56.40 Y50.41 F60
G01 X56.40 Y50.50 F60
G01 X56.40 Y50.60 F60
G01 X56.41 Y50.70 F60
G01 X56.44 Y50.79 F60
G01 X56.44 Y50.81 F60
G01 X56.47 Y50.88 F60
G01 X56.48 Y50.90 F60
G01 X56.52 Y50.98 F60
G01 X56.57 Y51.07 F60
G01 X56.63 Y51.15 F60
G01 X56.70 Y51.22 F60
G01 X56.77 Y51.29 F60
G01 X56.84 Y51.35 F60
G01 X56.86 Y51.36 F60
G01 X56.93 Y51.40 F60
G01 X56.94 Y51.41 F60
G01 X57.03 Y51.45 F60
G01 X57.11 Y51.48 F60
G01 X57.13 Y51.48 F60
G01 X57.22 Y51.51 F60
G01 X57.31 Y51.52 F60
G01 X57.33 Y51.52 F60
G01 X57.42 Y51.52 F60
G01 X57.52 Y51.52 F60
G01 X57.62 Y51.51 F60
G01 X57.72 Y51.48 F60
G01 X57.81 Y51.45 F60
G01 X57.90 Y51.40 F60
G01 X57.99 Y51.35 F60
G01 X58.06 Y51.30 F60
G01 X58.08 Y51.29 F60
G01 X58.14 Y51.22 F60
G01 X58.21 Y51.16 F60
G01 X58.22 Y51.14 F60
G01 X58.27 Y51.08 F60
G01 X58.28 Y51.06 F60
G01 X58.32 Y50.98 F60
G01 X58.36 Y50.90 F60
G01 X58.37 Y50.88 F60
G01 X58.40 Y50.80 F60
G01 X58.43 Y50.70 F60
G01 X58.44 Y50.60 F60
G01 X58.44 Y50.50 F60
G01 X58.44 Y50.40 F60
G01 X58.43 Y50.30 F60
G01 X58.40 Y50.20 F60
G01 X58.37 Y50.10 F60
G01 X58.32 Y50.02 F60
G01 X58.27 Y49.93 F60
G01 X58.22 Y49.86 F60
G01 X58.21 Y49.84 F60
G01 X58.14 Y49.78 F60
G01 X58.10 Y49.73 F60
G01 X58.10 Y47.22 F60
G01 X58.09 Y47.16 F60
G01 X58.09 Y47.15 F60
G01 X58.08 Y47.09 F60
G01 X58.07 Y47.03 F60
G01 X58.06 Y47.02 F60
G01 X58.04 Y46.96 F60
G01 X58.02 Y46.90 F60
G01 X57.98 Y46.84 F60
G01 X57.95 Y46.80 F60
G01 X57.94 Y46.79 F60
G01 X57.90 Y46.74 F60
G01 X53.58 Y42.42 F60
G01 X53.53 Y42.38 F60
G01 X53.48 Y42.34 F60
G01 X53.47 Y42.33 F60
G01 X53.41 Y42.30 F60
G01 X53.37 Y42.28 F60
G01 X53.35 Y42.27 F60
G01 X53.30 Y42.25 F60
G01 X53.24 Y42.24 F60
G01 X53.22 Y42.24 F60
G01 X53.17 Y42.23 F60
G01 X53.10 Y42.22 F60
G01 X36.66 Y42.22 F60
G01 X33.28 Y38.84 F60
G01 X33.28 Y29.20 F60
G01 X33.27 Y29.13 F60
G01 X33.26 Y29.07 F60
G01 X33.25 Y29.00 F60
G01 X33.23 Y28.95 F60
G01 X33.22 Y28.93 F60
G01 X33.20 Y28.88 F60
G01 X33.16 Y28.82 F60
G01 X33.12 Y28.77 F60
G01 X33.08 Y28.72 F60
G01 X19.30 Y14.94 F60
G01 X19.30 Y5.97 F60
G01 X19.34 Y5.92 F60
G01 X19.41 Y5.86 F60
G01 X19.42 Y5.84 F60
G01 X19.47 Y5.77 F60
G01 X19.52 Y5.68 F60
G01 X19.57 Y5.60 F60
G01 X19.60 Y5.50 F60
G01 X19.63 Y5.40 F60
G01 X19.64 Y5.30 F60
G01 X19.64 Y5.20 F60
G01 X19.64 Y5.10 F60
G01 X19.63 Y5.00 F60
G01 X19.60 Y4.90 F60
G01 X19.57 Y4.81 F60
G01 X19.56 Y4.80 F60
G01 X19.52 Y4.72 F60
G01 X19.48 Y4.64 F60
G01 X19.47 Y4.62 F60
G01 X19.42 Y4.56 F60
G01 X19.41 Y4.54 F60
G01 X19.34 Y4.47 F60
G01 X19.27 Y4.41 F60
G01 X19.19 Y4.35 F60
G01 X19.10 Y4.30 F60
G01 X19.01 Y4.25 F60
G01 X18.92 Y4.22 F60
G01 X18.82 Y4.19 F60
G01 X18.72 Y4.18 F60
G01 X18.62 Y4.17 F60
G01 X18.52 Y4.18 F60
G01 X18.42 Y4.19 F60
G01 X18.32 Y4.22 F60
G01 X18.23 Y4.25 F60
G01 X18.14 Y4.30 F60
G01 X18.05 Y4.35 F60
G01 X17.97 Y4.41 F60
G01 X17.90 Y4.47 F60
G01 X17.83 Y4.55 F60
G01 X17.77 Y4.63 F60
G01 X17.72 Y4.72 F60
G01 X17.67 Y4.81 F60
G01 X17.64 Y4.90 F60
G01 X17.61 Y5.00 F60
G01 X17.60 Y5.10 F60
G01 X17.60 Y5.20 F60
G01 X17.60 Y5.30 F60
G01 X17.61 Y5.40 F60
G01 X17.64 Y5.50 F60
G01 X17.67 Y5.59 F60
G01 X17.71 Y5.68 F60
G01 X17.77 Y5.77 F60
G01 X17.82 Y5.85 F60
G01 X17.89 Y5.92 F60
G01 X17.94 Y5.97 F60
G00 Z2.00
G00 X20.06 Y6.14
G01 F30
G01 Z-0.09
G01 F60
G01 X20.06 Y15.12 F60
G01 X19.72 Y14.77 F60
G01 X19.72 Y6.14 F60
G01 X19.75 Y6.10 F60
G01 X19.81 Y6.01 F60
G01 X19.84 Y5.98 F60
G01 X19.89 Y5.89 F60
G01 X19.94 Y5.98 F60
G01 X19.97 Y6.01 F60
G01 X20.03 Y6.10 F60
G01 X20.06 Y6.14 F60
G00 Z2.00
G00 X20.48 Y5.97
G01 F30
G01 Z-0.09
G01 F60
G01 X20.48 Y15.16 F60
G01 X20.49 Y15.22 F60
G01 X20.49 Y15.23 F60
G01 X20.50 Y15.29 F60
G01 X20.51 Y15.35 F60
G01 X20.52 Y15.36 F60
G01 X20.54 Y15.42 F60
G01 X20.57 Y15.48 F60
G01 X20.60 Y15.54 F60
G01 X20.63 Y15.58 F60
G01 X20.64 Y15.59 F60
G01 X20.68 Y15.64 F60
G01 X33.42 Y28.38 F60
G01 X33.42 Y38.50 F60
G01 X33.43 Y38.57 F60
G01 X33.44 Y38.63 F60
G01 X33.45 Y38.70 F60
G01 X33.47 Y38.75 F60
G01 X33.48 Y38.76 F60
G01 X33.50 Y38.81 F60
G01 X33.51 Y38.83 F60
G01 X33.54 Y38.88 F60
G01 X33.57 Y38.92 F60
G01 X33.58 Y38.93 F60
G01 X33.62 Y38.98 F60
G01 X36.53 Y41.88 F60
G01 X36.57 Y41.92 F60
G01 X36.62 Y41.96 F60
G01 X36.63 Y41.97 F60
G01 X36.68 Y42.00 F60
G01 X36.74 Y42.02 F60
G01 X36.80 Y42.04 F60
G01 X36.81 Y42.05 F60
G01 X36.86 Y42.06 F60
G01 X36.88 Y42.06 F60
G01 X36.93 Y42.07 F60
G01 X37.00 Y42.08 F60
G01 X53.44 Y42.08 F60
G01 X59.28 Y47.92 F60
