(G-CODE GENERATED BY FLATCAM v8.994 - www.flatcam.org - Version Date: 2020/11/7)

(Name: Pi-Radio-PTH.drl_edit_cnc)
(Type: G-code from Geometry)
(Units: MM)

(Created on Friday, 05 November 2021 at 08:53)

(This preprocessor is used with a motion controller loaded with GRBL firmware.)
(It is configured to be compatible with almost any version of GRBL firmware.)


(TOOLS DIAMETER: )
(Tool: 1 -> Dia: 0.8)
(Tool: 2 -> Dia: 1.1)

(FEEDRATE Z: )
(Tool: 1 -> Feedrate: 300)
(Tool: 2 -> Feedrate: 300)

(FEEDRATE RAPIDS: )
(Tool: 1 -> Feedrate Rapids: 1500)
(Tool: 2 -> Feedrate Rapids: 1500)

(Z_CUT: )
(Tool: 1 -> Z_Cut: -1.7)
(Tool: 2 -> Z_Cut: -1.7)

(Tools Offset: )
(Tool: 1 -> Offset Z: 0.0)
(Tool: 2 -> Offset Z: 0.0)

(Z_MOVE: )
(Tool: 1 -> Z_Move: 2)
(Tool: 2 -> Z_Move: 2)

(Z Toolchange: 15 mm)
(X,Y Toolchange: 0.00, 0.00 mm)
(Z Start: None mm)
(Z End: 0.5 mm)
(X,Y End: None mm)
(Steps per circle: 64)
(Steps per circle: 64)
(Preprocessor Excellon: GRBL_11_no_M6)

(X range:      1.90 ...     63.05  mm)
(Y range:      1.15 ...     53.59  mm)

(Spindle Speed: 0 RPM)
G21
G90
G17
G94


G01 F300

M5             
G00 Z15.00
G00 X0.00 Y0.00                
T1
(MSG, Change to Tool Dia = 0.80 ||| Total drills for tool T1 = 30)
M0
G00 Z15.00
        
G01 F300
M03
G00 X2.30 Y35.10
G01 Z-1.70
G01 Z0
G00 Z2.00
G00 X4.75 Y49.75
G01 Z-1.70
G01 Z0
G00 Z2.00
G00 X14.91 Y49.75
G01 Z-1.70
G01 Z0
G00 Z2.00
G00 X18.25 Y49.75
G01 Z-1.70
G01 Z0
G00 Z2.00
G00 X28.41 Y49.75
G01 Z-1.70
G01 Z0
G00 Z2.00
G00 X36.30 Y46.86
G01 Z-1.70
G01 Z0
G00 Z2.00
G00 X39.80 Y46.86
G01 Z-1.70
G01 Z0
G00 Z2.00
G00 X43.30 Y46.86
G01 Z-1.70
G01 Z0
G00 Z2.00
G00 X47.80 Y46.86
G01 Z-1.70
G01 Z0
G00 Z2.00
G00 X51.30 Y46.86
G01 Z-1.70
G01 Z0
G00 Z2.00
G00 X54.30 Y46.90
G01 Z-1.70
G01 Z0
G00 Z2.00
G00 X61.92 Y46.90
G01 Z-1.70
G01 Z0
G00 Z2.00
G00 X61.70 Y40.35
G01 Z-1.70
G01 Z0
G00 Z2.00
G00 X56.70 Y40.35
G01 Z-1.70
G01 Z0
G00 Z2.00
G00 X61.70 Y27.65
G01 Z-1.70
G01 Z0
G00 Z2.00
G00 X56.70 Y27.65
G01 Z-1.70
G01 Z0
G00 Z2.00
G00 X56.50 Y14.25
G01 Z-1.70
G01 Z0
G00 Z2.00
G00 X61.50 Y14.25
G01 Z-1.70
G01 Z0
G00 Z2.00
G00 X61.50 Y1.55
G01 Z-1.70
G01 Z0
G00 Z2.00
G00 X56.50 Y1.55
G01 Z-1.70
G01 Z0
G00 Z2.00
G00 X34.75 Y1.55
G01 Z-1.70
G01 Z0
G00 Z2.00
G00 X34.75 Y14.25
G01 Z-1.70
G01 Z0
G00 Z2.00
G00 X51.30 Y36.70
G01 Z-1.70
G01 Z0
G00 Z2.00
G00 X47.80 Y36.70
G01 Z-1.70
G01 Z0
G00 Z2.00
G00 X43.30 Y36.70
G01 Z-1.70
G01 Z0
G00 Z2.00
G00 X39.80 Y36.70
G01 Z-1.70
G01 Z0
G00 Z2.00
G00 X36.30 Y36.70
G01 Z-1.70
G01 Z0
G00 Z2.00
G00 X30.80 Y35.10
G01 Z-1.70
G01 Z0
G00 Z2.00
G00 X18.10 Y35.10
G01 Z-1.70
G01 Z0
G00 Z2.00
G00 X15.00 Y35.10
G01 Z-1.70
G01 Z0
G00 Z2.00
G01 F300

M5             
G00 Z15.00
G00 X0.00 Y0.00                
T2
(MSG, Change to Tool Dia = 1.10 ||| Total drills for tool T2 = 58)
M0
G00 Z15.00
        
G01 F300
M03
G00 X8.00 Y39.75
G01 Z-1.70
G01 Z0
G00 Z2.00
G00 X8.00 Y44.25
G01 Z-1.70
G01 Z0
G00 Z2.00
G00 X14.50 Y39.75
G01 Z-1.70
G01 Z0
G00 Z2.00
G00 X14.50 Y44.25
G01 Z-1.70
G01 Z0
G00 Z2.00
G00 X18.60 Y44.25
G01 Z-1.70
G01 Z0
G00 Z2.00
G00 X18.60 Y39.75
G01 Z-1.70
G01 Z0
G00 Z2.00
G00 X25.10 Y39.75
G01 Z-1.70
G01 Z0
G00 Z2.00
G00 X25.10 Y44.25
G01 Z-1.70
G01 Z0
G00 Z2.00
G00 X32.02 Y50.50
G01 Z-1.70
G01 Z0
G00 Z2.00
G00 X32.02 Y53.04
G01 Z-1.70
G01 Z0
G00 Z2.00
G00 X34.56 Y53.04
G01 Z-1.70
G01 Z0
G00 Z2.00
G00 X37.10 Y53.04
G01 Z-1.70
G01 Z0
G00 Z2.00
G00 X39.64 Y53.04
G01 Z-1.70
G01 Z0
G00 Z2.00
G00 X42.18 Y53.04
G01 Z-1.70
G01 Z0
G00 Z2.00
G00 X44.72 Y53.04
G01 Z-1.70
G01 Z0
G00 Z2.00
G00 X47.26 Y53.04
G01 Z-1.70
G01 Z0
G00 Z2.00
G00 X49.80 Y53.04
G01 Z-1.70
G01 Z0
G00 Z2.00
G00 X52.34 Y53.04
G01 Z-1.70
G01 Z0
G00 Z2.00
G00 X54.88 Y53.04
G01 Z-1.70
G01 Z0
G00 Z2.00
G00 X57.42 Y53.04
G01 Z-1.70
G01 Z0
G00 Z2.00
G00 X59.96 Y53.04
G01 Z-1.70
G01 Z0
G00 Z2.00
G00 X62.50 Y53.04
G01 Z-1.70
G01 Z0
G00 Z2.00
G00 X62.50 Y50.50
G01 Z-1.70
G01 Z0
G00 Z2.00
G00 X59.96 Y50.50
G01 Z-1.70
G01 Z0
G00 Z2.00
G00 X57.42 Y50.50
G01 Z-1.70
G01 Z0
G00 Z2.00
G00 X54.88 Y50.50
G01 Z-1.70
G01 Z0
G00 Z2.00
G00 X52.34 Y50.50
G01 Z-1.70
G01 Z0
G00 Z2.00
G00 X49.80 Y50.50
G01 Z-1.70
G01 Z0
G00 Z2.00
G00 X47.26 Y50.50
G01 Z-1.70
G01 Z0
G00 Z2.00
G00 X44.72 Y50.50
G01 Z-1.70
G01 Z0
G00 Z2.00
G00 X42.18 Y50.50
G01 Z-1.70
G01 Z0
G00 Z2.00
G00 X39.64 Y50.50
G01 Z-1.70
G01 Z0
G00 Z2.00
G00 X37.10 Y50.50
G01 Z-1.70
G01 Z0
G00 Z2.00
G00 X34.56 Y50.50
G01 Z-1.70
G01 Z0
G00 Z2.00
G00 X44.85 Y32.40
G01 Z-1.70
G01 Z0
G00 Z2.00
G00 X51.35 Y32.40
G01 Z-1.70
G01 Z0
G00 Z2.00
G00 X51.35 Y27.90
G01 Z-1.70
G01 Z0
G00 Z2.00
G00 X44.85 Y27.90
G01 Z-1.70
G01 Z0
G00 Z2.00
G00 X44.85 Y21.90
G01 Z-1.70
G01 Z0
G00 Z2.00
G00 X51.35 Y21.90
G01 Z-1.70
G01 Z0
G00 Z2.00
G00 X55.35 Y21.90
G01 Z-1.70
G01 Z0
G00 Z2.00
G00 X61.85 Y21.90
G01 Z-1.70
G01 Z0
G00 Z2.00
G00 X61.85 Y17.40
G01 Z-1.70
G01 Z0
G00 Z2.00
G00 X55.35 Y17.40
G01 Z-1.70
G01 Z0
G00 Z2.00
G00 X51.35 Y17.40
G01 Z-1.70
G01 Z0
G00 Z2.00
G00 X51.35 Y11.40
G01 Z-1.70
G01 Z0
G00 Z2.00
G00 X51.35 Y6.90
G01 Z-1.70
G01 Z0
G00 Z2.00
G00 X44.85 Y6.90
G01 Z-1.70
G01 Z0
G00 Z2.00
G00 X44.85 Y11.40
G01 Z-1.70
G01 Z0
G00 Z2.00
G00 X44.85 Y17.40
G01 Z-1.70
G01 Z0
G00 Z2.00
G00 X40.85 Y17.40
G01 Z-1.70
G01 Z0
G00 Z2.00
G00 X40.85 Y21.90
G01 Z-1.70
G01 Z0
G00 Z2.00
G00 X34.35 Y21.90
G01 Z-1.70
G01 Z0
G00 Z2.00
G00 X34.35 Y17.40
G01 Z-1.70
G01 Z0
G00 Z2.00
G00 X21.16 Y5.20
G01 Z-1.70
G01 Z0
G00 Z2.00
G00 X18.62 Y5.20
G01 Z-1.70
G01 Z0
G00 Z2.00
G00 X16.08 Y5.20
G01 Z-1.70
G01 Z0
G00 Z2.00
G00 X13.54 Y5.20
G01 Z-1.70
G01 Z0
G00 Z2.00
M05
G00 Z0


M2
